SilviaXuva/Vision-guided-robot-manipulator/Helpers/Outputs copy/2023-12-09_21h08m34s/red9/Place/Joint Comparison/q_dot_dot_Ref.csv
,q0,q1,q2,q3,q4,q5,q6
0.0,0.0,0.0,0.0,0.0,0.0,0.0,0.0
0.05,0.0033976953598675265,0.0045718497377362196,0.0008616645230165004,-0.005905150113233012,0.005252159178331394,-0.00025702718396797427,-0.006145457672989022
0.1,0.006692947643558143,0.0090058547597618,0.0016973492111681818,-0.011632255499433872,0.010345961798522143,-0.0005063048046002307,-0.012105625164882899
0.15000000000000002,0.00988679162961909,0.013303407436942506,0.002507316487029436,-0.01718311459018877,0.015283007421765589,-0.0007479111403143019,-0.01788237409367249
0.2,0.012980262096597608,0.017465900140144097,0.0032918287731746555,-0.022559525817083873,0.020064895609255066,-0.0009819244695277202,-0.023477576077348652
0.25,0.01597439382304094,0.02149472524023234,0.004051148492178232,-0.027763287611705385,0.024693225922183915,-0.0012084230706580182,-0.02889310273390225
0.30000000000000004,0.018870221587496336,0.025391275108073007,0.004785538066614558,-0.03279619840563948,0.02916959792174549,-0.0014274852221227285,-0.03413082568132414
0.35000000000000003,0.02166878016851102,0.029156942114531844,0.005495259919058026,-0.03766005663047233,0.03349561116913311,-0.0016391892023393834,-0.03919261653760519
0.4,0.024371104344632247,0.03279311863047463,0.006180576472083026,-0.04235666071779013,0.03767286522554012,-0.0018436132897255153,-0.04408034692073624
0.45,0.02697822889440725,0.036301197026767124,0.006841750148263953,-0.04688780909917907,0.041702959652159866,-0.0020408357626986572,-0.04879588844870817
0.5,0.02949118859638328,0.03968256967427509,0.007479043370175198,-0.051255300206225325,0.04558749401018569,-0.002230934899676341,-0.053341112739511844
0.55,0.03191101822910757,0.0429386289438643,0.008092718560391152,-0.05546093247051508,0.04932806786081094,-0.0024139889790761003,-0.0577178914111381
0.6000000000000001,0.03423875257112737,0.0460707672064005,0.00868303814148621,-0.05950650432363451,0.05292628076522893,-0.0025900762793154663,-0.06192809608157782
0.65,0.036475426400989906,0.04908037683274947,0.00925026453603476,-0.0633938141971698,0.056383732284633004,-0.002759275078811971,-0.06597359836882184
0.7000000000000001,0.03862207449724244,0.05196885019377697,0.009794660166611197,-0.06712466052270716,0.05970202198021653,-0.0029216636559831494,-0.06985626989086105
0.75,0.04067973163843219,0.05473757966034875,0.010316487455789912,-0.07070084173183273,0.0628827494131728,-0.003077320289246532,-0.07357798226568629
0.8,0.04264943260310643,0.057387957603330604,0.010816008826145296,-0.07412415625613274,0.06592751414469522,-0.0032263232570196513,-0.07714060711128842
0.8500000000000001,0.044532212169812374,0.05992137639358827,0.011293486700251744,-0.07739640252719333,0.06883791573597707,-0.0033687508377200416,-0.08054601604565832
0.9,0.04632910511709727,0.06233922840198752,0.011749183500683647,-0.08051937897660072,0.07161555374821171,-0.003504681309765233,-0.08379608068678682
0.9500000000000001,0.04804114622350836,0.06464290599939412,0.012183361650015396,-0.08349488403594105,0.0742620277425925,-0.00363419295157276,-0.0868926726526648
1.0,0.04966937026759289,0.06683380155667383,0.012596283570821385,-0.08632471613680055,0.07677893728031275,-0.0037573640415601533,-0.0898376635612831
1.05,0.0512148120278981,0.06891330744469243,0.012988211685676005,-0.08901067371076538,0.07916788192256581,-0.0038742728581449472,-0.09263292503063263
1.1,0.05267850628297123,0.07088281603431566,0.013359408417153648,-0.09155455518942171,0.08143046123054504,-0.0039849976797446725,-0.09528032867870419
1.1500000000000001,0.054061487811359527,0.0727437196964093,0.013710136187828707,-0.09395815900435575,0.08356827476544375,-0.004089616784776864,-0.09778174612348865
1.2000000000000002,0.05536479139161021,0.07449741080183911,0.014040657420275573,-0.09622328358715368,0.08558292208845529,-0.004188208451659052,-0.10013904898297693
1.25,0.05658945180227055,0.07614528172147084,0.014351234537068635,-0.09835172736940166,0.087476002760773,-0.004280850958808769,-0.10235410887515979
1.3,0.05773650382188777,0.07768872482617027,0.014642129960782293,-0.1003452887826859,0.0892491163435902,-0.004367622584643548,-0.10442879741802816
1.35,0.05880698222900912,0.07912913248680317,0.014913606113990934,-0.10220576625859257,0.09090386239810028,-0.004448601607580923,-0.10636498622957292
1.4000000000000001,0.05980192180218184,0.0804678970742353,0.015165925419268948,-0.10393495822870787,0.09244184048549656,-0.004523866306038425,-0.10816454692778488
1.4500000000000002,0.060722357319953166,0.08170641095933241,0.015399350299190732,-0.10553466312461796,0.09386465016697235,-0.004593494958433587,-0.1098293511306549
1.5,0.061569323560870345,0.08284606651296027,0.015614143176330674,-0.107006679377909,0.09517389100372102,-0.004657565843183939,-0.11136127045617383
1.55,0.062343855303480626,0.08388825610598465,0.01581056647326317,-0.10835280542016724,0.09637116255693588,-0.004716157238707018,-0.1127621765223326
1.6,0.06304698732633124,0.08483437210927132,0.01598888261256261,-0.10957483968297882,0.09745806438781032,-0.0047693474234203545,-0.11403394094712203
1.6500000000000001,0.06367975440796943,0.08568580689368602,0.01614935401680339,-0.11067458059792994,0.09843619605753764,-0.00481721467574148,-0.11517843534853295
1.7000000000000002,0.06424319132694244,0.08644395283009454,0.01629224310855989,-0.11165382659660678,0.09930715712731118,-0.004859837274087928,-0.11619753134455625
1.75,0.0647383328617975,0.08711020228936263,0.01641781231040652,-0.1125143761105955,0.10007254715832431,-0.004897293496877231,-0.1170931005531828
1.8,0.06516621379108187,0.08768594764235607,0.01652632404491766,-0.11325802757148233,0.10073396571177033,-0.004929661622526921,-0.11786701459240344
1.85,0.06552786889334278,0.0881725812599406,0.016618040734667702,-0.1138865794108534,0.10129301234884261,-0.004957019929454531,-0.11852114508020901
1.9000000000000001,0.06582433294712747,0.08857149551298199,0.01669322480223104,-0.11440183006029495,0.10175128663073447,-0.004979446696077593,-0.11905736363459045
1.9500000000000002,0.06605664073098319,0.08888408277234601,0.01675213867018207,-0.11480557795139308,0.10211038811863926,-0.0049970202008136405,-0.11947754187353853
2.0,0.06622582702345718,0.08911173540889843,0.01679504476109518,-0.11509962151573407,0.10237191637375032,-0.005009818722080205,-0.11978355141504414
2.0500000000000003,0.06633292660309668,0.08925584579350501,0.016822205497544762,-0.11528575918490405,0.102537470957261,-0.005017920538294819,-0.11997726387709814
2.1,0.06637897424844894,0.08931780629703151,0.016833883302105213,-0.1153657893904892,0.10260865143036463,-0.0050214039278750145,-0.12006055087769145
2.15,0.06636500473806119,0.0892990092903437,0.01683034059735092,-0.11534151056407574,0.10258705735425457,-0.005020347169238326,-0.12003528403481484
2.2,0.06629205285048065,0.08920084714430733,0.016811839805856276,-0.1152147211372498,0.10247428829012409,-0.005014828540802284,-0.11990333496645919
2.25,0.0661611533642546,0.08902471222978818,0.01677864335019567,-0.11498721954159763,0.10227194379916661,-0.005004926320984422,-0.11966657529061539
2.3000000000000003,0.06597334105793026,0.088771996917652,0.016731013652943504,-0.11466080420870535,0.10198162344257541,-0.004990718788202274,-0.1193268766252743
2.35,0.06572965071005488,0.08844409357876457,0.01666921313667416,-0.11423727357015916,0.10160492678154387,-0.004972284220873368,-0.11888611058842674
2.4000000000000004,0.06543111709917569,0.08804239458399167,0.01659350422396204,-0.11371842605754527,0.10114345337726532,-0.0049497008974152415,-0.11834614879806361
2.45,0.06507877500383996,0.08756829230419899,0.016504149337381525,-0.11310606010244985,0.10059880279093311,-0.004923047096245425,-0.11770886287217577
2.5,0.06467365920259491,0.08702317911025237,0.01640141089950701,-0.11240197413645905,0.09997257458374058,-0.004892401095781449,-0.11697612442875407
2.5500000000000003,0.06421680447398778,0.08640844737301757,0.016285551332912897,-0.11160796659115914,0.09926636831688106,-0.004857841174440849,-0.11614980508578937
2.6,0.0637092455965658,0.08572548946336028,0.016156833060173563,-0.11072583589813617,0.09848178355154782,-0.004819445610641156,-0.11523177646127246
2.6500000000000004,0.06315201734887625,0.08497569775214632,0.016015518503863412,-0.10975738048897644,0.09762041984893431,-0.004777292682799902,-0.11422391017319435
2.7,0.06254615450946635,0.08416046461024154,0.01586187008655683,-0.10870439879526612,0.09668387677023386,-0.004731460669334623,-0.11312807783954577
2.75,0.06189269185688333,0.08328118240851153,0.01569615023082821,-0.10756868924859134,0.09567375387663973,-0.004682027848662847,-0.11194615107831762
2.8000000000000003,0.06119266416967444,0.08233924351782214,0.01551862135925195,-0.10635205028053832,0.09459165072934532,-0.004629072499202109,-0.11068000150750085
2.85,0.06044710622638692,0.08133604030903914,0.015329545894402425,-0.10505628032269318,0.09343916688954396,-0.004572672899369939,-0.10933150074508612
2.9000000000000004,0.05965705280556802,0.08027296515302831,0.01512918625885405,-0.10368317780664218,0.09221790191842899,-0.004512907327583872,-0.10790252040906445
2.95,0.058823538685764995,0.07915141042065538,0.014917804875181207,-0.10223454116397156,0.09092945537719375,-0.004449854062261441,-0.10639493211742669
3.0,0.05794759864552503,0.07797276848278609,0.014695664165958279,-0.10071216882626734,0.08957542682703154,-0.004383591381820177,-0.10481060748816363
3.0500000000000003,0.05703026746339543,0.07673843171028631,0.014463026553759674,-0.0991178592251158,0.08815741582913579,-0.004314197564677615,-0.10315141813926619
3.1,0.056072579917923394,0.07544979247402166,0.014220154461159778,-0.0974534107921031,0.08667702194469973,-0.004241750889251281,-0.10141923568872518
3.1500000000000004,0.0550755707876562,0.074108243144858,0.013967310310732972,-0.09572062195881546,0.08513584473491681,-0.0041663296339587135,-0.09961593175453151
3.2,0.05404027485114108,0.07271517609366111,0.01370475652505367,-0.09392129115683902,0.08353548376098029,-0.004088012077217447,-0.09774337795467605
3.25,0.05296772688692522,0.07127198369129667,0.013432755526696236,-0.09205721681775997,0.08187753858408352,-0.004006876497445006,-0.09580344590714956
3.3000000000000003,0.05185896167355593,0.06978005830863049,0.013151569738235091,-0.09013019737316454,0.08016360876541988,-0.003923001173058929,-0.093798007229943
3.35,0.05071501398958044,0.06824079231652835,0.012861461582244615,-0.08814203125463883,0.0783952938661827,-0.003836464382476745,-0.09172893354104719
3.4000000000000004,0.04953691861354595,0.06665557808585597,0.012562693481299188,-0.08609451689376907,0.07657419344756523,-0.00374734440411599,-0.08959809645845303
3.45,0.048325710323999786,0.0650258079874792,0.01225552785797323,-0.08398945272214153,0.07470190707076099,-0.0036557195163941965,-0.08740736760015132
3.5,0.0470824238994891,0.06335287439226372,0.01194022713484111,-0.08182863717134221,0.07278003429696314,-0.0035616679977288957,-0.08515861858413298
3.5500000000000003,0.045808094118561155,0.0616381696710753,0.011617053734477216,-0.07961386867295739,0.07081017468736511,-0.003465268126537616,-0.08285372102838882
3.6,0.04450375575976323,0.05988308619477973,0.01128627007945596,-0.07734694565857334,0.06879392780316027,-0.003366598181237896,-0.08049454655090969
3.6500000000000004,0.04317044360164253,0.058089016334242724,0.01094813859235172,-0.07502966655977603,0.06673289320554182,-0.0032657364402472657,-0.07808296676968647
3.7,0.04180919242274633,0.05625735246033016,0.010602921695738898,-0.07266382980815195,0.0646286704557033,-0.003162761181983258,-0.07562085330271008
3.75,0.0404210370016218,0.0543894869439077,0.010250881812191883,-0.07025123383528693,0.06248285911483787,-0.003057750684863404,-0.07311007776797133
3.8000000000000003,0.039007012116816286,0.052486812155841146,0.009892281364285061,-0.0677936770727674,0.06029705874413897,-0.0029507832273052404,-0.07055251178346107
3.85,0.03756815254687698,0.050550720466996275,0.009527382774592833,-0.06529295795217954,0.05807286890479993,-0.0028419370877262955,-0.06795002696717017
3.9000000000000004,0.03610549307035104,0.04858260424823875,0.009156448465689575,-0.06275087490510932,0.055811889158014,-0.002731290544544099,-0.06530449493708942
3.95,0.034620068465785823,0.04658385587043448,0.00877974086014969,-0.0601692263631431,0.053515719064974654,-0.00261892187617619,-0.06261778731120979
4.0,0.033112913511728556,0.044555867704449116,0.008397522380547582,-0.05754981075786707,0.05118595818687515,-0.0025049093610400985,-0.05989177570752209
4.05,0.031585062986726496,0.042500032121148605,0.008010055449457638,-0.05489442652086741,0.04882420608490898,-0.002389331277553361,-0.05712833174401722
4.1000000000000005,0.030037551669326788,0.04041774149139845,0.007617602489454227,-0.052204872083730175,0.04643206232026914,-0.002272265904133501,-0.05432932703868596
4.15,0.02847141433807676,0.03831038818606464,0.007220425923111772,-0.04948294587804173,0.04401112645414937,-0.002153791519198059,-0.05149663320951934
4.2,0.026887685771523607,0.03617936457601267,0.0068187881730046385,-0.0467304463353881,0.04156299804774269,-0.00203398640116456,-0.04863212187450798
4.25,0.025287400748214613,0.034026063032108624,0.00641295166170725,-0.043949171887355566,0.03908927666224259,-0.0019129288284505468,-0.04573766465164292
4.3,0.023671594046697008,0.031851875925218105,0.006003178811793966,-0.041140920965530306,0.03659156185884245,-0.001790697079473544,-0.042815133158914984
4.3500000000000005,0.022041300445517907,0.029658195626206762,0.005589732045839175,-0.03830749200149832,0.03407145319873546,-0.0016673694326510818,-0.039866399014314796
4.4,0.020397554723224815,0.027446414505940635,0.005172873786417312,-0.035450683426846145,0.03153055024311511,-0.0015430241664007025,-0.03689333383583361
4.45,0.01874139165836477,0.025217924935285296,0.004752866456102742,-0.03257229367315971,0.028970452553174732,-0.0014177395591399313,-0.03389780924146212
4.5,0.01707384602948507,0.02297411928510656,0.004329972477469846,-0.029674121172025267,0.026392759690107567,-0.0012915938892863006,-0.030881696849191145
4.55,0.015395952615132968,0.020716389926270194,0.0039044542730930424,-0.026757964355029015,0.02379907121510703,-0.0011646654352573471,-0.02784686827701159
4.6000000000000005,0.013708746193855597,0.018446129229641898,0.003476574265546697,-0.023825621653756995,0.021190986689366347,-0.0010370324754706,-0.024795195142914138
4.65,0.012013261544200403,0.016164729566087502,0.003046594877405223,-0.02087889149979557,0.01857010567407898,-0.0009087732883435897,-0.021728549064889986
4.7,0.010310533444714444,0.013873583306472724,0.0026147785312429957,-0.017919572324730838,0.01593802773043829,-0.0007799661522938576,-0.018648801660929668
4.75,0.008601596673945116,0.011574082821663454,0.002181387649634432,-0.014949462560149089,0.013296352419637556,-0.0006506893457389285,-0.015557824549024303
4.800000000000001,0.006887486010439544,0.009267620482525402,0.001746684655153899,-0.011970360637636419,0.010646679302870062,-0.0005210211470963392,-0.012457489347164645
4.8500000000000005,0.0051692362327450045,0.006955588659924192,0.0013109319703757919,-0.008984064988778911,0.00799060794132928,-0.00039103983478361635,-0.009349667673341529
4.9,0.003447882119408696,0.004639379724725672,0.0008743920178745216,-0.005992374045163026,0.0053297378962084245,-0.00026082368721829695,-0.006236231145545783
4.95,0.0017244584489779751,0.0023203860477957394,0.00043732722022446025,-0.002997086238374613,0.0026656687287009186,-0.00013045098281791435,-0.003119051381768378
5.0,0.0,-7.105427357601002e-17,0.0,-7.105427357601002e-17,7.105427357601002e-17,4.440892098500626e-18,-7.105427357601002e-17
5.050000000000001,-0.0017244584489779697,-0.0023203860477958495,-0.0004373272202244586,0.0029970862383744794,-0.0026656687287008,0.00013045098281792185,0.0031190513817682397
5.1000000000000005,-0.0034478821194087283,-0.004639379724725763,-0.000874392017874512,0.005992374045162817,-0.005329737896208222,0.0002608236872182985,0.006236231145545571
5.15,-0.005169236232744967,-0.006955588659924283,-0.001310931970375782,0.008984064988778772,-0.00799060794132908,0.0003910398347836179,0.009349667673341248
5.2,-0.006887486010439609,-0.009267620482525584,-0.0017466846551538976,0.011970360637636356,-0.010646679302870013,0.0005210211470963468,0.012457489347164506
5.25,-0.008601596673945082,-0.011574082821663596,-0.002181387649634432,0.014949462560148946,-0.013296352419637414,0.0006506893457389329,0.015557824549024163
5.300000000000001,-0.010310533444714585,-0.013873583306473028,-0.0026147785312430126,0.017919572324730845,-0.01593802773043823,0.000779966152293868,0.01864880166092974
5.3500000000000005,-0.012013261544200399,-0.016164729566087666,-0.0030465948774052124,0.02087889149979543,-0.01857010567407885,0.0009087732883435956,0.021728549064889774
5.4,-0.013708746193855662,-0.01844612922964208,-0.0034765742655466954,0.023825621653756932,-0.021190986689366226,0.0010370324754706032,0.024795195142914072
5.45,-0.015395952615132933,-0.020716389926270336,-0.0039044542730930516,0.026757964355028873,-0.02379907121510689,0.0011646654352573517,0.02784686827701145
5.5,-0.017073846029485067,-0.022974119285106728,-0.004329972477469854,0.02967412117202506,-0.026392759690107438,0.0012915938892863067,0.030881696849191002
5.550000000000001,-0.018741391658364765,-0.025217924935285456,-0.00475286645610275,0.03257229367315957,-0.028970452553174604,0.001417739559139933,0.033897809241461976
5.6000000000000005,-0.02039755472322481,-0.027446414505940816,-0.005172873786417311,0.035450683426845944,-0.03153055024311499,0.0015430241664007055,0.03689333383583347
5.65,-0.022041300445518046,-0.029658195626207084,-0.0055897320458392005,0.0383074920014984,-0.03407145319873548,0.0016673694326510937,0.03986639901431487
5.7,-0.023671594046697043,-0.03185187592521834,-0.006003178811793974,0.041140920965530174,-0.036591561858842325,0.0017906970794735499,0.04281513315891484
5.75,-0.025287400748214582,-0.03402606303210874,-0.006412951661707225,0.043949171887355344,-0.039089276662242364,0.0019129288284505453,0.045737664651642626
5.800000000000001,-0.026887685771523707,-0.03617936457601292,-0.006818788173004663,0.04673044633538804,-0.04156299804774264,0.0020339864011645723,0.04863212187450791
5.8500000000000005,-0.028471414338076862,-0.038310388186064824,-0.00722042592311178,0.04948294587804174,-0.04401112645414931,0.0021537915191980643,0.051496633209519346
5.9,-0.030037551669326742,-0.040417741491398554,-0.007617602489454235,0.052204872083729974,-0.046432062320268946,0.0022722659041335084,0.05432932703868589
5.95,-0.031585062986726496,-0.04250003212114873,-0.00801005544945764,0.05489442652086726,-0.048824206084908756,0.002389331277553362,0.05712833174401708
6.0,-0.0331129135117286,-0.0445558677044494,-0.0083975223805476,0.057549810757867,-0.05118595818687515,0.0025049093610401054,0.059891775707522014
6.050000000000001,-0.03462006846578589,-0.04658385587043466,-0.008779740860149706,0.060169226363142966,-0.053515719064974536,0.0026189218761761995,0.06261778731120965
6.1000000000000005,-0.03610549307035104,-0.04858260424823893,-0.009156448465689573,0.06275087490510926,-0.05581188915801396,0.002731290544544104,0.06530449493708922
6.15,-0.03756815254687695,-0.050550720466996414,-0.009527382774592825,0.0652929579521794,-0.05807286890479979,0.0028419370877262977,0.06795002696716997
6.2,-0.03900701211681632,-0.052486812155841396,-0.00989228136428507,0.06779367707276747,-0.060297058744138904,0.002950783227305247,0.070552511783461
6.25,-0.04042103700162187,-0.05438948694390785,-0.010250881812191883,0.07025123383528672,-0.0624828591148378,0.0030577506848634105,0.07311007776797127
6.300000000000001,-0.04180919242274636,-0.056257352460330444,-0.010602921695738907,0.07266382980815182,-0.06462867045570317,0.0031627611819832653,0.07562085330271001
6.3500000000000005,-0.04317044360164253,-0.05808901633424278,-0.01094813859235172,0.07502966655977582,-0.06673289320554161,0.003265736440247267,0.0780829667696862
6.4,-0.044503755759763196,-0.05988308619477983,-0.011286270079455943,0.07734694565857313,-0.06879392780316002,0.0033665981812379003,0.08049454655090962
6.45,-0.04580809411856122,-0.061638169671075424,-0.011617053734477224,0.07961386867295739,-0.07081017468736502,0.0034652681265376216,0.08285372102838869
6.5,-0.0470824238994891,-0.06335287439226396,-0.011940227134841119,0.08182863717134214,-0.07278003429696314,0.0035616679977289066,0.08515861858413291
6.550000000000001,-0.04832571032399989,-0.06502580798747946,-0.012255527857973236,0.08398945272214146,-0.07470190707076092,0.0036557195163942065,0.08740736760015125
6.6000000000000005,-0.04953691861354602,-0.0666555780858562,-0.012562693481299205,0.086094516893769,-0.07657419344756518,0.0037473444041160003,0.08959809645845296
6.65,-0.05071501398958041,-0.06824079231652848,-0.012861461582244596,0.08814203125463861,-0.07839529386618242,0.003836464382476749,0.09172893354104712
6.7,-0.051858961673556025,-0.0697800583086307,-0.013151569738235109,0.09013019737316447,-0.08016360876541975,0.003923001173058935,0.09379800722994312
6.75,-0.05296772688692526,-0.07127198369129686,-0.013432755526696245,0.09205721681775982,-0.08187753858408342,0.004006876497445017,0.0958034459071495
6.800000000000001,-0.05404027485114115,-0.0727151760936614,-0.013704756525053687,0.09392129115683907,-0.08353548376098024,0.0040880120772174575,0.09774337795467605
6.8500000000000005,-0.05507557078765613,-0.07410824314485805,-0.01396731031073297,0.09572062195881528,-0.08513584473491659,0.004166329633958719,0.09961593175453133
6.9,-0.056072579917923394,-0.07544979247402178,-0.014220154461159757,0.09745341079210285,-0.08667702194469955,0.00424175088925129,0.10141923568872498
6.95,-0.057030267463395436,-0.07673843171028645,-0.014463026553759679,0.0991178592251157,-0.08815741582913567,0.004314197564677615,0.10315141813926612
7.0,-0.05794759864552505,-0.07797276848278632,-0.01469566416595827,0.10071216882626724,-0.08957542682703146,0.004383591381820187,0.10481060748816357
7.050000000000001,-0.05882353868576506,-0.07915141042065564,-0.01491780487518123,0.10223454116397152,-0.09092945537719363,0.004449854062261451,0.10639493211742668
7.1000000000000005,-0.05965705280556805,-0.08027296515302842,-0.015129186258854057,0.10368317780664224,-0.09221790191842894,0.004512907327583882,0.10790252040906441
7.15,-0.06044710622638701,-0.08133604030903945,-0.015329545894402472,0.10505628032269332,-0.09343916688954394,0.004572672899369957,0.10933150074508619
7.2,-0.06119266416967442,-0.08233924351782235,-0.015518621359251963,0.10635205028053814,-0.09459165072934514,0.004629072499202113,0.11068000150750067
7.25,-0.06189269185688336,-0.0832811824085118,-0.015696150230828237,0.10756868924859124,-0.09567375387663953,0.004682027848662855,0.11194615107831762
7.300000000000001,-0.06254615450946638,-0.08416046461024182,-0.015861870086556835,0.10870439879526612,-0.09668387677023363,0.004731460669334623,0.11312807783954563
7.3500000000000005,-0.06315201734887634,-0.08497569775214657,-0.016015518503863423,0.10975738048897644,-0.09762041984893421,0.0047772926827999215,0.11422391017319435
7.4,-0.0637092455965658,-0.0857254894633605,-0.016156833060173556,0.11072583589813602,-0.09848178355154769,0.00481944561064116,0.11523177646127243
7.45,-0.06421680447398774,-0.08640844737301771,-0.016285551332912894,0.11160796659115896,-0.09926636831688088,0.004857841174440857,0.11614980508578926
7.5,-0.06467365920259496,-0.08702317911025254,-0.01640141089950701,0.11240197413645901,-0.0999725745837403,0.004892401095781456,0.11697612442875396
7.550000000000001,-0.06507877500384,-0.08756829230419935,-0.01650414933738155,0.1131060601024499,-0.10059880279093307,0.004923047096245433,0.11770886287217577
7.6000000000000005,-0.06543111709917568,-0.08804239458399171,-0.01659350422396202,0.1137184260575451,-0.10114345337726509,0.004949700897415238,0.11834614879806347
7.65,-0.0657296507100548,-0.08844409357876476,-0.01666921313667415,0.11423727357015886,-0.10160492678154365,0.004972284220873371,0.11888611058842649
7.7,-0.06597334105793017,-0.088771996917652,-0.01673101365294348,0.11466080420870499,-0.10198162344257511,0.004990718788202276,0.11932687662527405
7.75,-0.06616115336425468,-0.08902471222978833,-0.016778643350195688,0.11498721954159759,-0.10227194379916645,0.005004926320984429,0.11966657529061539
7.800000000000001,-0.06629205285048065,-0.08920084714430758,-0.016811839805856293,0.11521472113724972,-0.10247428829012403,0.005014828540802302,0.11990333496645916
7.8500000000000005,-0.06636500473806119,-0.08929900929034389,-0.01683034059735091,0.11534151056407563,-0.10258705735425425,0.005020347169238326,0.12003528403481466
7.9,-0.06637897424844907,-0.08931780629703182,-0.016833883302105234,0.11536578939048928,-0.10260865143036461,0.0050214039278750275,0.12006055087769152
7.95,-0.06633292660309659,-0.0892558457935051,-0.01682220549754475,0.11528575918490387,-0.10253747095726082,0.005017920538294812,0.11997726387709799
8.0,-0.06622582702345729,-0.08911173540889873,-0.01679504476109521,0.1150996215157341,-0.10237191637375023,0.005009818722080215,0.11978355141504414
8.05,-0.06605664073098305,-0.08888408277234612,-0.01675213867018204,0.11480557795139276,-0.10211038811863896,0.004997020200813647,0.11947754187353826
8.1,-0.06582433294712742,-0.0885714955129821,-0.016693224802231038,0.11440183006029478,-0.10175128663073421,0.00497944669607759,0.1190573636345903
8.15,-0.0655278688933428,-0.0881725812599408,-0.016618040734667692,0.11388657941085327,-0.10129301234884243,0.0049570199294545455,0.11852114508020874
8.200000000000001,-0.06516621379108192,-0.08768594764235635,-0.016526324044917676,0.11325802757148233,-0.10073396571177025,0.004929661622526932,0.11786701459240359
8.25,-0.06473833286179749,-0.08711020228936278,-0.016417812310406493,0.11251437611059531,-0.10007254715832403,0.004897293496877234,0.1170931005531825
8.3,-0.06424319132694234,-0.08644395283009448,-0.01629224310855985,0.11165382659660646,-0.0993071571273108,0.0048598372740879265,0.11619753134455614
8.35,-0.06367975440796955,-0.08568580689368643,-0.016149354016803417,0.11067458059793028,-0.09843619605753769,0.004817214675741498,0.11517843534853331
8.4,-0.06304698732633118,-0.08483437210927165,-0.0159888826125626,0.10957483968297875,-0.0974580643878102,0.004769347423420362,0.11403394094712185
8.450000000000001,-0.062343855303480564,-0.08388825610598474,-0.015810566473263163,0.10835280542016694,-0.09637116255693565,0.004716157238707014,0.11276217652233242
8.5,-0.061569323560870304,-0.08284606651296053,-0.01561414317633065,0.10700667937790893,-0.09517389100372084,0.004657565843183943,0.11136127045617368
8.55,-0.06072235731995306,-0.0817064109593326,-0.015399350299190711,0.10553466312461784,-0.09386465016697193,0.004593494958433589,0.10982935113065447
8.6,-0.059801921802181794,-0.08046789707423549,-0.015165925419268901,0.1039349582287076,-0.09244184048549636,0.0045238663060384226,0.10816454692778457
8.65,-0.05880698222900932,-0.0791291324868036,-0.014913606113990972,0.10220576625859272,-0.0909038623981003,0.004448601607580946,0.10636498622957324
8.700000000000001,-0.05773650382188787,-0.07768872482617051,-0.0146421299607823,0.10034528878268574,-0.08924911634359,0.004367622584643552,0.10442879741802814
8.75,-0.05658945180227043,-0.07614528172147107,-0.01435123453706864,0.09835172736940159,-0.08747600276077289,0.0042808509588087695,0.10235410887515968
8.8,-0.05536479139161005,-0.07449741080183919,-0.014040657420275543,0.09622328358715337,-0.0855829220884549,0.004188208451659048,0.1001390489829768
8.85,-0.05406148781135954,-0.07274371969640968,-0.013710136187828714,0.0939581590043556,-0.08356827476544346,0.004089616784776878,0.09778174612348872
8.9,-0.05267850628297114,-0.07088281603431583,-0.013359408417153648,0.09155455518942164,-0.08143046123054473,0.003984997679744679,0.09528032867870387
8.950000000000001,-0.051214812027898085,-0.06891330744469246,-0.012988211685675977,0.08901067371076518,-0.07916788192256553,0.0038742728581449438,0.0926329250306326
9.0,-0.04966937026759278,-0.06683380155667405,-0.012596283570821381,0.08632471613680029,-0.07677893728031245,0.003757364041560155,0.0898376635612829
9.05,-0.048041146223508226,-0.06464290599939428,-0.012183361650015358,0.08349488403594062,-0.07426202774259195,0.0036341929515727608,0.08689267265266451
9.1,-0.046329105117097195,-0.06233922840198765,-0.01174918350068365,0.08051937897660072,-0.07161555374821152,0.0035046813097652472,0.0837960806867869
9.15,-0.0445322121698124,-0.059921376393588535,-0.011293486700251786,0.07739640252719338,-0.06883791573597701,0.0033687508377200533,0.08054601604565828
9.200000000000001,-0.04264943260310647,-0.057387957603330736,-0.010816008826145253,0.0741241562561327,-0.0659275141446948,0.0032263232570196466,0.07714060711128817
9.25,-0.040679731638432186,-0.05473757966034902,-0.010316487455789933,0.07070084173183261,-0.06288274941317247,0.00307732028924654,0.07357798226568611
9.3,-0.0386220744972424,-0.051968850193777366,-0.009794660166611216,0.0671246605227072,-0.05970202198021623,0.0029216636559831637,0.06985626989086104
9.35,-0.03647542640098989,-0.04908037683274969,-0.009250264536034768,0.06339381419717,-0.05638373228463296,0.0027592750788119863,0.06597359836882193
9.4,0.0,0.0,0.0,0.0,0.0,0.0,0.0
9.450000000000001,0.004112922040280852,0.006312648079288502,-0.0012099718382422517,-0.002423780102235008,0.006402604347807105,-4.5784124314890664e-05,-0.0036646616202801272
9.5,0.008101836380854745,0.012434965060709008,-0.0023834621135224252,-0.004774481407417705,0.012612165348444147,-9.018782277104091e-05,-0.007218830930401055
9.55,0.011967995624749022,0.018368873480603624,-0.0035208393264765025,-0.007052842085215286,0.018630632934710824,-0.00013322503906399358,-0.010663624014303786
9.600000000000001,0.01571265237499102,0.02411629587531444,-0.004622471977740462,-0.009259600305294942,0.02445995703940683,-0.00017490971688929148,-0.01400015695592932
9.65,0.01933705923460809,0.02967915478118357,-0.005688728567950285,-0.011395494237323875,0.030102087595331867,-0.00021525579994247744,-0.01722954583921866
9.700000000000001,0.022842468806627575,0.03505937273455311,-0.006719977597741954,-0.013461262050969276,0.035558974535285635,-0.00025427723191909435,-0.02035290674811281
9.75,0.026230133694076806,0.040258872271765146,-0.007716587567751446,-0.01545764191589834,0.04083256779206782,-0.00029198795651468496,-0.02337135576655277
9.8,0.02950130649998314,0.045279575929161806,-0.008678926978614743,-0.01738537200177826,0.045924817298478124,-0.00032840191742479214,-0.026286008978479537
9.850000000000001,0.03265723982737392,0.05012340624308517,-0.009607364330967828,-0.019245190478276233,0.05083767298731625,-0.0003635330583449587,-0.029097982467834124
9.9,0.03569918627927647,0.05479228574987736,-0.010502268125446681,-0.02103783551505946,0.055573084791381906,-0.00039739532297072757,-0.031808392318557525
9.950000000000001,0.038628398458718155,0.05928813698588046,-0.011364006862687279,-0.02276404528179513,0.06013300264347477,-0.0004300026549976415,-0.034418354614590745
10.0,0.04144612896872632,0.06361288248743657,-0.012192949043325607,-0.02442455794815044,0.06451937647639455,-0.00046136899812124335,-0.036928985439874794
10.05,0.04415363041232828,0.06776844479088778,-0.01298946316799764,-0.026020111683792577,0.06873415622294092,-0.0004915082960370758,-0.03934140087835065
10.100000000000001,0.046752155392551405,0.07175674643257623,-0.013753917737339366,-0.027551444658388748,0.07277929181591362,-0.000520434492440682,-0.041656717013959337
10.15,0.049242956512423025,0.07557970994884398,-0.014486681251986757,-0.029019295041606143,0.07665673318811232,-0.0005481615310276044,-0.04387604993064184
10.200000000000001,0.051627286374970494,0.07923925787603316,-0.0151881222125758,-0.030424401003111955,0.08036843027233673,-0.0005747033554933862,-0.04600051571233919
10.25,0.05390639758322115,0.08273731275048586,-0.015858609119742476,-0.03176750071257338,0.08391633300138653,-0.00060007390953357,-0.048031230442992366
10.3,0.05608154274020232,0.08607579710854417,-0.01649851047412276,-0.033049332339657615,0.08730239130806142,-0.0006242871368436988,-0.04996931020654236
10.350000000000001,0.058153974448941374,0.08925663348655022,-0.017108194776352642,-0.034270634054031864,0.09052855512516113,-0.0006473569811193151,-0.051815871086930206
10.4,0.060124945312465636,0.09228174442084607,-0.01768803052706809,-0.0354321440253633,0.0935967743854853,-0.0006692973860559622,-0.05357202916809688
10.450000000000001,0.06199570793380246,0.09515305244777386,-0.018238386226905098,-0.03653460042331914,0.0965089990218337,-0.0006901222953491827,-0.0552389005339834
10.5,0.06376751491597918,0.09787248010367568,-0.018759630376499633,-0.037578741417566563,0.09926717896700596,-0.0007098456526945193,-0.056817601268530755
10.55,0.06544161886202315,0.10044194992489361,-0.019252131476487685,-0.03856530517777277,0.10187326415380182,-0.000728481401787515,-0.058309247455679954
10.600000000000001,0.0670192723749617,0.10286338444776977,-0.019716258027505235,-0.03949502987360496,0.10432920451502098,-0.0007460434863237127,-0.059714955179372
10.65,0.06850172805782218,0.10513870620864624,-0.020152378530188253,-0.040368653674730325,0.10663694998346308,-0.0007625458499986548,-0.06103584052354788
10.700000000000001,0.06989023851363192,0.10726983774386514,-0.02056086148517273,-0.04118691475081605,0.10879845049192788,-0.0007780024365078847,-0.06227301957214862
10.75,0.0711860563454183,0.1092587015897686,-0.02094207539309465,-0.04195055127152935,0.11081565597321508,-0.000792427189546945,-0.06342760840911521
10.8,0.07239043415620863,0.11110722028269868,-0.021296388754589987,-0.042660301406537406,0.11269051636012431,-0.0008058340528113786,-0.06450072311838866
10.850000000000001,0.07350462454903026,0.11281731635899747,-0.021624170070294713,-0.04331690332550742,0.11442498158545535,-0.0008182369699967281,-0.06549347978390994
10.9,0.07452988012691052,0.1143909123550071,-0.02192578784084482,-0.04392109519810658,0.11602100158200783,-0.0008296498847985364,-0.06640699448962009
10.950000000000001,0.0754674534928768,0.11582993080706969,-0.022201610566876286,-0.044473615194002086,0.11748052628258149,-0.0008400867409123466,-0.0672423833194601
11.0,0.07631859724995638,0.11713629425152729,-0.022452006749025095,-0.044975201482861146,0.11880550561997602,-0.0008495614820337013,-0.06800076235737099
11.05,0.07708456400117664,0.11831192522472202,-0.022677344887927223,-0.04542659223435093,0.11999788952699111,-0.0008580880518581433,-0.06868324768729371
11.100000000000001,0.07776660634956492,0.11935874626299599,-0.022877993484218654,-0.04582852561813864,0.12105962793642645,-0.0008656803940812158,-0.0692909553931693
11.15,0.07836597689814857,0.1202786799026913,-0.02305432103853536,-0.04618173980389148,0.12199267078108177,-0.000872352452398461,-0.06982500155893877
11.200000000000001,0.07888392824995491,0.12107364868015004,-0.02320669605151333,-0.04648697296127664,0.12279896799375672,-0.0008781181705054224,-0.0702865022685431
11.25,0.0793217130080113,0.12174557513171433,-0.023335487023788546,-0.04674496325996132,0.12348046950725104,-0.0008829914920976424,-0.07067657360592332
11.3,0.07968058377534509,0.12229638179372626,-0.023441062455996985,-0.046956448869612706,0.1240391252543644,-0.000886986360870664,-0.0709963316550204
11.350000000000001,0.0799617931549836,0.12272799120252792,-0.023523790848774623,-0.047122167959898,0.12447688516789653,-0.0008901167205200299,-0.07124689249977535
11.4,0.08016659374995419,0.12304232589446143,-0.02358404070275745,-0.047242858700484384,0.12479569918064706,-0.000892396514741283,-0.07142937222412918
11.450000000000001,0.08029623816328417,0.12324130840586886,-0.023622180518581438,-0.04731925926103909,0.12499751722541579,-0.0008938396872299662,-0.07154488691202289
11.5,0.08035197899800094,0.12332686127309238,-0.023638578796882578,-0.047352107811229255,0.12508428923500234,-0.0008944601816816222,-0.07159455264739747
11.55,0.08033506885713182,0.12330090703247402,-0.02363360403829684,-0.047342142520722136,0.1250579651422064,-0.000894271941791794,-0.07157948551419395
11.600000000000001,0.08024676034370413,0.1231653682203559,-0.02360762474346021,-0.04729010155918487,0.1249204948798277,-0.0008932889112560241,-0.0715008015963533
11.65,0.08008830606074524,0.12292216737308014,-0.023561009413008666,-0.0471967230962847,0.12467382838066599,-0.0008915250337698559,-0.07135961697781655
11.700000000000001,0.07986095861128248,0.1225732270269888,-0.023494126547578188,-0.04706274530168879,0.12431991557752088,-0.0008889942530288318,-0.07115704774252468
11.75,0.07956597059834318,0.12212046971842401,-0.023407344647804758,-0.046888906345064346,0.12386070640319206,-0.0008857105127284945,-0.0708942099744187
11.8,0.07920459462495472,0.1215658179837279,-0.023301032214324363,-0.04667594439607858,0.12329815079047933,-0.0008816877565643877,-0.07057221975743964
11.850000000000001,0.07877808329414443,0.12091119435924254,-0.023175557747772975,-0.046424597624398656,0.12263419867218227,-0.000876939928232053,-0.07019219317552845
11.9,0.07828768920893964,0.12015852138130999,-0.02303128974878657,-0.04613560419969178,0.12187079998110065,-0.0008714809714270341,-0.06975524631262615
11.950000000000001,0.0777346649723677,0.11930972158627244,-0.022868596718001143,-0.04580970229162516,0.12100990465003418,-0.0008653248298448737,-0.06926249525267375
12.0,0.07712026318745592,0.1183667175104719,-0.022687847156052657,-0.04544763006986597,0.12005346261178246,-0.0008584854471811141,-0.06871505607961226
12.05,0.07644573645723168,0.11733143169025052,-0.022489409563577114,-0.04505012570408142,0.11900342379914532,-0.0008509767671312987,-0.06811404487738267
12.100000000000001,0.07571233738472236,0.11620578666195042,-0.022273652441210486,-0.044617927363938714,0.11786173814492237,-0.0008428127333909704,-0.067460577729926
12.15,0.07492131857295523,0.11499170496191365,-0.02204094428958874,-0.04415177321910504,0.11663035558191336,-0.0008340072896556717,-0.06675577072118323
12.200000000000001,0.07407393262495766,0.11369110912648239,-0.021791653609347882,-0.043652401439247576,0.1153112260429179,-0.0008245743796209455,-0.06600073993509536
12.25,0.07317143214375699,0.11230592169199861,-0.02152614890112386,-0.0431205501940335,0.11390629946073577,-0.0008145279469823346,-0.06519660145560341
12.3,0.0722150697323806,0.1108380651948045,-0.021244798665552685,-0.04255695765313007,0.11241752576816663,-0.0008038819354353817,-0.06434447136664835
12.350000000000001,0.0712060979938558,0.10928946217124225,-0.020947971403270333,-0.041962361986204455,0.11084685489801022,-0.0007926502886756303,-0.06344546575217126
12.4,0.0701457695312099,0.10766203515765374,-0.020636035614912757,-0.04133750136292383,0.1091962367830662,-0.0007808469503986225,-0.06250070069611302
12.450000000000001,0.06903533694747031,0.10595770669038124,-0.020309359801115975,-0.04068311395295539,0.10746762135613426,-0.0007684858642999017,-0.061511292282414747
12.5,0.06787605284566431,0.10417839930576678,-0.01996831246251594,-0.039999937925966365,0.10566295855001409,-0.0007555809740750098,-0.06047835659501736
12.55,0.0666691698288193,0.1023260355401525,-0.019613262099748646,-0.0392887114516239,0.10378419829750546,-0.0007421462234194908,-0.059403009717861936
12.600000000000001,0.06541594049996262,0.10040253792988053,-0.019244577213450076,-0.03855017269959524,0.10183329053140802,-0.0007281955560288867,-0.058286367734889405
12.65,0.06411761746212152,0.09840982901129286,-0.01886262630425619,-0.03778505983954755,0.0998121851845214,-0.0007137429155987409,-0.0571295467300408
12.700000000000001,0.06277545331832352,0.09634983132073166,-0.018467777872802994,-0.03699411104114804,0.09772283218964542,-0.0006988022458245958,-0.05593366278725716
12.75,0.061390700671595744,0.09422446739453907,-0.018060400419726456,-0.03617806447406388,0.09556718147957971,-0.0006833874904019944,-0.054699831990479425
12.8,0.0599646121249657,0.09203565976905713,-0.017640862445662556,-0.03533765830796229,0.09334718298712395,-0.0006675125930264794,-0.05342917042364861
12.850000000000001,0.0584984402814607,0.08978533098062798,-0.017209532451247286,-0.03447363071251047,0.09106478664507792,-0.0006511914973935939,-0.05212279417070576
12.9,0.05699343774410804,0.08747540356559366,-0.016766778937116616,-0.033586719857375595,0.08872194238624129,-0.0006344381471988807,-0.05078181931559185
12.950000000000001,0.05545085711593508,0.08510780006029632,-0.016312970403906522,-0.03267766391222486,0.08632060014341363,-0.0006172664861378823,-0.04940736194224786
13.0,0.05387195099996919,0.08268444300107809,-0.015848475352252995,-0.03174720104672547,0.08386270984939481,-0.0005996904579061422,-0.04800053813461483
13.05,0.052257971999237665,0.08020725492428094,-0.015373662282792,-0.03079606943054463,0.08135022143698446,-0.0005817240061992024,-0.04656246397663372
13.100000000000001,0.05061017271676795,0.07767815836624718,-0.01488889969615955,-0.029825007233349524,0.07878508483898228,-0.0005633810747126064,-0.045094255552245575
13.15,0.04892980575558727,0.07509907586331878,-0.014394556092991593,-0.02883475262480733,0.07616924998818789,-0.0005446756071418962,-0.043597028945391365
13.200000000000001,0.047218123718723005,0.07247192995183784,-0.01389099997392413,-0.02782604377458528,0.07350466681740117,-0.0005256215471826156,-0.042071900240012096
13.25,0.04547637920920255,0.06979864316814646,-0.013378599839593122,-0.026799618852350528,0.07079328525942163,-0.0005062328385303072,-0.04051998552004881
13.3,0.043705824830053114,0.06708113804858669,-0.012857724190634565,-0.025756216027770295,0.06803705524704902,-0.00048652342488051303,-0.03894240086944242
13.350000000000001,0.041907713184302205,0.06432133712950071,-0.012328741527684421,-0.024696573470511733,0.06523792671308308,-0.00046650724992877696,-0.037340262372134
13.4,0.040083296874977054,0.061521162947230694,-0.011792020351378704,-0.023621429350242137,0.06239784959032352,-0.000446198257370641,-0.03571468611206456
13.450000000000001,0.038233828505105115,0.05868253803811867,-0.011247929162353381,-0.022531521836628664,0.05951877381157002,-0.00042561039090164947,-0.03406678817317513
13.5,0.03636056067771358,0.05580738493850662,-0.010696836461244396,-0.021427589099338406,0.05660264930962221,-0.0004047575942173428,-0.0323976846394066
13.55,0.034464745995829944,0.052897626184736916,-0.010139110748687799,-0.02031036930803868,0.05365142601727998,-0.00038365381101326633,-0.030708491594700075
13.600000000000001,0.032547637062481385,0.049955184313151324,-0.009575120525319508,-0.019180600632396596,0.050667053867342667,-0.0003623129849849606,-0.029000325122996443
13.65,0.03061048648069541,0.04698198186009224,-0.009005234291775542,-0.01803902124207946,0.04765148279261039,-0.0003407490598279705,-0.027274301308236857
13.700000000000001,0.02865454685349926,0.0439799413619016,-0.008429820548691853,-0.016886369306754363,0.04460666272588264,-0.00031897597923783783,-0.025531536234362207
13.75,0.026681070783920232,0.04095098535492141,-0.007849247796704421,-0.015723382996088497,0.04153454359995887,-0.00029700768691010384,-0.023773145985313465
13.8,0.024691310874985904,0.037897036375494096,-0.0072638845364492695,-0.014550800479749137,0.038437075347639266,-0.00027485812654031507,-0.022000246645031793
13.850000000000001,0.022686519729723374,0.03482001695996157,-0.006674099268562359,-0.013369359927403434,0.035316207901723254,-0.0002525412418240118,-0.020213954297458078
13.9,0.020667949951160048,0.031721849644665866,-0.006080260493679624,-0.012179799508718558,0.03217389119501058,-0.00023007097645673724,-0.01841538502653331
13.950000000000001,0.018636854142323352,0.028604456965949165,-0.005482736712437122,-0.010982857393361785,0.029012075160300944,-0.00020746127413403411,-0.016605654916198573
14.0,0.016594484906240506,0.025469761460153496,-0.004881896425470763,-0.009779271751000193,0.025832709730393956,-0.00018472607855144545,-0.014785880050394749
14.05,0.014542094845938958,0.02231968566362104,-0.004278108133416567,-0.00856978075130106,0.02263774483808938,-0.00016187933340451412,-0.012957176513062947
14.100000000000001,0.012480936564445927,0.01915615211269384,-0.0036717403369104984,-0.007355122563931575,0.0194291304161869,-0.0001389349823887826,-0.011120660388144119
14.15,0.010412262664788985,0.015981083343714203,-0.003063161536588579,-0.006136035358558939,0.016208816397486357,-0.00011590696919979527,-0.009277447759579251
14.200000000000001,0.008337325749995203,0.012796401893023963,-0.0024527402330867527,-0.004913257304850306,0.012978752714787298,-9.280923753309353e-05,-0.007428654711309438
14.25,0.006257378423092109,0.009604030296965294,-0.001840844927040988,-0.00368752657247288,0.009740889300889405,-6.965573108421969e-05,-0.005575397327275574
14.3,0.004173673287106987,0.006405891091880374,-0.0012278441190872826,-0.0024595813310939194,0.006497176088592444,-4.6460393548717885e-05,-0.003718791691418753
14.350000000000001,0.002087462945067197,0.003203906814111241,-0.000614106309861624,-0.0012301597503805218,0.0032495630106960305,-2.3237168622130833e-05,-0.0018599538876798913
14.4,0.0,0.0,3.552713678800501e-17,7.105427357601002e-17,0.0,0.0,0.0
14.450000000000001,-0.002087462945067175,-0.003203906814111241,0.0006141063098616855,0.0012301597503806803,-0.0032495630106961705,2.323716862213091e-05,0.0018599538876798085
14.5,-0.004173673287106941,-0.006405891091880233,0.0012278441190873223,0.0024595813310940343,-0.006497176088592443,4.646039354871736e-05,0.003718791691418641
14.55,-0.006257378423092062,-0.009604030296965294,0.0018408449270410276,0.0036875265724730304,-0.009740889300889333,6.965573108421917e-05,0.005575397327275533
14.600000000000001,-0.008337325749995253,-0.012796401893024034,0.0024527402330868143,0.004913257304850465,-0.012978752714787368,9.280923753309362e-05,0.007428654711309427
14.65,-0.010412262664788913,-0.015981083343714203,0.003063161536588632,0.006136035358559081,-0.016208816397486357,0.00011590696919979527,0.00927744775957918
14.700000000000001,-0.012480936564446094,-0.019156152112693982,0.0036717403369105916,0.007355122563931761,-0.019429130416187115,0.00013893498238878375,0.011120660388144148
14.75,-0.014542094845938911,-0.02231968566362097,0.004278108133416625,0.008569780751301211,-0.022637744838089308,0.0001618793334045136,0.012957176513062905
14.8,-0.01659448490624048,-0.025469761460153496,0.0048818964254708245,0.009779271751000353,-0.025832709730393883,0.00018472607855144608,0.014785880050394667
14.850000000000001,-0.018636854142323352,-0.028604456965949165,0.005482736712437175,0.010982857393361927,-0.029012075160300944,0.00020746127413403411,0.0166056549161985
14.9,-0.020667949951160072,-0.031721849644665866,0.006080260493679699,0.01217979950871871,-0.03217389119501058,0.00023007097645673616,0.018415385026533268
14.950000000000001,-0.022686519729723402,-0.03482001695996164,0.006674099268562416,0.013369359927403585,-0.03531620790172332,0.00025254124182401183,0.02021395429745804
15.0,-0.024691310874985883,-0.037897036375494096,0.007263884536449315,0.014550800479749297,-0.038437075347639266,0.0002748581265403151,0.02200024664503174
15.05,-0.02668107078392035,-0.04095098535492169,0.007849247796704518,0.01572338299608869,-0.041534543599959076,0.0002970076869101056,0.02377314598531352
15.100000000000001,-0.02865454685349928,-0.0439799413619016,0.008429820548691928,0.016886369306754512,-0.04460666272588257,0.0003189759792378385,0.025531536234362166
15.15,-0.03061048648069532,-0.04698198186009216,0.009005234291775572,0.018039021242079557,-0.04765148279261025,0.00034074905982796984,0.027274301308236756
15.200000000000001,-0.0325476370624815,-0.0499551843131514,0.009575120525319569,0.01918060063239679,-0.050667053867342805,0.00036231298498496175,0.029000325122996398
15.25,-0.03446474599582996,-0.052897626184737055,0.010139110748687879,0.02031036930803887,-0.05365142601728005,0.00038365381101326693,0.03070849159470006
15.3,-0.03636056067771356,-0.05580738493850662,0.010696836461244441,0.021427589099338566,-0.05660264930962221,0.00040475759421734287,0.03239768463940652
15.350000000000001,-0.038233828505105094,-0.05868253803811867,0.01124792916235343,0.022531521836628796,-0.059518773811570086,0.0004256103909016489,0.03406678817317506
15.4,-0.04008329687497713,-0.06152116294723084,0.011792020351378775,0.023621429350242314,-0.062397849590323656,0.00044619825737064154,0.0357146861120646
15.450000000000001,-0.04190771318430222,-0.06432133712950071,0.012328741527684501,0.024696573470511893,-0.06523792671308315,0.000466507249928777,0.03734026237213393
15.5,-0.04370582483005309,-0.06708113804858662,0.01285772419063461,0.025756216027770493,-0.06803705524704895,0.00048652342488051374,0.03894240086944234
15.55,-0.045476379209202514,-0.06979864316814631,0.013378599839593174,0.02679961885235067,-0.07079328525942157,0.0005062328385303066,0.04051998552004871
15.600000000000001,-0.04721812371872305,-0.07247192995183797,0.013890999973924201,0.027826043774585422,-0.07350466681740125,0.0005256215471826167,0.04207190024001213
15.65,-0.048929805755587204,-0.07509907586331878,0.014394556092991664,0.02883475262480747,-0.07616924998818796,0.0005446756071418957,0.04359702894539122
15.700000000000001,-0.050610172716768,-0.07767815836624732,0.01488889969615963,0.02982500723334972,-0.07878508483898221,0.0005633810747126065,0.04509425555224552
15.75,-0.052257971999237623,-0.08020725492428094,0.015373662282792057,0.030796069430544783,-0.08135022143698425,0.0005817240061992018,0.04656246397663357
15.8,-0.05387195099996919,-0.08268444300107809,0.01584847535225303,0.0317472010467256,-0.08386270984939488,0.0005996904579061417,0.04800053813461469
15.850000000000001,-0.055450857115935136,-0.08510780006029625,0.0163129704039066,0.032677663912225034,-0.08632060014341363,0.000617266486137883,0.04940736194224774
15.9,-0.056993437744108144,-0.08747540356559387,0.016766778937116707,0.033586719857375755,-0.08872194238624143,0.0006344381471988823,0.050781819315591815
15.950000000000001,-0.05849844028146076,-0.08978533098062812,0.017209532451247345,0.03447363071251066,-0.09106478664507799,0.0006511914973935946,0.05212279417070576
16.0,-0.059964612124965753,-0.0920356597690572,0.01764086244566264,0.03533765830796247,-0.0933471829871241,0.0006675125930264807,0.053429170423648566
16.05,-0.06139070067159573,-0.09422446739453899,0.018060400419726504,0.03617806447406401,-0.09556718147957957,0.0006833874904019934,0.05469983199047932
16.1,-0.06277545331832361,-0.09634983132073181,0.01846777787280307,0.03699411104114824,-0.09772283218964549,0.0006988022458245967,0.05593366278725708
16.150000000000002,-0.06411761746212162,-0.098409829011293,0.01886262630425625,0.037785059839547754,-0.09981218518452155,0.0007137429155987414,0.05712954673004072
16.2,-0.06541594049996272,-0.10040253792988058,0.01924457721345017,0.03855017269959551,-0.10183329053140824,0.0007281955560288881,0.05828636773488943
16.25,-0.06666916982881925,-0.10232603554015243,0.01961326209974871,0.03928871145162409,-0.10378419829750539,0.000742146223419491,0.05940300971786175
16.3,-0.06787605284566438,-0.10417839930576674,0.019968312462516,0.039999937925966546,-0.10566295855001409,0.0007555809740750095,0.06047835659501729
16.35,-0.06903533694747027,-0.10595770669038128,0.02030935980111602,0.0406831139529556,-0.1074676213561343,0.0007684858642999022,0.06151129228241462
16.400000000000002,-0.07014576953120992,-0.10766203515765378,0.020636035614912826,0.041337501362923995,-0.10919623678306627,0.000780846950398623,0.06250070069611299
16.45,-0.07120609799385597,-0.10928946217124227,0.020947971403270385,0.04196236198620465,-0.11084685489801036,0.0007926502886756306,0.0634454657521712
16.5,-0.07221506973238058,-0.11083806519480464,0.021244798665552775,0.042556957653130265,-0.11241752576816681,0.0008038819354353832,0.06434447136664831
16.55,-0.07317143214375714,-0.11230592169199882,0.02152614890112394,0.0431205501940338,-0.11390629946073588,0.0008145279469823361,0.06519660145560337
16.6,-0.07407393262495766,-0.11369110912648239,0.02179165360934794,0.043652401439247784,-0.11531122604291794,0.0008245743796209453,0.0660007399350953
16.650000000000002,-0.07492131857295528,-0.11499170496191378,0.022040944289588815,0.0441517732191052,-0.11663035558191336,0.0008340072896556717,0.06675577072118316
16.7,-0.07571233738472247,-0.11620578666195053,0.022273652441210573,0.04461792736393885,-0.11786173814492237,0.0008428127333909707,0.06746057772992589
16.75,-0.0764457364572319,-0.11733143169025062,0.022489409563577194,0.045050125704081664,-0.11900342379914539,0.0008509767671312993,0.06811404487738267
16.8,-0.07712026318745603,-0.11836671751047183,0.02268784715605273,0.04544763006986611,-0.1200534626117825,0.0008584854471811148,0.0687150560796121
16.85,-0.07773466497236772,-0.11930972158627258,0.022868596718001184,0.045809702291625294,-0.12100990465003422,0.0008653248298448737,0.06926249525267368
16.900000000000002,-0.0782876892089397,-0.1201585213813101,0.02303128974878664,0.04613560419969197,-0.12187079998110065,0.0008714809714270344,0.06975524631262602
16.95,-0.0787780832941445,-0.12091119435924268,0.023175557747773058,0.04642459762439887,-0.12263419867218245,0.0008769399282320543,0.07019219317552848
17.0,-0.0792045946249547,-0.12156581798372779,0.023301032214324398,0.0466759443960787,-0.12329815079047915,0.0008816877565643871,0.0705722197574395
17.05,-0.07956597059834308,-0.1221204697184239,0.023407344647804775,0.04688890634506454,-0.12386070640319198,0.0008857105127284939,0.07089420997441855
17.1,-0.07986095861128235,-0.12257322702698863,0.023494126547578206,0.047062745301688885,-0.12431991557752063,0.0008889942530288308,0.07115704774252458
17.150000000000002,-0.08008830606074531,-0.12292216737308027,0.023561009413008743,0.04719672309628493,-0.12467382838066615,0.0008915250337698565,0.07135961697781652
17.2,-0.08024676034370422,-0.12316536822035601,0.0236076247434603,0.047290101559185095,-0.12492049487982784,0.0008932889112560256,0.07150080159635326
17.25,-0.08033506885713175,-0.12330090703247391,0.02363360403829687,0.0473421425207223,-0.12505796514220635,0.0008942719417917937,0.07157948551419388
17.3,-0.08035197899800106,-0.12332686127309256,0.023638578796882682,0.04735210781122955,-0.1250842892350026,0.0008944601816816234,0.07159455264739745
17.35,-0.0802962381632841,-0.12324130840586882,0.023622180518581476,0.04731925926103925,-0.12499751722541572,0.0008938396872299647,0.07154488691202275
17.400000000000002,-0.08016659374995415,-0.12304232589446135,0.02358404070275755,0.04724285870048468,-0.1247956991806472,0.0008923965147412834,0.07142937222412916
17.45,-0.07996179315498357,-0.12272799120252774,0.023523790848774685,0.04712216795989812,-0.12447688516789647,0.0008901167205200293,0.07124689249977516
17.5,-0.07968058377534507,-0.12229638179372616,0.023441062455997034,0.04695644886961283,-0.12403912525436431,0.0008869863608706631,0.0709963316550202
17.55,-0.07932171300801139,-0.1217455751317142,0.023335487023788605,0.04674496325996149,-0.12348046950725107,0.000882991492097641,0.07067657360592311
17.6,-0.07888392824995503,-0.12107364868015022,0.023206696051513428,0.04648697296127691,-0.12279896799375678,0.0008781181705054238,0.07028650226854304
17.650000000000002,-0.07836597689814846,-0.1202786799026911,0.02305432103853539,0.04618173980389163,-0.12199267078108163,0.0008723524523984598,0.06982500155893864
17.7,-0.07776660634956473,-0.11935874626299559,0.02287799348421867,0.04582852561813873,-0.12105962793642615,0.0008656803940812143,0.06929095539316892
17.75,-0.07708456400117682,-0.11831192522472239,0.022677344887927334,0.045426592234351235,-0.1199978895269913,0.0008580880518581467,0.06868324768729366
17.8,-0.07631859724995642,-0.11713629425152748,0.022452006749025148,0.044975201482861375,-0.11880550561997602,0.0008495614820337024,0.06800076235737076
17.85,-0.0754674534928767,-0.11582993080706942,0.022201610566876324,0.044473615194002225,-0.11748052628258128,0.0008400867409123442,0.06724238331945982
17.900000000000002,-0.07452988012691043,-0.11439091235500708,0.021925787840844882,0.043921095198106705,-0.11602100158200773,0.0008296498847985369,0.06640699448961994
17.95,-0.07350462454903023,-0.11281731635899712,0.021624170070294726,0.04331690332550757,-0.11442498158545504,0.0008182369699967262,0.06549347978390962
18.0,-0.07239043415620852,-0.11110722028269855,0.021296388754589987,0.04266030140653753,-0.11269051636012405,0.0008058340528113781,0.06450072311838843
18.05,-0.0711860563454185,-0.10925870158976897,0.02094207539309478,0.0419505512715297,-0.11081565597321524,0.0007924271895469465,0.0634276084091152
18.1,-0.06989023851363206,-0.10726983774386513,0.020560861485172808,0.04118691475081629,-0.10879845049192804,0.0007780024365078867,0.062273019572148536
18.150000000000002,-0.06850172805782212,-0.10513870620864622,0.020152378530188315,0.04036865367473044,-0.10663694998346322,0.0007625458499986548,0.06103584052354766
18.2,-0.06701927237496161,-0.10286338444776943,0.019716258027505287,0.0394950298736051,-0.1043292045150209,0.0007460434863237129,0.059714955179371705
18.25,-0.06544161886202325,-0.10044194992489361,0.019252131476487744,0.03856530517777293,-0.10187326415380202,0.0007284814017875146,0.05830924745567981
18.3,-0.06376751491597911,-0.09787248010367555,0.018759630376499664,0.03757874141756674,-0.09926717896700582,0.0007098456526945176,0.05681760126853051
18.35,-0.06199570793380236,-0.09515305244777371,0.0182383862269051,0.036534600423319255,-0.09650899902183353,0.0006901222953491805,0.05523890053398302
18.400000000000002,-0.06012494531246561,-0.09228174442084597,0.01768803052706816,0.03543214402536353,-0.09359677438548512,0.0006692973860559613,0.05357202916809665
18.45,-0.05815397444894121,-0.08925663348654979,0.017108194776352673,0.03427063405403193,-0.09052855512516098,0.0006473569811193132,0.0518158710869298
18.5,-0.05608154274020238,-0.08607579710854422,0.016498510474122822,0.03304933233965788,-0.08730239130806161,0.0006242871368437001,0.049969310206542134
18.55,-0.05390639758322131,-0.082737312750486,0.015858609119742583,0.031767500712573664,-0.08391633300138655,0.0006000739095335707,0.04803123044299221
18.6,-0.05162728637497055,-0.07923925787603289,0.015188122212575851,0.03042440100311214,-0.08036843027233648,0.0005747033554933844,0.046000515712338944
18.650000000000002,-0.04924295651242316,-0.07557970994884392,0.014486681251986848,0.029019295041606438,-0.07665673318811246,0.0005481615310276052,0.043876049930641606
18.7,-0.046752155392551495,-0.0717567464325764,0.013753917737339477,0.027551444658389,-0.07277929181591375,0.0005204344924406827,0.041656717013959135
