SilviaXuva/Vision-guided-robot-manipulator/Helpers/Outputs copy/2023-12-09_21h08m34s/red9/Place/Joint Comparison/q_dot_Ref.csv
,q0,q1,q2,q3,q4,q5,q6
0.0,0.0,0.0,0.0,0.0,0.0,0.0,0.0
0.05,8.537138593606537e-05,0.00011487349719817018,2.1650409101045904e-05,-0.00014837435259259715,0.00013196713086969033,-6.4581325264680404e-06,-0.00015441238345010295
0.1,0.0003380621513838041,0.0004548875618451113,8.573345505390306e-05,-0.0005875475992060987,0.0005225766418641287,-2.5573559007868794e-05,-0.0006114575976139831
0.15000000000000002,0.000752976011998052,0.0010131847674269359,0.00019095670667969034,-0.0013086624642785522,0.0011639506941061165,-5.69607582378547e-05,-0.001361917923886655
0.2,0.001325068422361006,0.0017829773059730432,0.00033604085392824605,-0.002302951593827312,0.0020482914267781214,-0.00010023812293095476,-0.0023966692245626746
0.25,0.002049346575982227,0.0027575469880561235,0.0005197197078781285,-0.0035617375554490467,0.0031678809571222795,-0.00015502795972257473,-0.003706680942836144
0.30000000000000004,0.0029208694052986353,0.003930245242792152,0.0007407402007366153,-0.005076432838319728,0.004515081380440393,-0.00022095648916899686,-0.005283016102800705
0.35000000000000003,0.003934747581674515,0.005294493117840393,0.0009978623858397033,-0.00683853985319464,0.00608233477009393,-0.00029765384574737994,-0.007116831309449544
0.4,0.005086143515401513,0.006843781279403401,0.0012898594376521098,-0.008839650932408375,0.007862163177504026,-0.0003847540778557597,-0.00919937674867539
0.45,0.006370271355698636,0.008571670012227018,0.0016155176517672711,-0.011071448329874837,0.009847168632151486,-0.00048189514781304824,-0.011521996187270515
0.5,0.007782396990712255,0.010471789219600373,0.001973636444907344,-0.01352570422108724,0.012030033141576782,-0.0005887189318590346,-0.014076126972926739
0.55,0.009317838047516102,0.012537838423355882,0.0023630283549232033,-0.0161942807031181,0.01440351869138005,-0.0007048712201543838,-0.016853300034235415
0.6000000000000001,0.010971963892111272,0.014763586763869255,0.002782519040794445,-0.019069129794619243,0.01696046724522109,-0.0008300017167806381,-0.019845139880687444
0.65,0.012740195629426219,0.017142873000059476,0.003230947282629382,-0.02214229343582181,0.019693800744819374,-0.0009637640397402159,-0.023043364602673266
0.7000000000000001,0.01461800610331676,0.01966960550938884,0.0037071649816650515,-0.025405903488536257,0.022596521109954047,-0.001105815720956413,-0.02643978587148288
0.75,0.01660091989656608,0.02233776228786291,0.004210037160267206,-0.028852181736152328,0.025661710238463902,-0.0012558182062734008,-0.0300263089393058
0.8,0.018684513330884722,0.02514139095003055,0.0047384419619303205,-0.0324734398836391,0.028882530006247426,-0.0014134368554562285,-0.03379493263923112
0.8500000000000001,0.020864414466910588,0.02807460872898391,0.005291270651277588,-0.03626207955754495,0.03225222226726275,-0.0015783409421908207,-0.037737749385247446
0.9,0.023136303104208937,0.0311316024763584,0.005867427614060918,-0.04021059230599754,0.035764108853527675,-0.0017502036540839791,-0.041846945172242925
0.9500000000000001,0.02549591078127241,0.03430662866233278,0.006465830357160948,-0.0443115595987039,0.039411591575119684,-0.0019287020926633826,-0.046114799576005276
1.0,0.027939020775521007,0.03759401337562904,0.00708540950858703,-0.048557652826950314,0.04318815222017593,-0.0021135172733775867,-0.05053368575322176
1.05,0.030461468103302053,0.04098815232351248,0.007725108817477231,-0.05294163330360239,0.047087352554893186,-0.002304334125596022,-0.055096070441479114
1.1,0.03305913951989028,0.044483510831791695,0.00838388515409835,-0.05745635226310505,0.05110283432352795,-0.002500841492608997,-0.05979451395926372
1.1500000000000001,0.03572797351948777,0.04807462384481856,0.009060708509845888,-0.06209475086148253,0.05522831924839635,-0.0027027321316276972,-0.06462167020596142
1.2000000000000002,0.038463960335223944,0.05175609592548823,0.009754561997244084,-0.06684986017633836,0.0594576090298742,-0.002909702713784184,-0.06957028666185765
1.25,0.041263141939155604,0.055522601255239154,0.010464441849945879,-0.07171480120685539,0.06378458534639697,-0.003121453824131394,-0.07463320438813734
1.3,0.044121612042266944,0.059368883634053106,0.011189357422732955,-0.07668278487379579,0.06820320985445982,-0.003337689961643144,-0.07980335802688504
1.35,0.04703551609446945,0.06328975648045508,0.011928331191515693,-0.08174711201950101,0.07270752418861755,-0.0035581195392141254,-0.08507377580108477
1.4000000000000001,0.05000105128460204,0.06728010283151341,0.012680398753333206,-0.08690117340789186,0.07729164996148462,-0.0037824548836599054,-0.09043757951462013
1.4500000000000002,0.05301446654043096,0.07133487534283971,0.01344460882635332,-0.0921384497244684,0.0819497887637352,-0.00401041223571693,-0.09588798455227424
1.5,0.05607206252864979,0.07544909628858883,0.01422002324987258,-0.09745251157630999,0.08667622216410306,-0.004241711750042517,-0.10141829987972975
1.55,0.059170191654879536,0.07961785756145899,0.015005716984316261,-0.1028370194920754,0.09146531170938174,-0.004476077495214869,-0.10702192804356894
1.6,0.062305258063668524,0.08383632067269166,0.015800778111238346,-0.1082857239220026,0.09631149892442431,-0.004713237453733057,-0.11269236517127353
1.6500000000000001,0.06547371763849245,0.0880997167520716,0.016604307833321542,-0.11379246523790894,0.10120930531214364,-0.0049529235220170335,-0.11842320097122483
1.7000000000000002,0.06867207800175439,0.09240334654792684,0.01741542047437728,-0.11935117373319104,0.10615333235351221,-0.005194871510407628,-0.12420811873270372
1.75,0.07189689851478473,0.0967425804271287,0.0182332434793457,-0.12495586962282482,0.11113826150756208,-0.005438821143166539,-0.1300408953258905
1.8,0.07514479027784128,0.10111285837509185,0.019056917414295674,-0.13060066304336554,0.11615885421138514,-0.005684516058476356,-0.1359154012018652
1.85,0.07841241613010919,0.10550968999577415,0.019885595966424783,-0.13627975405294776,0.12120995188013288,-0.0059317038084405315,-0.14182560039260725
1.9000000000000001,0.08169649064970096,0.10992865451167685,0.020718445944059333,-0.14198743263128538,0.12628647590701642,-0.0061801358590834,-0.14776555051099569
1.9500000000000002,0.08499378015365647,0.11436540076384442,0.02155464727665435,-0.14771807867967157,0.13138342766330655,-0.006429567590350174,-0.1537294027508091
2.0,0.08830110269794293,0.11881564721186462,0.022393393014793577,-0.1534661620209788,0.13649588849833377,-0.00667975829610694,-0.15971140188672556
2.0500000000000003,0.09161532807745495,0.12327518193386851,0.023233889330189477,-0.15922624239965882,0.14161901973948826,-0.006930471184140663,-0.16570588627432267
2.1,0.09493337782601448,0.12773986262653045,0.024075355515683232,-0.16499296948174275,0.1467480626922198,-0.007181473376159183,-0.1717072878500777
2.15,0.09825222521637081,0.13220561660506805,0.024917023985244747,-0.170761082854841,0.1518783386400378,-0.007432535907791214,-0.17771013213136727
2.2,0.10156889526020071,0.13666844080324236,0.025758140273972652,-0.17652541202814345,0.15700524884451156,-0.007683433728586359,-0.18370903821646783
2.25,0.10488046470810812,0.14112440177335744,0.026597963038094273,-0.18228087643241891,0.16212427454526976,-0.00793394570201508,-0.18969871878455508
2.3000000000000003,0.10818406204962454,0.1455696356862609,0.0274357640549657,-0.1880224854200159,0.167230976960001,-0.008183854605468732,-0.19567398009570444
2.35,0.11147686751320866,0.15000034833134349,0.02827082822307168,-0.19374533826486193,0.17232099728445333,-0.00843294713025953,-0.20162972199089077
2.4000000000000004,0.11475611306624663,0.15441281511653926,0.029102453562025732,-0.199444624162464,0.1773900566924346,-0.00868101388162058,-0.20756093789198854
2.45,0.11801908241505195,0.15880338106832562,0.029929951212570072,-0.20511562222990842,0.18243395633581228,-0.008927849378705856,-0.21346271480177167
2.5,0.12126311100486546,0.16316846083172323,0.03075264543657565,-0.2107537015058607,0.18744857734451353,-0.009173252054590218,-0.21933023330391385
2.5500000000000003,0.12448558601985538,0.16750453867029602,0.03156987361704211,-0.21635432095056578,0.19242988082652518,-0.00941702425626939,-0.22515876756298803
2.6,0.12768394638311736,0.1718081684661513,0.032380986258097856,-0.22191302944584793,0.19737390786789377,-0.009658972244659985,-0.23094368532446694
2.6500000000000004,0.1308556827566742,0.1760759737199395,0.03318534698499996,-0.22742546579511053,0.20227677953272538,-0.009898906194599485,-0.23668044791472265
2.7,0.13399833754147628,0.1803046475508544,0.033982332544134256,-0.23288735872333638,0.20713469686318575,-0.010136640194846242,-0.24236461024102685
2.75,0.13710950487740126,0.1844909526966332,0.034771332803015274,-0.2382945268770877,0.21194394087950047,-0.010371992248079503,-0.24799182079155085
2.8000000000000003,0.14018683064325416,0.18863172151355626,0.03555175075028628,-0.2436428788245059,0.21670087257995468,-0.010604784270899377,-0.25355782163536544
2.85,0.14322801245676745,0.19272385597644723,0.03632300249571925,-0.2489284130553117,0.22140193294089325,-0.010834842093826859,-0.259058448422441
2.9000000000000004,0.1462307996746007,0.19676432767867308,0.037084517270214876,-0.2541472179808052,0.22604364291672058,-0.01106199546130381,-0.2644896303836473
2.95,0.14919299339234113,0.20075017783214397,0.037835737425802575,-0.25929547193386554,0.23062260343990076,-0.011286078031692971,-0.2698473903307538
3.0,0.15211244644450322,0.20467851726731365,0.038576118435640495,-0.2643694431689517,0.23513549542095782,-0.01150692737727797,-0.27512784465642953
3.0500000000000003,0.1549870634045288,0.20854652643317878,0.03930512889401548,-0.2693654898621015,0.23957907974847506,-0.0117243849842633,-0.28032720333424294
3.1,0.15781480058478708,0.21235145539727956,0.04002225051634311,-0.27428006011093226,0.2439501972890957,-0.011938296252774337,-0.2854417699186621
3.1500000000000004,0.1605936660365746,0.2160906238456993,0.04072697813916768,-0.27910969193464064,0.24824576888752264,-0.012148510496857327,-0.2904679415450546
3.2,0.16332171955011518,0.21976142108306473,0.04141881972016219,-0.2838510132740023,0.25246279536651806,-0.012354880944479393,-0.2954022089296875
3.25,0.16599707265456037,0.22336130603254598,0.042097296338128413,-0.28850074199137277,0.2565983575269047,-0.012557264737528554,-0.3002411563697277
3.3000000000000003,0.16861788861798854,0.22688780723585608,0.04276194219299676,-0.2930556858706864,0.26064961614756377,-0.01275552293181367,-0.3049814617432412
3.35,0.17118238244740583,0.23033852285325174,0.04341230460582643,-0.297512742617457,0.26461381198543704,-0.01294952049706451,-0.30961989650919386
3.4000000000000004,0.17368882088874563,0.2337111206635328,0.04404794401880532,-0.30186889985877796,0.2684882657755257,-0.013139126316931704,-0.314153325707451
3.45,0.17613552242686853,0.23700333806404225,0.044668433995249994,-0.3061212351433213,0.2722703782308904,-0.013324213188986755,-0.3185787079587773
3.5,0.17852085728556283,0.24021298207066671,0.04527336121960585,-0.31026691594133915,0.27595763004265184,-0.013504657824722061,-0.3228930954648374
3.5500000000000003,0.18084324742754385,0.24333792931783577,0.04586232549744692,-0.31430319964466247,0.27954758187999007,-0.013680340849550882,-0.32709363400819524
3.6,0.18310116655445444,0.24637612605852244,0.046434939755475954,-0.3182274335667016,0.28303787439014494,-0.013851146802807348,-0.33117756295231404
3.6500000000000004,0.18529314010686476,0.24932558816424302,0.04699083004152446,-0.3220370549424462,0.2864262281984159,-0.014016964137746488,-0.3351422152415571
3.7,0.18741774526427243,0.25218440112505713,0.04752963552455265,-0.3257295909284654,0.28971044390816203,-0.014177685221544186,-0.33898501740118686
3.75,0.1894736109451023,0.25495072004956754,0.048051008494649446,-0.3293026586029074,0.29288840210080236,-0.014333206335297216,-0.3427034895373654
3.8000000000000003,0.19145941780670656,0.2576227696649205,0.0485546143630325,-0.33275396496549975,0.2959580633358153,-0.01448342767402322,-0.3462952453371544
3.85,0.193373898245365,0.26019884431680534,0.049040131662048195,-0.33608130693754956,0.29891746815073894,-0.014628253346660725,-0.3497579920685151
3.9000000000000004,0.19521583639628454,0.26267730796945493,0.04950725204517162,-0.3392825713619431,0.30176473706117124,-0.014767591376069134,-0.3530895305803083
3.95,0.1969840681335995,0.2650565942056452,0.04995568028700655,-0.34235573500314576,0.30449807056076955,-0.01490135369902871,-0.3562877553022942
4.0,0.1986774810703716,0.2673352062266953,0.050385134283285546,-0.34529886454720227,0.307115749121251,-0.015029456166240615,-0.3593506542451325
4.05,0.20029501455858986,0.269511716852468,0.05079534505086982,-0.34811011660173685,0.30961613319239245,-0.01515181854232687,-0.3622763090003826
4.1000000000000005,0.201835659689171,0.2715847685213695,0.05118605672774943,-0.3507877376959534,0.31199766320203076,-0.015268364505830403,-0.3650628947405038
4.15,0.20329845929195836,0.2735530732903482,0.05155702657304293,-0.35333006428063396,0.3142588595560614,-0.015379021649214961,-0.36770868021885394
4.2,0.2046825079357236,0.27541541283489723,0.051908024966997854,-0.35573552272814146,0.3163983226384408,-0.01548372147886524,-0.37021202776969164
4.25,0.2059869519281648,0.277170638449052,0.05223883541099024,-0.3580026293324165,0.31841473281118415,-0.015582399415086745,-0.3725713933081739
4.3,0.20721098931590812,0.2788176710453916,0.05254925452752497,-0.3601299903089803,0.32030685041436663,-0.01567499479210591,-0.37478532633035816
4.3500000000000005,0.20835386988450683,0.28035550115503843,0.052839092060235626,-0.3621163017949329,0.3220735157661233,-0.015761450858070014,-0.37685246991320087
4.4,0.20941489515844142,0.2817831889276581,0.05310817087388444,-0.3639603498489533,0.3237136491626484,-0.01584171477504722,-0.3787715607145583
4.45,0.21039341840111986,0.2830998641314594,0.05335632695436245,-0.3656610104513001,0.32522625087819607,-0.015915737619026572,-0.380541428973186
4.5,0.2112888446148775,0.2843047261531946,0.0535834094086894,-0.3672172495038116,0.32661040116508033,-0.015983474379917994,-0.3821609985087395
4.55,0.21210063054097716,0.28539704399815913,0.053789280465013724,-0.36862812282990504,0.3278652602536747,-0.01604488396155228,-0.3836292867217734
4.6000000000000005,0.2128282846596088,0.28637615629019175,0.05397381547261256,-0.3698927761745768,0.3289900683524121,-0.016099929181681103,-0.38494540459374205
4.65,0.21347136718988988,0.2872414712716746,0.05413690290189181,-0.37101044520440274,0.32998414564778555,-0.016148576771977008,-0.38610855668699945
4.7,0.21402949008986508,0.2879924668035329,0.05427844434438608,-0.371980455507538,0.3308468923043476,-0.016190797378033424,-0.38711804114479903
4.75,0.21450231705650652,0.28862869036523525,0.054398354512758686,-0.37280222259371704,0.3315777884647101,-0.016226565559364643,-0.38797324969129326
4.800000000000001,0.21488956352571384,0.2891497590547937,0.054496561240801634,-0.3734752518942538,0.33217639424954504,-0.016255859789405844,-0.3886736676315352
4.8500000000000005,0.21519099667231395,0.28955535958876333,0.05457300548343576,-0.37399913876204166,0.33264234975758405,-0.0162786624555131,-0.3892188738514768
4.9,0.21540643541006102,0.2898452483022428,0.054627641316710496,-0.37437356847155245,0.33297537506561825,-0.016294959858963336,-0.3896085408179698
4.95,0.2155357503916365,0.2900192511488737,0.05466043593780404,-0.3745983162188383,0.33317527022849835,-0.016304742214954343,-0.38984243457876505
5.0,0.2155788640086497,0.2900772637008412,0.054671369665023374,-0.3746732471215303,0.33324191527913527,-0.01630800365260483,-0.38992041476251343
5.050000000000001,0.21553575039163647,0.2900192511488736,0.05466043593780404,-0.37459831621883816,0.3331752702284983,-0.01630474221495434,-0.3898424345787651
5.1000000000000005,0.21540643541006094,0.28984524830224256,0.054627641316710475,-0.3743735684715524,0.33297537506561814,-0.01629495985896332,-0.38960854081796975
5.15,0.21519099667231395,0.28955535958876344,0.054573005483435764,-0.3739991387620417,0.33264234975758417,-0.016278662455513095,-0.38921887385147697
5.2,0.21488956352571398,0.28914975905479384,0.054496561240801655,-0.3734752518942542,0.33217639424954515,-0.01625585978940585,-0.38867366763153544
5.25,0.2145023170565065,0.2886286903652352,0.054398354512758665,-0.372802222593717,0.33157778846470987,-0.01622656555936464,-0.38797324969129315
5.300000000000001,0.21402949008986508,0.2879924668035329,0.05427844434438609,-0.37198045550753817,0.33084689230434766,-0.016190797378033427,-0.3871180411447989
5.3500000000000005,0.2134713671898898,0.2872414712716745,0.05413690290189179,-0.3710104452044025,0.3299841456477855,-0.016148576771977,-0.3861085566869993
5.4,0.2128282846596088,0.2863761562901917,0.053973815472612555,-0.36989277617457683,0.3289900683524122,-0.016099929181681103,-0.38494540459374205
5.45,0.21210063054097716,0.28539704399815913,0.05378928046501373,-0.3686281228299052,0.3278652602536748,-0.016044883961552285,-0.3836292867217735
5.5,0.21128884461487746,0.28430472615319435,0.053583409408689386,-0.36721724950381157,0.3266104011650802,-0.015983474379917987,-0.3821609985087393
5.550000000000001,0.21039341840111986,0.2830998641314594,0.05335632695436247,-0.3656610104513004,0.3252262508781962,-0.015915737619026576,-0.38054142897318616
5.6000000000000005,0.2094148951584413,0.281783188927658,0.05310817087388444,-0.3639603498489532,0.3237136491626482,-0.01584171477504721,-0.3787715607145582
5.65,0.20835386988450688,0.2803555011550385,0.05283909206023561,-0.36211630179493287,0.3220735157661233,-0.015761450858070007,-0.3768524699132009
5.7,0.20721098931590826,0.2788176710453917,0.05254925452752497,-0.3601299903089806,0.3203068504143669,-0.015674994792105917,-0.3747853263303584
5.75,0.20598695192816482,0.2771706384490519,0.05223883541099019,-0.35800262933241644,0.31841473281118393,-0.015582399415086736,-0.37257139330817374
5.800000000000001,0.2046825079357235,0.27541541283489723,0.05190802496699785,-0.3557355227281415,0.3163983226384409,-0.015483721478865241,-0.37021202776969175
5.8500000000000005,0.2032984592919585,0.27355307329034845,0.05155702657304295,-0.35333006428063435,0.31425885955606153,-0.01537902164921497,-0.36770868021885433
5.9,0.20183565968917083,0.2715847685213692,0.051186056727749396,-0.35078773769595306,0.3119976632020305,-0.01526836450583039,-0.3650628947405034
5.95,0.20029501455858986,0.26951171685246805,0.05079534505086984,-0.34811011660173696,0.30961613319239245,-0.01515181854232687,-0.3622763090003828
6.0,0.19867748107037178,0.26733520622669554,0.050385134283285594,-0.34529886454720266,0.3071157491212513,-0.015029456166240625,-0.35935065424513263
6.050000000000001,0.19698406813359942,0.265056594205645,0.04995568028700652,-0.3423557350031454,0.30449807056076916,-0.014901353699028697,-0.3562877553022938
6.1000000000000005,0.19521583639628443,0.2626773079694548,0.04950725204517162,-0.3392825713619432,0.30176473706117124,-0.014767591376069122,-0.35308953058030823
6.15,0.193373898245365,0.2601988443168054,0.04904013166204821,-0.33608130693755,0.29891746815073894,-0.014628253346660732,-0.34975799206851516
6.2,0.19145941780670672,0.25762276966492065,0.04855461436303253,-0.3327539649655001,0.2959580633358155,-0.014483427674023224,-0.3462952453371547
6.25,0.1894736109451022,0.2549507200495674,0.048051008494649466,-0.3293026586029073,0.29288840210080236,-0.014333206335297216,-0.3427034895373657
6.300000000000001,0.18741774526427252,0.25218440112505724,0.04752963552455268,-0.3257295909284653,0.28971044390816225,-0.014177685221544186,-0.33898501740118686
6.3500000000000005,0.18529314010686462,0.24932558816424275,0.046990830041524406,-0.32203705494244617,0.2864262281984158,-0.014016964137746477,-0.33514221524155685
6.4,0.18310116655445416,0.24637612605852205,0.04643493975547592,-0.3182274335667015,0.2830378743901447,-0.013851146802807334,-0.33117756295231354
6.45,0.18084324742754376,0.24333792931783557,0.045862325497446906,-0.31430319964466236,0.27954758187998996,-0.013680340849550882,-0.3270936340081952
6.5,0.17852085728556305,0.24021298207066694,0.04527336121960593,-0.31026691594133976,0.27595763004265217,-0.01350465782472208,-0.32289309546483763
6.550000000000001,0.17613552242686878,0.23700333806404233,0.044668433995250056,-0.30612123514332173,0.2722703782308907,-0.013324213188986772,-0.31857870795877774
6.6000000000000005,0.17368882088874554,0.23371112066353272,0.04404794401880533,-0.3018688998587781,0.26848826577552576,-0.0131391263169317,-0.3141533257074511
6.65,0.17118238244740558,0.2303385228532516,0.043412304605826374,-0.29751274261745697,0.2646138119854366,-0.012949520497064488,-0.3096198965091937
6.7,0.16861788861798852,0.22688780723585594,0.042761942192996755,-0.2930556858706863,0.2606496161475639,-0.012755522931813668,-0.30498146174324114
6.75,0.16599707265456043,0.22336130603254617,0.042097296338128434,-0.2885007419913731,0.2565983575269048,-0.012557264737528568,-0.3002411563697278
6.800000000000001,0.16332171955011549,0.2197614210830649,0.041418819720162245,-0.283851013274003,0.2524627953665185,-0.012354880944479401,-0.29540220892968816
6.8500000000000005,0.16059366603657452,0.21609062384569883,0.040726978139167626,-0.2791096919346404,0.2482457688875225,-0.012148510496857317,-0.29046794154505445
6.9,0.15781480058478675,0.21235145539727926,0.04002225051634307,-0.27428006011093176,0.24395019728909517,-0.011938296252774329,-0.2854417699186619
6.95,0.15498706340452872,0.20854652643317864,0.03930512889401544,-0.26936548986210135,0.23957907974847498,-0.011724384984263283,-0.2803272033342427
7.0,0.15211244644450356,0.20467851726731395,0.03857611843564056,-0.2643694431689522,0.23513549542095818,-0.011506927377277982,-0.2751278446564301
7.050000000000001,0.14919299339234132,0.20075017783214424,0.03783573742580264,-0.259295471933866,0.2306226034399011,-0.011286078031692992,-0.2698473903307544
7.1000000000000005,0.14623079967460065,0.19676432767867297,0.0370845172702149,-0.2541472179808052,0.22604364291672058,-0.011061995461303807,-0.26448963038364737
7.15,0.14322801245676747,0.1927238559764473,0.03632300249571929,-0.24892841305531213,0.2214019329408933,-0.010834842093826874,-0.2590584484224413
7.2,0.14018683064325427,0.1886317215135562,0.03555175075028626,-0.2436428788245061,0.21670087257995468,-0.010604784270899382,-0.2535578216353655
7.25,0.13710950487740126,0.18449095269663335,0.03477133280301528,-0.23829452687708796,0.2119439408795006,-0.010371992248079501,-0.24799182079155108
7.300000000000001,0.1339983375414762,0.180304647550854,0.033982332544134256,-0.23288735872333635,0.20713469686318553,-0.01013664019484624,-0.2423646102410269
7.3500000000000005,0.13085568275667425,0.17607597371993952,0.03318534698499996,-0.2274254657951107,0.20227677953272533,-0.009898906194599478,-0.2366804479147228
7.4,0.12768394638311736,0.17180816846615143,0.0323809862580979,-0.22191302944584795,0.19737390786789397,-0.009658972244659982,-0.23094368532446713
7.45,0.12448558601985545,0.1675045386702962,0.03156987361704215,-0.216354320950566,0.19242988082652512,-0.009417024256269396,-0.2251587675629884
7.5,0.12126311100486528,0.16316846083172337,0.030752645436575653,-0.21075370150586056,0.18744857734451328,-0.00917325205459021,-0.2193302333039142
7.550000000000001,0.11801908241505199,0.15880338106832542,0.029929951212570083,-0.2051156222299085,0.18243395633581222,-0.008927849378705837,-0.21346271480177154
7.6000000000000005,0.11475611306624645,0.15441281511653895,0.029102453562025683,-0.19944462416246375,0.1773900566924342,-0.008681013881620556,-0.20756093789198835
7.65,0.11147686751320844,0.15000034833134318,0.028270828223071594,-0.1937453382648617,0.1723209972844531,-0.00843294713025951,-0.20162972199089083
7.7,0.10818406204962423,0.1455696356862609,0.027435764054965617,-0.18802248542001618,0.16723097696000086,-0.008183854605468714,-0.1956739800957044
7.75,0.104880464708108,0.14112440177335744,0.02659796303809429,-0.1822808764324186,0.16212427454526962,-0.007933945702015081,-0.18969871878455496
7.800000000000001,0.10156889526020092,0.13666844080324292,0.02575814027397267,-0.176525412028144,0.15700524884451186,-0.007683433728586375,-0.1837090382164684
7.8500000000000005,0.098252225216371,0.13220561660506813,0.024917023985244813,-0.17076108285484143,0.15187833864003772,-0.007432535907791214,-0.17771013213136738
7.9,0.09493337782601478,0.1277398626265306,0.024075355515683232,-0.1649929694817433,0.14674806269222027,-0.007181473376159185,-0.17170728785007808
7.95,0.09161532807745473,0.12327518193386792,0.0232338893301894,-0.1592262423996586,0.14161901973948804,-0.006930471184140634,-0.1657058862743222
8.0,0.0883011026979427,0.11881564721186437,0.022393393014793532,-0.1534661620209788,0.13649588849833338,-0.006679758296106929,-0.15971140188672553
8.05,0.08499378015365604,0.11436540076384379,0.021554647276654272,-0.14771807867967107,0.1313834276633061,-0.006429567590350129,-0.15372940275080807
8.1,0.08169649064970072,0.10992865451167626,0.020718445944059253,-0.14198743263128463,0.12628647590701617,-0.006180135859083381,-0.1477655505109952
8.15,0.07841241613010956,0.10550968999577429,0.019885595966424863,-0.13627975405294834,0.1212099518801331,-0.005931703808440538,-0.141825600392608
8.200000000000001,0.07514479027784156,0.10111285837509212,0.019056917414295785,-0.13060066304336632,0.11615885421138543,-0.005684516058476362,-0.13591540120186585
8.25,0.07189689851478426,0.09674258042712798,0.018233243479345622,-0.12495586962282446,0.11113826150756134,-0.005438821143166515,-0.13004089532589025
8.3,0.06867207800175397,0.0924033465479263,0.017415420474377188,-0.11935117373319055,0.10615333235351196,-0.005194871510407593,-0.12420811873270299
8.35,0.06547371763849304,0.0880997167520723,0.016604307833321657,-0.11379246523790976,0.10120930531214475,-0.004952923522017049,-0.11842320097122591
8.4,0.062305258063668725,0.08383632067269182,0.015800778111238478,-0.10828572392200317,0.09631149892442473,-0.004713237453733094,-0.1126923651712742
8.450000000000001,0.05917019165487908,0.07961785756145842,0.015005716984316094,-0.10283701949207495,0.09146531170938137,-0.0044760774952148355,-0.10702192804356789
8.5,0.05607206252864966,0.07544909628858867,0.014220023249872588,-0.09745251157630969,0.08667622216410262,-0.004241711750042514,-0.10141829987972964
8.55,0.05301446654043083,0.0713348753428392,0.013444608826353292,-0.09213844972446802,0.08194978876373496,-0.004010412235716894,-0.09588798455227406
8.6,0.05000105128460179,0.06728010283151305,0.012680398753333216,-0.08690117340789179,0.07729164996148445,-0.003782454883659899,-0.09043757951462075
8.65,0.04703551609446964,0.0632897564804557,0.011928331191515856,-0.081747112019502,0.07270752418861835,-0.003558119539214165,-0.08507377580108609
8.700000000000001,0.044121612042266875,0.0593688836340532,0.011189357422732896,-0.07668278487379573,0.06820320985445935,-0.0033376899616431427,-0.07980335802688499
8.75,0.0412631419391555,0.055522601255239515,0.010464441849945877,-0.071714801206855,0.063784585346397,-0.0031214538241314043,-0.07463320438813792
8.8,0.038463960335223916,0.051756095925487786,0.009754561997244093,-0.06684986017633827,0.05945760902987368,-0.0029097027137841773,-0.06957028666185716
8.85,0.03572797351948756,0.04807462384481863,0.009060708509845966,-0.06209475086148243,0.05522831924839651,-0.002702732131627707,-0.06462167020596148
8.9,0.03305913951988998,0.04448351083179146,0.008383885154098282,-0.05745635226310445,0.051102834323527115,-0.0025008414926089885,-0.059794513959262864
8.950000000000001,0.030461468103301748,0.040988152323512245,0.00772510881747714,-0.052941633303602006,0.04708735255489323,-0.0023043341255960083,-0.05509607044147887
9.0,0.02793902077552036,0.037594013375628385,0.0070854095085869494,-0.04855765282694939,0.04318815222017561,-0.002113517273377566,-0.05053368575322133
9.05,0.02549591078127173,0.03430662866233219,0.0064658303571607356,-0.04431155959870246,0.03941159157511896,-0.0019287020926633304,-0.046114799576004555
9.1,0.02313630310420941,0.031131602476358815,0.005867427614060991,-0.04021059230599795,0.035764108853528105,-0.0017502036540840288,-0.041846945172243535
9.15,0.020864414466910685,0.028074608728983753,0.005291270651277559,-0.03626207955754503,0.032252222267262834,-0.001578340942190846,-0.03773774938524725
9.200000000000001,0.01868451333088466,0.025141390950031095,0.00473844196193034,-0.0324734398836396,0.028882530006247787,-0.001413436855456264,-0.03379493263923182
9.25,0.016600919896565817,0.022337762287862495,0.004210037160267267,-0.028852181736152303,0.025661710238464464,-0.0012558182062733729,-0.030026308939306013
9.3,0.014618006103317366,0.01966960550938915,0.0037071649816651335,-0.025405903488537624,0.022596521109955067,-0.0011058157209564298,-0.02643978587148329
9.35,0.01274019562942652,0.01714287300006002,0.0032309472826293774,-0.022142293435822486,0.019693800744819388,-0.000963764039740219,-0.02304336460267354
9.4,0.0,0.0,0.0,0.0,0.0,0.0,0.0
9.450000000000001,0.00010334235934544061,0.00015861325350737524,-3.040207017805658e-05,-6.09005353970665e-05,0.00016087351833505225,-1.1503839316493993e-06,-9.207925030754361e-05
9.5,0.00040922540903296926,0.0006280926229643837,-0.00012038915777485721,-0.000241160030272629,0.0006370430456612094,-4.555405333843393e-06,-0.0003646246235253594
9.55,0.0009114800791529216,0.0013989696168861783,-0.0002681463971581976,-0.0005371429990157519,0.0014189051629399613,-1.0146391506033534e-05,-0.0008121394062440126
9.600000000000001,0.001603999929947,0.0024618718706050156,-0.00047187734772767217,-0.0009452508644988589,0.0024969539477727805,-1.7855366932448504e-05,-0.001429182689251118
9.65,0.002480741151808275,0.003807523146270261,-0.0007298039939146749,-0.0014619219580777343,0.003861780974401128,-2.7615053282094146e-05,-0.0022103693675313415
9.700000000000001,0.0035357225652811832,0.00542674333284838,-0.0010401667451823983,-0.002083631519591521,0.005504075313706448,-3.9358869408753444e-05,-0.003150370140266398
9.75,0.0047630256210615275,0.0073104484461229465,-0.0014012244360258339,-0.002806891697362723,0.007414623533210164,-5.3020931350986476e-05,-0.004243911510835053
9.8,0.006156794399996481,0.009449650628694638,-0.0018112543259717728,-0.003628251548197202,0.009584309697073697,-6.853605233213053e-05,-0.005485775786813121
9.850000000000001,0.007711235613084582,0.011835458149981238,-0.0022685520995788045,-0.004544297037384183,0.012004115366098439,-8.58397427603e-05,-0.006870801079973468
9.9,0.009420618601475738,0.01445907540621764,-0.0027714318664373186,-0.005551651038696247,0.014665119597725781,-0.00010486821022838646,-0.008393881306286015
9.950000000000001,0.011279275336471217,0.017311802920455827,-0.0033182261611695027,-0.006646973334389338,0.017558498946037088,-0.00012555835951405856,-0.010049966185917721
10.0,0.013281600419523662,0.020385037342564905,-0.003907285943429343,-0.007826960615202756,0.02067552746175371,-0.0001478477925797621,-0.011834061243232604
10.05,0.015422051082237079,0.023670271449231065,-0.0045369805979026245,-0.009088346480359161,0.024007576692236986,-0.00017167480857272003,-0.013741227806791729
10.100000000000001,0.01769514718636684,0.02715909414395763,-0.005205697934306934,-0.01042790143756458,0.027546115681488237,-0.00019697840382493256,-0.015766583009353213
10.15,0.020095471223819692,0.030843190457065007,-0.005911844187391655,-0.011842432903008389,0.03128271097014877,-0.0002236982718531768,-0.017905299787872222
10.200000000000001,0.022617668316653742,0.03471434154569072,-0.006653844016937971,-0.013328785201363333,0.0352090265954999,-0.0002517748033590073,-0.020152606883500977
10.25,0.025256446217078465,0.03876442469378939,-0.007430140507758863,-0.014883839565785515,0.03931682409146288,-0.00028114908622875554,-0.022503788841588747
10.3,0.028006575307454696,0.04298541331213273,-0.00823919516969911,-0.016504514137914383,0.043597962488598964,-0.00031176290553353004,-0.024954186011681825
10.350000000000001,0.03086288860029466,0.047369376938309594,-0.009079487937635298,-0.01818776396787277,0.04804439831410943,-0.0003435587435292168,-0.027499194547523607
10.4,0.033820281738261924,0.05190848123672592,-0.009949517171475804,-0.01993058101426686,0.0526481855918355,-0.0003764797796564788,-0.0301342664070545
10.450000000000001,0.036873712994171436,0.05659498799860474,-0.010847799656160801,-0.02172999414418618,0.05740147584225837,-0.000410469890540756,-0.03285490935241196
10.5,0.040018203270989504,0.06142125514198622,-0.011772870601662272,-0.023583069133203634,0.062296518082499266,-0.0004454736499922657,-0.03565668694993052
10.55,0.04324883610183382,0.06637973671172759,-0.012723283642983993,-0.025486908665375486,0.06732565882631937,-0.0004814363290060023,-0.03853521857014174
10.600000000000001,0.0465607576499734,0.07146298287950321,-0.013697610840161533,-0.02743865233324135,0.07248134208411985,-0.0005183038957617373,-0.041486179387774234
10.65,0.04994917670882867,0.07666363994380455,-0.014694442678262271,-0.02943547663782419,0.07775610936294183,-0.0005560230156240192,-0.04450530038175367
10.700000000000001,0.053409364701971426,0.0819744503299402,-0.015712388067385383,-0.03147459498863038,0.08314259966646652,-0.0005945410511421741,-0.04758836833520277
10.75,0.056936655683124816,0.08738825259003583,-0.016750074342661837,-0.0335532577036496,0.088633549495015,-0.0006338060620503049,-0.0507312258354413
10.8,0.06052644633616333,0.09289798140303418,-0.017806147264254404,-0.0356687520093549,0.0942217928455484,-0.0006737668052672916,-0.05392977127398607
10.850000000000001,0.06417419597511287,0.09849666757469519,-0.01887927101735766,-0.037818402040702706,0.09990026121166781,-0.0007143727348967914,-0.05717995884655096
10.9,0.06787542654415066,0.10417743803759576,-0.019968128212197962,-0.03999956884113279,0.10566198358361427,-0.0007555740022272386,-0.06047779855304687
10.950000000000001,0.07162572261760534,0.10993351585113009,-0.021071419884033497,-0.0422096503625683,0.11150008644826892,-0.000797321455731845,-0.0638193561975818
11.0,0.07542073139995689,0.1157582202015093,-0.022187865493154213,-0.04444608146541572,0.11740779378915278,-0.000839566641068599,-0.06720075338846074
11.05,0.07925616272583666,0.12164496640176177,-0.023316202924881894,-0.04670633391856493,0.12337842708642688,-0.0008822618010802666,-0.07061816753818576
11.100000000000001,0.08312778906002738,0.12758726589173286,-0.0244551884895701,-0.048987916399389125,0.12940540531689224,-0.0009253598757943907,-0.074067831863456
11.15,0.08703144549746307,0.13357872623808503,-0.025603596922604176,-0.05128837449374487,0.13548224495398983,-0.0009688145024232909,-0.07754603538516758
11.200000000000001,0.09096302976322926,0.13961305113429803,-0.02676022138440131,-0.05360529069597213,0.14160255996780075,-0.0010125800153640652,-0.08104912292841376
11.25,0.09491850221256273,0.14568404040066846,-0.027923873460410465,-0.0559362844088942,0.14776006182504584,-0.0010566114461985875,-0.08457349512248483
11.3,0.09889388583085167,0.15178558998431024,-0.02909338316111239,-0.0582790119438177,0.15394855948908615,-0.0011008645236935094,-0.08811560840086805
11.350000000000001,0.10288526623363567,0.15791169195915428,-0.030267598922019655,-0.06063116652053271,0.16016195941992262,-0.00114529567380026,-0.09167197500124784
11.4,0.10688879166660559,0.1640564345259486,-0.031445387603676614,-0.06299047826731255,0.16639426557419612,-0.0011898620196550442,-0.09523916296550558
11.450000000000001,0.11090067300560376,0.17021400201225834,-0.03262563449165942,-0.06535471422091396,0.17263957940518765,-0.0012345213815788453,-0.09881379613971976
11.5,0.11491718375662378,0.17637867487246575,-0.03380724329657604,-0.06772167832657704,0.178892099862818,-0.0012792322770774237,-0.10239255417416589
11.55,0.1189346600558107,0.18254482968777014,-0.03498913615406622,-0.07008921143802524,0.1851461233936481,-0.0013239539208413159,-0.1059721725233165
11.600000000000001,0.122949500669461,0.18870693916618816,-0.03617025362480154,-0.07245519131746542,0.19139604394087895,-0.0013686462247458372,-0.10954944244584133
11.65,0.1269581669940223,0.19485957214255314,-0.03734955469448533,-0.07481753263558769,0.19763635294435117,-0.0014132697978510784,-0.11312121100460693
11.700000000000001,0.1309571830560938,0.20099739357851593,-0.03852601677385277,-0.07717418697156563,0.20386163934054582,-0.0014577859464019087,-0.11668438106667707
11.75,0.13494313551242595,0.2071151645625442,-0.03969863569867078,-0.07952314281305611,0.2100665895625836,-0.0015021566738279734,-0.1202359113033125
11.8,0.1389126736499206,0.2132077423099228,-0.04086642572973812,-0.08186242555619937,0.2162459875402253,-0.0015463446807436954,-0.12377281618997105
11.850000000000001,0.14286250938563103,0.21927008016275376,-0.04202841955288535,-0.08419009750561905,0.22239471469987176,-0.0015903133649482748,-0.1272921660063076
11.9,0.1467894172667618,0.22529722758995624,-0.04318366827897483,-0.0865042578744221,0.22850774996456374,-0.0016340268214256888,-0.13079108683617402
11.950000000000001,0.15069023447066884,0.2312843301872663,-0.04433124144390069,-0.08880304278419889,0.23458016975398205,-0.0016774498423446922,-0.13426676056761933
12.0,0.15456186080485962,0.23722662967723745,-0.0454702270085889,-0.0910846252650231,0.24060714798444743,-0.0017205479170588167,-0.13771642489288963
12.05,0.15840125870699262,0.2431194639092399,-0.046599731358997185,-0.09334721525545175,0.2465839560689206,-0.0017632872321063698,-0.14113737330842782
12.100000000000001,0.162205453244878,0.2489582668594612,-0.04771887930611509,-0.09558905960252527,0.2525059629170022,-0.001805634671210438,-0.14452695511487407
12.15,0.1659715321164772,0.25473856863090594,-0.04882681408596397,-0.09780844206176743,0.258368634934933,-0.0018475578152788836,-0.14788257541706562
12.200000000000001,0.169696645649903,0.2604559954533959,-0.04992269735959698,-0.10000368329718537,0.26416753602559373,-0.001889024942404348,-0.15120169512403664
12.25,0.1733780068034196,0.26610626968357004,-0.05100570921309906,-0.10217314088126961,0.26989832758850507,-0.0019300050278642472,-0.15448183094901846
12.3,0.17701289116544247,0.27168520980488403,-0.05207504815758692,-0.10431520929499391,0.2755567685198276,-0.001970467744120776,-0.1577205554094393
12.350000000000001,0.1805986369545385,0.27718873042761094,-0.05312993112920913,-0.10642831992781557,0.28113871521236194,-0.002010383460820905,-0.16091549682692455
12.4,0.18413264501942603,0.2826128422888411,-0.05416959348914603,-0.10851094107767509,0.2866401215555488,-0.0020497232447963844,-0.16406433932729672
12.450000000000001,0.1876123788389746,0.2879536522524816,-0.055193289023609746,-0.11056157795099648,0.29205703893546875,-0.002088458860063739,-0.1671648228405752
12.5,0.19103536452220532,0.2932073633092569,-0.05620028994384425,-0.11257877266268697,0.2973856162348424,-0.002126562767824272,-0.17021474310097656
12.55,0.19439919080829043,0.2983702745767084,-0.05718988688612523,-0.11456110423613723,0.3026220998330304,-0.002164008126464063,-0.17321195164691433
12.600000000000001,0.19770150906655365,0.30343878129919444,-0.05816138891176024,-0.11650718860322122,0.30776283360603307,-0.0022007687915539687,-0.17615435582099906
12.65,0.20094003329647028,0.30840937484789116,-0.05911412350708865,-0.11841567860429644,0.31280425892649133,-0.002236819315849626,-0.17903991877003866
12.700000000000001,0.20411254012766658,0.3132786427207909,-0.06004743658348155,-0.12028526398820347,0.3177429146636855,-0.0022721349492914435,-0.1818666594450376
12.75,0.20721686881992044,0.31804326854270376,-0.06096069247734189,-0.1221146714122665,0.3225754371835361,-0.0023066916390046114,-0.1846326526011978
12.8,0.21025092126316114,0.32270003206525677,-0.061853273950104426,-0.12390266444229295,0.3272985603486037,-0.002340466029299095,-0.18733602879791805
12.850000000000001,0.21321266197746908,0.32724580916689366,-0.06272458218823562,-0.12564804355257353,0.3319091155180886,-0.002373435461669636,-0.18997497439879407
12.9,0.2161001181130764,0.33167757185287605,-0.06357403680323387,-0.12734964612588257,0.3364040315478315,-0.002405577974795756,-0.19254773157161903
12.950000000000001,0.21891137945036623,0.3359923882552821,-0.0644010758316293,-0.12900634645347753,0.3407803347903129,-0.002436872304541753,-0.19505259828838284
13.0,0.2216445983998733,0.34018742263300694,-0.0652051557349838,-0.13061705573509924,0.345035149094653,-0.0024672978839566993,-0.19748792832527234
13.05,0.22429799000228373,0.34425993537176347,-0.06598575139989113,-0.13218072207897205,0.3491656958066125,-0.0024968348432744475,-0.19985213126267182
13.100000000000001,0.22686983192843474,0.3482072829840811,-0.06674235613797681,-0.13369633050180346,0.35316929376859163,-0.002525464009913625,-0.20214367248516227
13.15,0.22935846447931532,0.3520269181093066,-0.06747448168589816,-0.13516290292878452,0.3570433593196309,-0.0025531669084776394,-0.2043610731815219
13.200000000000001,0.2317622905860654,0.3557163895136038,-0.0681816582053443,-0.13657949819358955,0.36078540629541045,-0.002579925760754671,-0.20650291034472595
13.25,0.23407977580997663,0.3592733420899535,-0.06886343428303618,-0.13794521203837612,0.36439304602825107,-0.002605723485717683,-0.20856781677194675
13.3,0.23630944834249196,0.36269551685815404,-0.06951937693072653,-0.13925917711378552,0.3678639873471129,-0.002630543699524412,-0.21055448106455352
13.350000000000001,0.23844989900520538,0.3659807509648202,-0.0701490715851998,-0.14052056297894194,0.3711960365775962,-0.00265437071551737,-0.21246164762811265
13.4,0.24049978124986254,0.36912697768338437,-0.07075212210827235,-0.14172857610145317,0.3743870975419413,-0.002677189544223849,-0.21428811667238756
13.450000000000001,0.24245781115836054,0.3721322264140957,-0.0713281507867923,-0.14288245985741038,0.3774351715590284,-0.002698985893355918,-0.21603274421133864
13.5,0.2443227674427478,0.37499462268402123,-0.07187679833263963,-0.14398149453138814,0.38033835744437844,-0.002719746167810426,-0.21769444206312377
13.55,0.24609349144522366,0.3777123881470437,-0.07239772388272595,-0.14502499731644408,0.38309485151015077,-0.0027394574696689897,-0.219272177850097
13.600000000000001,0.24776888713813974,0.38028384058386466,-0.0728906049989949,-0.14601232231411962,0.38570294756514645,-0.0027581075981980155,-0.22076497499881048
13.65,0.2493479211239979,0.38270739390200104,-0.07335513766842165,-0.14694286053443914,0.38816103691480525,-0.0027756850498486746,-0.2221719127400124
13.700000000000001,0.2508296226354523,0.3849815581357882,-0.07379103630301344,-0.14781603989591072,0.3904676083612075,-0.002792179018256925,-0.22349212610864888
13.75,0.25221308353530814,0.38710493944637814,-0.07419803373980913,-0.14863132522552558,0.3926212482030736,-0.002807579394243499,-0.22472480594386246
13.8,0.25349745831652176,0.3890762401217395,-0.07457588124087941,-0.14938821825875834,0.39462064023576354,-0.0028218767658139024,-0.225869198888993
13.850000000000001,0.25468196410220123,0.39089425857665894,-0.07492434849332683,-0.150086257639567,0.3964645657512774,-0.0028350624181584213,-0.22692460739157738
13.9,0.25576588064560574,0.3925578893527398,-0.07524322360928573,-0.150725018920393,0.39815190353825575,-0.00284712833365212,-0.2278903897033496
13.950000000000001,0.256748550330146,0.394066123118402,-0.07553231312592217,-0.15130411456216103,0.3996816298819787,-0.002858067191854838,-0.2287659598802406
14.0,0.257629378169384,0.3954180466688833,-0.07579144200543406,-0.15182319393427918,0.40105281856436603,-0.002867872369511192,-0.22955078778237836
14.05,0.2584078318070332,0.3966128429262385,-0.07602045363505112,-0.15228194331463882,0.4022646408639782,-0.0028765379405505777,-0.23024439907408803
14.100000000000001,0.25908344151695817,0.3976497909393391,-0.07621920982703488,-0.1526800858896148,0.4033163655560152,-0.0028840586760871647,-0.23084637522389162
14.15,0.25965580020317497,0.3985282658838737,-0.07638759081867855,-0.1530173817540652,0.4042073589123169,-0.0028904300444199016,-0.2313563535045083
14.200000000000001,0.2601245633998513,0.3992477390623483,-0.07652549527230737,-0.15329362791133166,0.4049370847013637,-0.0028956482110325146,-0.23177402699285438
14.25,0.26048944927130596,0.3998077779040864,-0.07663284027527817,-0.15350865827323912,0.40550510418827557,-0.0028997100385935075,-0.2320991445700431
14.3,0.2607502386120091,0.4002080459652279,-0.07670956133997964,-0.1536623436600956,0.4059110761348125,-0.0029026130869561594,-0.23233151092138482
14.350000000000001,0.2609067748465824,0.4004483029287297,-0.07675561240383236,-0.15375459180069292,0.4061547567993746,-0.0029043556131585274,-0.23247098653638693
14.4,0.2609589640297988,0.4005284046043666,-0.07677096582928855,-0.15378534733230592,0.4062359999370022,-0.002904936571423447,-0.2325174877087539
14.450000000000001,0.26090677484658237,0.40044830292872957,-0.07675561240383232,-0.15375459180069279,0.40615475679937474,-0.0029043556131585265,-0.23247098653638693
14.5,0.26075023861200897,0.40020804596522763,-0.07670956133997961,-0.15366234366009554,0.40591107613481237,-0.002902613086956158,-0.23233151092138468
14.55,0.260489449271306,0.3998077779040866,-0.07663284027527816,-0.15350865827323915,0.4055051041882754,-0.0028997100385935075,-0.2320991445700431
14.600000000000001,0.26012456339985135,0.3992477390623485,-0.0765254952723074,-0.15329362791133178,0.40493708470136375,-0.002895648211032516,-0.23177402699285446
14.65,0.2596558002031749,0.3985282658838736,-0.07638759081867852,-0.15301738175406518,0.40420735891231685,-0.002890430044419901,-0.23135635350450828
14.700000000000001,0.25908344151695817,0.39764979093933905,-0.07621920982703488,-0.1526800858896148,0.40331636555601513,-0.002884058676087166,-0.23084637522389168
14.75,0.25840783180703303,0.39661284292623833,-0.07602045363505108,-0.15228194331463873,0.4022646408639782,-0.0028765379405505773,-0.23024439907408797
14.8,0.2576293781693839,0.39541804666888336,-0.07579144200543406,-0.1518231939342791,0.40105281856436603,-0.002867872369511193,-0.22955078778237845
14.850000000000001,0.25674855033014615,0.39406612311840206,-0.07553231312592217,-0.15130411456216103,0.39968162988197875,-0.0028580671918548395,-0.22876595988024073
14.9,0.25576588064560557,0.39255788935273955,-0.07524322360928568,-0.1507250189203929,0.3981519035382556,-0.0028471283336521185,-0.2278903897033496
14.950000000000001,0.2546819641022014,0.3908942585766591,-0.07492434849332685,-0.15008625763956707,0.39646456575127764,-0.0028350624181584226,-0.22692460739157747
15.0,0.25349745831652165,0.38907624012173964,-0.07457588124087935,-0.14938821825875828,0.39462064023576343,-0.002821876765813901,-0.22586919888899293
15.05,0.25221308353530814,0.3871049394463781,-0.07419803373980907,-0.1486313252255255,0.3926212482030733,-0.002807579394243499,-0.22472480594386246
15.100000000000001,0.25082962263545244,0.3849815581357886,-0.07379103630301342,-0.14781603989591072,0.39046760836120764,-0.0027921790182569273,-0.22349212610864902
15.15,0.2493479211239978,0.38270739390200104,-0.07335513766842158,-0.146942860534439,0.3881610369148049,-0.0027756850498486738,-0.22217191274001252
15.200000000000001,0.24776888713813974,0.38028384058386455,-0.07289060499899488,-0.14601232231411948,0.38570294756514645,-0.002758107598198015,-0.2207649749988106
15.25,0.2460934914452238,0.377712388147044,-0.07239772388272599,-0.14502499731644408,0.383094851510151,-0.0027394574696689906,-0.21927217785009728
15.3,0.24432276744274758,0.37499462268402095,-0.07187679833263955,-0.14398149453138792,0.3803383574443781,-0.0027197461678104247,-0.21769444206312363
15.350000000000001,0.24245781115836057,0.37213222641409593,-0.0713281507867923,-0.14288245985741027,0.3774351715590286,-0.002698985893355919,-0.21603274421133886
15.4,0.24049978124986282,0.36912697768338454,-0.07075212210827235,-0.14172857610145312,0.3743870975419416,-0.0026771895442238504,-0.21428811667238773
15.450000000000001,0.23844989900520525,0.3659807509648198,-0.0701490715851997,-0.14052056297894167,0.3711960365775959,-0.0026543707155173677,-0.21246164762811262
15.5,0.23630944834249182,0.3626955168581537,-0.06951937693072643,-0.13925917711378535,0.36786398734711256,-0.002630543699524411,-0.21055448106455357
15.55,0.23407977580997685,0.35927334208995354,-0.06886343428303614,-0.1379452120383761,0.3643930460282513,-0.0026057234857176825,-0.20856781677194677
15.600000000000001,0.23176229058606554,0.3557163895136038,-0.06818165820534436,-0.13657949819358947,0.3607854062954108,-0.0025799257607546735,-0.20650291034472618
15.65,0.22935846447931524,0.3520269181093066,-0.06747448168589816,-0.13516290292878438,0.3570433593196307,-0.0025531669084776394,-0.20436107318152202
15.700000000000001,0.22686983192843485,0.34820728298408116,-0.06674235613797676,-0.13369633050180335,0.35316929376859174,-0.0025254640099136257,-0.2021436724851624
15.75,0.2242979900022835,0.3442599353717632,-0.06598575139989098,-0.13218072207897175,0.34916569580661216,-0.0024968348432744445,-0.19985213126267176
15.8,0.22164459839987308,0.3401874226330065,-0.06520515573498366,-0.13061705573509894,0.34503514909465266,-0.002467297883956696,-0.19748792832527215
15.850000000000001,0.21891137945036623,0.3359923882552819,-0.06440107583162921,-0.12900634645347725,0.3407803347903126,-0.0024368723045417534,-0.1950525982883829
15.9,0.21610011811307656,0.33167757185287633,-0.06357403680323384,-0.12734964612588254,0.3364040315478319,-0.0024055779747957596,-0.19254773157161936
15.950000000000001,0.21321266197746946,0.32724580916689416,-0.06272458218823561,-0.12564804355257359,0.3319091155180891,-0.0023734354616696384,-0.18997497439879452
16.0,0.2102509212631613,0.3227000320652567,-0.06185327395010433,-0.12390266444229285,0.3272985603486037,-0.0023404660292990946,-0.18733602879791822
16.05,0.20721686881992016,0.31804326854270326,-0.060960692477341795,-0.12211467141226624,0.3225754371835358,-0.002306691639004609,-0.18463265260119774
16.1,0.20411254012766666,0.3132786427207912,-0.06004743658348148,-0.12028526398820327,0.31774291466368537,-0.002272134949291443,-0.18186665944503774
16.150000000000002,0.20094003329647042,0.3084093748478913,-0.0591141235070886,-0.1184156786042962,0.3128042589264915,-0.002236819315849626,-0.17903991877003889
16.2,0.19770150906655398,0.3034387812991949,-0.05816138891176024,-0.1165071886032212,0.30776283360603374,-0.0022007687915539726,-0.17615435582099945
16.25,0.1943991908082904,0.298370274576708,-0.05718988688612512,-0.11456110423613679,0.30262209983303023,-0.0021640081264640587,-0.1732119516469143
16.3,0.191035364522205,0.2932073633092564,-0.05620028994384405,-0.11257877266268665,0.29738561623484183,-0.0021265627678242684,-0.17021474310097662
16.35,0.18761237883897455,0.2879536522524814,-0.05519328902360963,-0.11056157795099615,0.2920570389354683,-0.0020884588600637377,-0.16716482284057507
16.400000000000002,0.18413264501942628,0.2826128422888414,-0.05416959348914603,-0.10851094107767505,0.2866401215555493,-0.002049723244796387,-0.16406433932729725
16.45,0.18059863695453884,0.27718873042761133,-0.05312993112920907,-0.10642831992781543,0.2811387152123623,-0.002010383460820909,-0.16091549682692502
16.5,0.17701289116544228,0.2716852098048841,-0.05207504815758688,-0.10431520929499356,0.2755567685198277,-0.0019704677441207763,-0.15772055540943947
16.55,0.17337800680341964,0.26610626968357043,-0.05100570921309907,-0.10217314088126953,0.26989832758850535,-0.0019300050278642494,-0.15448183094901863
16.6,0.16969664564990292,0.26045599545339615,-0.049922697359596875,-0.10000368329718508,0.26416753602559384,-0.0018890249424043475,-0.1512016951240369
16.650000000000002,0.1659715321164774,0.2547385686309061,-0.0488268140859639,-0.09780844206176716,0.2583686349349331,-0.0018475578152788836,-0.14788257541706612
16.7,0.16220545324487776,0.2489582668594609,-0.04771887930611491,-0.09558905960252484,0.25250596291700167,-0.0018056346712104353,-0.14452695511487393
16.75,0.1584012587069925,0.24311946390923964,-0.04659973135899714,-0.09334721525545142,0.24658395606892097,-0.0017632872321063705,-0.14113737330842788
16.8,0.15456186080485945,0.23722662967723712,-0.045470227008588805,-0.09108462526502292,0.24060714798444752,-0.0017205479170588176,-0.13771642489289
16.85,0.15069023447066904,0.23128433018726696,-0.044331241443900674,-0.08880304278419872,0.23458016975398238,-0.0016774498423446926,-0.13426676056761963
16.900000000000002,0.14678941726676173,0.22529722758995624,-0.043183668278974706,-0.08650425787442187,0.22850774996456363,-0.001634026821425691,-0.13079108683617421
16.95,0.1428625093856309,0.21927008016275357,-0.04202841955288523,-0.08419009750561883,0.22239471469987185,-0.0015903133649482746,-0.12729216600630772
17.0,0.1389126736499203,0.2132077423099223,-0.040866425729737976,-0.08186242555619888,0.21624598754022445,-0.0015463446807436909,-0.12377281618997091
17.05,0.13494313551242582,0.20711516456254375,-0.03969863569867063,-0.07952314281305564,0.21006658956258306,-0.0015021566738279723,-0.12023591130331238
17.1,0.13095718305609344,0.20099739357851557,-0.03852601677385258,-0.07717418697156513,0.20386163934054533,-0.0014577859464019046,-0.11668438106667708
17.150000000000002,0.1269581669940222,0.19485957214255306,-0.03734955469448516,-0.07481753263558727,0.19763635294435072,-0.0014132697978510782,-0.113121211004607
17.2,0.1229495006694612,0.18870693916618814,-0.036170253624801536,-0.07245519131746522,0.19139604394087936,-0.0013686462247458394,-0.10954944244584178
17.25,0.11893466005581088,0.1825448296877703,-0.034989136154066146,-0.0700892114380251,0.18514612339364808,-0.0013239539208413159,-0.105972172523317
17.3,0.11491718375662405,0.17637867487246625,-0.03380724329657602,-0.06772167832657677,0.17889209986281854,-0.001279232277077428,-0.10239255417416619
17.35,0.11090067300560362,0.17021400201225761,-0.03262563449165925,-0.06535471422091338,0.17263957940518707,-0.001234521381578841,-0.0988137961397198
17.400000000000002,0.10688879166660528,0.16405643452594806,-0.03144538760367644,-0.06299047826731197,0.1663942655741962,-0.0011898620196550394,-0.09523916296550572
17.45,0.10288526623363534,0.1579116919591534,-0.030267598922019384,-0.06063116652053211,0.1601619594199218,-0.0011452956738002523,-0.09167197500124771
17.5,0.09889388583085137,0.15178558998430933,-0.02909338316111214,-0.05827901194381706,0.15394855948908517,-0.0011008645236935072,-0.08811560840086788
17.55,0.09491850221256307,0.14568404040066868,-0.027923873460410413,-0.05593628440889389,0.14776006182504592,-0.0010566114461985896,-0.08457349512248544
17.6,0.09096302976322959,0.1396130511342984,-0.026760221384401244,-0.05360529069597207,0.1416025599678012,-0.0010125800153640706,-0.08104912292841443
17.650000000000002,0.08703144549746286,0.13357872623808414,-0.0256035969226039,-0.05128837449374425,0.13548224495398942,-0.0009688145024232852,-0.07754603538516743
17.7,0.08312778906002685,0.12758726589173205,-0.024455188489569825,-0.048987916399388404,0.12940540531689154,-0.0009253598757943875,-0.07406783186345586
17.75,0.07925616272583721,0.12164496640176256,-0.023316202924881985,-0.04670633391856478,0.1233784270864275,-0.0008822618010802729,-0.07061816753818671
17.8,0.07542073139995734,0.11575822020150961,-0.02218786549315407,-0.04444608146541557,0.11740779378915352,-0.0008395666410686044,-0.06720075338846115
17.85,0.0716257226176048,0.10993351585112923,-0.021071419884033125,-0.04220965036256761,0.11150008644826832,-0.000797321455731841,-0.06381935619758168
17.900000000000002,0.06787542654415055,0.10417743803759594,-0.01996812821219773,-0.03999956884113237,0.10566198358361463,-0.0007555740022272341,-0.060477798553047024
17.95,0.06417419597511229,0.09849666757469493,-0.018879271017357466,-0.03781840204070201,0.0999002612116679,-0.0007143727348967868,-0.05717995884655105
18.0,0.06052644633616335,0.09289798140303421,-0.017806147264254297,-0.0356687520093543,0.09422179284554813,-0.0006737668052672895,-0.05392977127398644
18.05,0.05693665568312538,0.08738825259003667,-0.016750074342661913,-0.03355325770364946,0.08863354949501598,-0.0006338060620503094,-0.05073122583544214
18.1,0.05340936470197153,0.08197445032993952,-0.015712388067385126,-0.03147459498862977,0.0831425996664667,-0.0005945410511421714,-0.047588368335203045
18.150000000000002,0.04994917670882881,0.0766636399438041,-0.014694442678262098,-0.02943547663782391,0.07775610936294171,-0.0005560230156240166,-0.04450530038175391
18.2,0.046560757649973146,0.07146298287950317,-0.013697610840161384,-0.027438652333240793,0.07248134208411942,-0.0005183038957617359,-0.04148617938777455
18.25,0.04324883610183409,0.0663797367117273,-0.012723283642983784,-0.025486908665374987,0.06732565882631929,-0.0004814363290060024,-0.03853521857014216
18.3,0.04001820327098916,0.061421255141984835,-0.011772870601661998,-0.023583069133202822,0.062296518082498455,-0.00044547364999226145,-0.0356566869499307
18.35,0.03687371299417083,0.05659498799860405,-0.010847799656160471,-0.021729994144185343,0.05740147584225804,-0.00041046989054075307,-0.03285490935241215
18.400000000000002,0.03382028173826124,0.051908481236725326,-0.009949517171475544,-0.01993058101426603,0.052648185591834595,-0.00037647977965647364,-0.0301342664070543
18.45,0.030862888600293802,0.04736937693830827,-0.009079487937634984,-0.018187763967871716,0.04804439831410804,-0.0003435587435292095,-0.027499194547523677
18.5,0.0280065753074548,0.04298541331213312,-0.00823919516969916,-0.016504514137914175,0.04359796248860011,-0.00031176290553353687,-0.024954186011682568
18.55,0.025256446217078028,0.038764424693789386,-0.007430140507758717,-0.01488383956578515,0.03931682409146311,-0.000281149086228756,-0.022503788841589073
18.6,0.022617668316653964,0.034714341545690766,-0.006653844016937941,-0.01332878520136307,0.03520902659550036,-0.0002517748033590085,-0.020152606883501435
18.650000000000002,0.020095471223820174,0.03084319045706448,-0.0059118441873915704,-0.011842432903007715,0.03128271097014854,-0.0002236982718531782,-0.01790529978787276
18.7,0.017695147186367423,0.027159094143959107,-0.005205697934306924,-0.010427901437564524,0.027546115681489135,-0.0001969784038249395,-0.015766583009354084
