SilviaXuva/Vision-guided-robot-manipulator/Helpers/Outputs copy/2023-12-09_21h08m34s/red9/Place/Joint Comparison/q_Real.csv
,q0,q1,q2,q3,q4,q5,q6
0.0,0.049599886649040595,-0.8688615165041327,-0.41755533891544383,1.2603135513770791,-0.04933417317062672,-1.0327970878327353,1.9038236132490542
0.05,0.049640098855349354,-0.8691107618474369,-0.4175534296732272,1.2604730726821645,-0.049397729183729706,-1.0327104783358432,1.903838359332759
0.1,0.049657227675442936,-0.8691729094154507,-0.4175378730796211,1.2605360477697753,-0.04944236288757286,-1.032638843674633,1.9038478329534303
0.15000000000000002,0.0496578292538792,-0.8691827599778141,-0.4175021801365803,1.2605641054442647,-0.04947223416813269,-1.0325803040272534,1.9038412989484925
0.2,0.049663396339805606,-0.8691331286875913,-0.417440873867541,1.2605501152581373,-0.04948358535464965,-1.0325351959347788,1.9038092655900467
0.25,0.04966698820867073,-0.8690441625618565,-0.4173472152108155,1.260511806520041,-0.04947111216817107,-1.0324860355991408,1.9037414054045463
0.30000000000000004,0.049687169227008006,-0.868909617019548,-0.4172133222309265,1.2604312574685286,-0.04943882047660658,-1.0324253272618313,1.903629306317516
0.35000000000000003,0.04971172547333334,-0.8687330965027126,-0.41703195150625333,1.2603263983025192,-0.04937369515559308,-1.0323437549087724,1.9034625335554682
0.4,0.049742327890906574,-0.8684907259322994,-0.4167912633125879,1.2601733963208344,-0.049284705332548306,-1.0322372311463957,1.9032321827418597
0.45,0.04979770104003114,-0.8681905593959874,-0.4164869230332201,1.2599796334075681,-0.04915349623412801,-1.0321033820644123,1.9029298837967088
0.5,0.049869322566435385,-0.8678054229518549,-0.41610952684963076,1.2597200021181585,-0.04898205036970002,-1.0319428279268799,1.9025461102165686
0.55,0.04997414199577816,-0.8673473979919285,-0.4156545619908029,1.2594053112576982,-0.048760369075166975,-1.0317519197213252,1.902072956104786
0.6000000000000001,0.05010412409931856,-0.8668108872600222,-0.4151146378545022,1.2590313459821456,-0.04848693150180636,-1.0315202260865586,1.901501493842804
0.65,0.050274990079370474,-0.8661688711015436,-0.41448677738789874,1.2585640339152815,-0.04814315209323159,-1.031252487554972,1.900821847874872
0.7000000000000001,0.050499643653743376,-0.8654219244381046,-0.41376960973012133,1.258007548209424,-0.04772151380092879,-1.0309534292663654,1.9000250215356556
0.75,0.0508006465548415,-0.8645414111940344,-0.41295907581361707,1.257311326718855,-0.047226864839080805,-1.0306372268712634,1.8991034135717102
0.8,0.051173133241442056,-0.8634559938021834,-0.4120452912948679,1.2564122850692652,-0.04666101259825418,-1.0303369621848595,1.8980483446444334
0.8500000000000001,0.05157857961752434,-0.8621949758140343,-0.4110107863699863,1.2553294649587152,-0.046042447262624575,-1.0300475637963422,1.8968531417901826
0.9,0.05203093873681944,-0.860758115596892,-0.40984480141498836,1.2540718904584676,-0.0453646233814971,-1.0297747198188318,1.8955137980503391
0.9500000000000001,0.05250975965585096,-0.859120694338946,-0.40853332759014266,1.2525953599534245,-0.044625844086158,-1.029508218620164,1.894023972801123
1.0,0.053013218908930834,-0.8573060633417136,-0.40706502855916343,1.250933182648827,-0.04382827228776068,-1.0292452527803304,1.8923797744582904
1.05,0.05354271145526086,-0.8553080408499033,-0.40543003634679275,1.2490913096993232,-0.04297012371054627,-1.02897807827378,1.8905773623722733
1.1,0.05421982414788148,-0.8531556276158324,-0.4036588319523425,1.2470567531329027,-0.04195698770566268,-1.0286975354690744,1.888610317090846
1.1500000000000001,0.0550184970340707,-0.8507783590378428,-0.4017548877537583,1.2447449126071504,-0.040817623702921184,-1.0284304658539791,1.8864669721919989
1.2000000000000002,0.055910397623498496,-0.8481690344364949,-0.39971111752804195,1.2421531729397455,-0.03956758642947047,-1.0281989128858238,1.8841371943479865
1.25,0.05682961731701942,-0.8453427873929064,-0.3975098679769813,1.239319496189688,-0.038221635507257656,-1.0279844534197689,1.881611078338047
1.3,0.05779547605128538,-0.8422988244848701,-0.395139783731554,1.2362449222267917,-0.03678011111838991,-1.0277813370213367,1.8788843943420843
1.35,0.05881748708659134,-0.8390378281043923,-0.3925933762671698,1.2329308895048863,-0.03523861061293531,-1.0275845795983567,1.8759538855698332
1.4000000000000001,0.059900939169584125,-0.8355598552736847,-0.38986468370843785,1.2293781438623346,-0.03359455312973532,-1.0273900001507985,1.8728161225496671
1.4500000000000002,0.06105000897724278,-0.8318619501538719,-0.3869484241529225,1.225582509617037,-0.03184560410243951,-1.0271940619010147,1.8694672655459061
1.5,0.06226625931063268,-0.8279445814485377,-0.3838388077594299,1.2215434513061612,-0.029992814704764992,-1.0269916339469785,1.8659033729792567
1.55,0.06354908132978278,-0.823803637305671,-0.38052798316928205,1.217256737320124,-0.02804258356937616,-1.0267853395589608,1.8621209742733618
1.6,0.06489962166397162,-0.8194354927870056,-0.37701018132482483,1.212718165231097,-0.02598877847447339,-1.0265737344520254,1.858116078819965
1.6500000000000001,0.06631911333172612,-0.8148392188115254,-0.37328073639636183,1.2079246465519984,-0.0238271138214998,-1.0263546100949608,1.8538842974948821
1.7000000000000002,0.0678090095308762,-0.8100128489099346,-0.3693357141902143,1.2028721732873098,-0.021553648852401644,-1.026127585102913,1.8494209378468902
1.75,0.06936959335999758,-0.8049566971827421,-0.3651709794602817,1.197559092177707,-0.019167173777841558,-1.0258912447599227,1.8447212460670859
1.8,0.0710011898658313,-0.7996699746390953,-0.3607829191305557,1.1919833206385966,-0.016664006746524865,-1.0256437547988162,1.8397802728437314
1.85,0.07270554303362399,-0.7941513207280093,-0.35616832299698664,1.186141219449825,-0.014041225492315863,-1.025385740712087,1.8345931111165745
1.9000000000000001,0.07448234304892476,-0.7884016494487873,-0.35132357488236976,1.1800313069816635,-0.011297848020147851,-1.0251150746761497,1.8291548680949206
1.9500000000000002,0.07633251190667092,-0.7824206429556104,-0.34624612128249294,1.1736516322058064,-0.008428666954080764,-1.0248312293152435,1.82346050476664
2.0,0.07825620463604853,-0.7762102503054635,-0.3409330712222581,1.1670022516459502,-0.005432628366159306,-1.0245327484873,1.8175050765049392
2.0500000000000003,0.08025307877487792,-0.7697704413012955,-0.33538138466109296,1.160080938724409,-0.0023078338035232527,-1.0242179773590445,1.8112836827345533
2.1,0.08232392544804341,-0.7631028870682376,-0.32958922147804826,1.1528872258736274,0.0009511204581848427,-1.0238865878906072,1.8047913373974502
2.15,0.08446874128949093,-0.75620876376712,-0.3235545068953097,1.1454206905977657,0.00434613811407154,-1.0235370723394994,1.7980230889694881
2.2,0.0866867436665747,-0.7490921631299645,-0.3172751432004497,1.1376839104465366,0.007879321959706313,-1.0231665570886352,1.7909739986571784
2.25,0.08897895799683392,-0.7417516188739948,-0.31074937044786866,1.129672957522829,0.011553728030657772,-1.0227762995847995,1.7836393461447009
2.3000000000000003,0.09134379820795682,-0.7341913380302495,-0.3039754587352613,1.1213901789000817,0.015371955427110241,-1.0223644157853846,1.7760143048615227
2.35,0.09378172216247554,-0.7264136161277972,-0.2969525298627223,1.1128364332940586,0.019338565099771835,-1.0219293452500686,1.7680941082906407
2.4000000000000004,0.09629247863611087,-0.7184205593314971,-0.2896792814125869,1.104011639405586,0.02345457253287113,-1.021471283833989,1.7598741769924207
2.45,0.09887435182287435,-0.7102165604014867,-0.28215516222888964,1.0949196442202165,0.027724982213544698,-1.0209877239715708,1.7513497256948856
2.5,0.10152802964697878,-0.7018028856526529,-0.27437987820698934,1.0855591352184073,0.032152772313151314,-1.0204788007229832,1.7425162566438799
2.5500000000000003,0.1042515611763975,-0.6931836867741764,-0.266352821792762,1.0759333956490738,0.03673984827892303,-1.019943387752386,1.7333692528124551
2.6,0.10704460266108659,-0.6843616330464585,-0.2580743130365093,1.0660435490666884,0.04149119218664227,-1.0193813535091756,1.7239043401557783
2.6500000000000004,0.10990674322034696,-0.6753411458313332,-0.24954509159213967,1.0558924518141473,0.0464105261038084,-1.0187918767710982,1.7141172225106334
2.7,0.11283643342035081,-0.6661245342500173,-0.2407659489755335,1.0454814755112551,0.05150140047690452,-1.018174908859236,1.704003641440864
2.75,0.1158326407935881,-0.6567157196635455,-0.23173773035884354,1.0348131372063738,0.05676646026500939,-1.0175308819806828,1.69355956074016
2.8000000000000003,0.11889267110943941,-0.6471188815037526,-0.22246140401731662,1.0238917655920352,0.062209294162056554,-1.0168595463702887,1.6827809327980525
2.85,0.12201640532674053,-0.6373383329653503,-0.21293922607091584,1.012721464769022,0.06783587160138205,-1.0161599667973253,1.6716639750681164
2.9000000000000004,0.1252028304194323,-0.6273759122056808,-0.20317351479239668,1.0013028527847883,0.07364975548657972,-1.0154340207809749,1.660205132804091
2.95,0.12844880182231092,-0.6172361441925786,-0.19316626588604874,0.9896404114020583,0.0796538369895775,-1.0146822847227213,1.6484008135967563
3.0,0.13175306780301294,-0.6069237758827714,-0.18292053641102096,0.9777391840382716,0.08585390844010544,-1.0139045202422774,1.6362476924882212
3.0500000000000003,0.135113029328825,-0.5964407403400552,-0.17243920370056293,0.9656016002319252,0.09225330498401693,-1.0131033960412847,1.623742668907
3.1,0.13852674973357204,-0.5857920425599455,-0.1617256896007303,0.95323276079393,0.09885671132370533,-1.01227898752155,1.610882878556197
3.1500000000000004,0.141990913622003,-0.5749805531751372,-0.15078357202097356,0.9406363592302366,0.10566862258634489,-1.0114339123958342,1.5976656331075985
3.2,0.14550352069730862,-0.5640101117190573,-0.13961722499666132,0.9278172177353804,0.11269466424471011,-1.010569294526589,1.5840885975674674
3.25,0.1490615108962819,-0.5528839635530165,-0.12823165619851423,0.9147801234160268,0.1199409631998514,-1.0096879632549738,1.5701496073705388
3.3000000000000003,0.15266149458450107,-0.5416055416563899,-0.11663148637305897,0.9015300886665258,0.12741079204119363,-1.008792107195011,1.55584673102638
3.35,0.15629873509052145,-0.5301784388522344,-0.10482155565580667,0.8880735158392166,0.13510957797699805,-1.0078838160078043,1.541178187880803
3.4000000000000004,0.15997079823234242,-0.5186050037450751,-0.09280800621017898,0.8744143779165322,0.14304461501699667,-1.0069666067641063,1.52614291351413
3.45,0.16367327491302988,-0.5068887612614191,-0.08059747686866194,0.860558489325467,0.15122287493498968,-1.0060434853301743,1.5107399197907567
3.5,0.16740195237879318,-0.49503246759699204,-0.0681964630397089,0.846512369524632,0.15964903624161847,-1.0051183259779564,1.4949685275029132
3.5500000000000003,0.1711504183556639,-0.4830386664147219,-0.05561166407492135,0.8322817249676351,0.16833014748043412,-1.0041949393473748,1.4788282363624015
3.6,0.17491315029674762,-0.4709104744266779,-0.04285008334507999,0.8178737195593772,0.17727292180383866,-1.0032755287776063,1.4623189370094285
3.6500000000000004,0.17868401675742526,-0.4586492869043583,-0.029919473074310886,0.8032942083466916,0.18648547734470275,-1.0023664418539733,1.445441097569961
3.7,0.18245695323497432,-0.4462570014452654,-0.016828668157662062,0.7885490380152964,0.19597767647933867,-1.0014721561649629,1.4281956939336573
3.75,0.18622293603684106,-0.43373612291691066,-0.0035854810360209342,0.7736458732154241,0.20575544342816102,-1.0005972746937408,1.4105835431308726
3.8000000000000003,0.1899745412258053,-0.42108968978555233,0.009800607476801781,0.7585945156588524,0.21583102466910645,-0.9997452923500981,1.392606008263052
3.85,0.1937013597592089,-0.4083161243776519,0.023320360423827464,0.7433980705245276,0.22621375783726866,-0.9989236384457505,1.3742651156145789
3.9000000000000004,0.19739255130203676,-0.3954199116395374,0.03696413440642028,0.7280685917318704,0.23691539005538745,-0.9981357006149978,1.3555626087825776
3.95,0.20103813993211433,-0.3823995791530708,0.050720428892990735,0.7126103365827362,0.24795117990570137,-0.9973889727424883,1.3365016608662152
4.0,0.20462408288404896,-0.3692577099952126,0.06457844205609489,0.6970345859971945,0.25933343177741736,-0.9966888061622807,1.3170847459608916
4.05,0.20813388086240323,-0.35599402131389546,0.07852708397698545,0.6813494521641249,0.27107861566667385,-0.9960409915779137,1.2973146911576556
4.1000000000000005,0.21155023445095603,-0.3426088556562934,0.09255448572653213,0.6655646438829019,0.28320541959473045,-0.9954521973089968,1.277194703674136
4.15,0.21485556200424383,-0.3291024367171979,0.106646963497682,0.6496902807534665,0.295736827709871,-0.9949284265847604,1.256728611373053
4.2,0.2180254255964331,-0.315473491246806,0.12079133962594264,0.6337349104823219,0.3086954956994558,-0.9944769084240608,1.2359199187530254
4.25,0.22103666806427896,-0.30172233500784257,0.13497184241528895,0.6177103020507348,0.3221125876600036,-0.9941044968781407,1.214772668487586
4.3,0.2238585641338473,-0.28784717591167075,0.14917263688677126,0.601626397727753,0.33601968135460003,-0.993818750791099,1.1932904590238447
4.3500000000000005,0.22645443256532216,-0.2738470756309883,0.1633774775742386,0.5854964354561246,0.3504549171050283,-0.9936268018044309,1.1714760001987314
4.4,0.22878619542491369,-0.2597202010719604,0.17756675916244988,0.5693346713507581,0.3654673606153639,-0.993535827751098,1.149332389849839
4.45,0.2308085423238994,-0.24546273904194352,0.1917177457013688,0.5531519260218527,0.38111378895931564,-0.9935556504033427,1.126862970214157
4.5,0.23246508266639793,-0.23107245521567546,0.20580604573221892,0.536963063358599,0.39745932562809816,-0.993694470237467,1.1040690484676394
4.55,0.23369201217112504,-0.21654534871107486,0.2198019546798779,0.5207828468174223,0.41458780653933147,-0.9939625938762441,1.080951524359376
4.6000000000000005,0.23441205128395026,-0.20187723804816868,0.23367065450730806,0.5046296459044755,0.43259858338493223,-0.994370074887696,1.0575089385431018
4.65,0.23453447776929265,-0.18706141822705208,0.24736865082302473,0.48851868430088935,0.4516158105306947,-0.9949306621216724,1.0337389575969846
4.7,0.2339485706972557,-0.17209116752738327,0.2608418865574479,0.47246989572691434,0.4717927342824414,-0.995659228188774,1.0096358146573674
4.75,0.23252569256275513,-0.15695869706565924,0.2740188376004556,0.45650609176948753,0.49332522969179876,-0.9965720504460011,0.9851906915329388
4.800000000000001,0.2301079082668787,-0.14165286481365388,0.2868050695437324,0.44064907894585387,0.5164575033554547,-0.9976916408244211,0.9603905530294674
4.8500000000000005,0.22650445485399467,-0.1261609294975187,0.2990721874321798,0.42492461341217236,0.5415036197072295,-0.9990463138122561,0.9352164559804605
4.9,0.22148571218453417,-0.11046739106087168,0.3106413356861037,0.4093602338261201,0.5688684867158397,-1.0006716226880024,0.9096424052832877
4.95,0.21478435982192792,-0.09455370279539158,0.3212548468959833,0.39398719211617533,0.5990829515034493,-1.0026156179926615,0.88363512793593
5.0,0.20608861850731183,-0.07839664026116919,0.33053646336658793,0.37883972839280056,0.6328387385850188,-1.0049434249793978,0.8571517502581858
5.050000000000001,0.19505233626904614,-0.06196914385266564,0.3379257762646599,0.3639554207758451,0.6710477047136921,-1.0077448699692535,0.8301396216810141
5.1000000000000005,0.18133680792865506,-0.045241353500826254,0.34257347791197795,0.3493780291423807,0.7149065666571827,-1.0111410638353144,0.8025395762920082
5.15,0.16469873400359253,-0.028183316023492465,0.34318276961019023,0.33515407714990225,0.7659540381534713,-1.0152990973054912,0.774296523586378
5.2,0.14519795657547277,-0.010778032856498435,0.3377850506076331,0.32133526238498467,0.8260773294508352,-1.0204334565801032,0.7453853269405539
5.25,0.12358776199270699,0.006955374051955832,0.32348901370101635,0.3079752521318153,0.897335545243419,-1.0267982623608174,0.7158658419936608
5.300000000000001,0.10194761891752772,0.024910809780332704,0.29639717234024876,0.2951269299536433,0.9813674232883275,-1.034617040209909,0.6859779736798577
5.3500000000000005,0.08432241057830588,0.04283440808243562,0.2521822284987907,0.282841663095438,1.0781356633648809,-1.0439179680297577,0.6562460032887935
5.4,0.07655052909770996,0.06032142183587951,0.18788683992612762,0.2711598872097733,1.1843307687070392,-1.054287319462495,0.6274634337096349
5.45,0.0843917468437378,0.0769851822295873,0.10436924275938675,0.2601335798671273,1.2929969172035636,-1.0647550161301926,0.600367675162793
5.5,0.11090788002145689,0.09277045561977404,0.007164744555232916,0.2498789921279185,1.395537910012886,-1.0740586997993422,0.5751470351039095
5.550000000000001,0.15531919835812882,0.10811941409383319,-0.09498567539283165,0.24057775165858042,1.4843511459413214,-1.0811347399928097,0.5513002652677934
5.6000000000000005,0.21326298726933784,0.123807562707151,-0.19213466503783375,0.23241788889573986,1.5543628514052872,-1.085449408432916,0.5279549686695815
5.65,0.2775872609565714,0.1405840117043972,-0.2753120265251116,0.22553470859282598,1.6041843063517918,-1.0871085361543207,0.5042915872391402
5.7,0.3404810336879686,0.15884037941280965,-0.33934905575580154,0.22001590061896747,1.6366855362891486,-1.0867656410693067,0.4798106393961425
5.75,0.39654312116184315,0.17854668413350488,-0.38430051711582036,0.21592790760709554,1.657360655676567,-1.0852815081920542,0.45435146935781084
5.800000000000001,0.4440067065680604,0.1994603682188891,-0.4137018563544126,0.21332794757150497,1.6714540589405698,-1.0833622922017592,0.427933261413995
5.8500000000000005,0.4835187162073124,0.22133406320093563,-0.43177934426305303,0.21225560774631788,1.6824695454880352,-1.081442215803497,0.4006155867246762
5.9,0.5165517480170593,0.24398260037462371,-0.4419798952065539,0.21270967612385142,1.6923165179700514,-1.0797515157554192,0.372459000820776
5.95,0.5445670296511755,0.2672744597488572,-0.4467464577033177,0.21464384204882986,1.7019143096698357,-1.0784070986481291,0.34352926025545744
6.0,0.5687601647036366,0.2911071686058294,-0.44773559323570034,0.21797316447693574,1.71166513736967,-1.077470121053292,0.3139035990782079
6.050000000000001,0.5900490809178646,0.3153958102679919,-0.44607240182619856,0.2225834124460961,1.7217132833704056,-1.0769726025825097,0.28367413158303423
6.1000000000000005,0.6091203316482459,0.34006168423029115,-0.44253140432583077,0.22834597423393657,1.7320836206503063,-1.0769306418249407,0.2529410518075736
6.15,0.6264847205929505,0.36503315190966906,-0.43765779969646973,0.2351286939037408,1.7427477435680305,-1.0773516317579181,0.221808577221407
6.2,0.642521479170909,0.39024328293689825,-0.43184234191830495,0.24280421568889535,1.7536538930337382,-1.078235687957685,0.1903791581620252
6.25,0.6575138469604751,0.4156296531424624,-0.42537122239621666,0.2512520239337176,1.7647462596035428,-1.079578111334325,0.1587515449270778
6.300000000000001,0.6716738322558493,0.4411344169507755,-0.4184576019186072,0.2603605634327829,1.7759713851526457,-1.081371463726242,0.12701907665455323
6.3500000000000005,0.6851598303542493,0.4667040026922852,-0.4112618169676572,0.2700292041059827,1.7872794163790124,-1.0836055067378587,0.09526793782145795
6.4,0.6980906709730984,0.4922901907237891,-0.4039064765879214,0.28016815803996536,1.798627568070237,-1.0862692919634598,0.0635775919394484
6.45,0.7105556401979325,0.5178473029585972,-0.3964858791907763,0.29069642573616516,1.8099773473137124,-1.0893479160559145,0.03202026477253831
6.5,0.7226220614987913,0.543334762902846,-0.3890728137343621,0.30154294787643565,1.8212948904996757,-1.0928270643422553,0.0006615032928401557
6.550000000000001,0.7343400467441679,0.5687146715607556,-0.38172371963590734,0.3126447575138124,1.8325509476796797,-1.0966900035812006,-0.03043975856518144
6.6000000000000005,0.7457471818728371,0.5939529316785646,-0.3744826179598458,0.3239469252955967,1.8437212626291732,-1.1009212091259613,-0.06123060782949849
6.65,0.7568714038952874,0.6190180394164196,-0.3673836600353534,0.33539979112404017,1.85478297932239,-1.1055016636282693,-0.09166336801297206
6.7,0.7677336016536898,0.6438807682865193,-0.3604534965323563,0.3469591928300959,1.8657179786159004,-1.1104136446240096,-0.12169539315923866
6.75,0.7783491068206759,0.6685149038225402,-0.35371269330982574,0.3585864782848942,1.8765096428851609,-1.115637832439991,-0.15128856475649183
6.800000000000001,0.7887293835896302,0.692895964066665,-0.34717628036295284,0.37024844619439173,1.8871422238869522,-1.1211544083093792,-0.18040968278792166
6.8500000000000005,0.7988816607631328,0.7170017678034465,-0.340855057872284,0.3819150698393241,1.8976024976438957,-1.1269447022176207,-0.2090296462057447
6.9,0.8088119025557882,0.740811717153066,-0.3347570007100481,0.393558998790417,1.9078796033289251,-1.1329877221465936,-0.23712245547884206
6.95,0.8185236832671755,0.7643063819477042,-0.3288873372108495,0.40515491158527295,1.9179636302654781,-1.1392625516920316,-0.2646654171343822
7.0,0.8280210126142608,0.78746877769917,-0.3232490133398796,0.41668242817804557,1.9278455128453547,-1.145749079977606,-0.291638993842864
7.050000000000001,0.8373043699209864,0.8102818747030437,-0.3178430644277673,0.428120572947829,1.9375179861365903,-1.1524259025296177,-0.318026583451777
7.1000000000000005,0.8463752816622676,0.8327314048778875,-0.3126689098370426,0.43945271013716375,1.9469741331920225,-1.1592730808833291,-0.3438141682089781
7.15,0.8552342252991513,0.854803245438414,-0.30772436356036403,0.45066343601665115,1.9562075619030173,-1.1662696071189307,-0.36899043927083636
7.2,0.863881203152504,0.8764844792211369,-0.30300638570341826,0.4617377581015322,1.965213829643606,-1.1733950885261453,-0.39354599859209444
7.25,0.87231617632485,0.8977638588977369,-0.29851111548209125,0.4726632984851981,1.9739890157170177,-1.1806297506700325,-0.4174734181903343
7.300000000000001,0.8805399144200552,0.9186302004926523,-0.29423447181528456,0.4834274752131616,1.9825311988759644,-1.1879529564577858,-0.44076665131174014
7.3500000000000005,0.888551712275835,0.9390737550425222,-0.29017092195637006,0.4940213783225397,1.9908361839167361,-1.195345920769367,-0.46342225640660284
7.4,0.8963518342376795,0.9590850429882389,-0.28631505793837214,0.5044339707889368,1.998903420700365,-1.2027882205941098,-0.48543750519523665
7.45,0.9039393866414727,0.9786557688191093,-0.2826607419318966,0.5146553061810789,2.006730954571053,-1.2102618441072748,-0.5068112168826561
7.5,0.9113158780211347,0.9977784776914553,-0.279201676862997,0.5246796741148517,2.0143182847528327,-1.2177483070143673,-0.5275436303108069
7.550000000000001,0.9184804819863513,1.016445983733052,-0.27593128884104073,0.5344983239436512,2.0216652489052613,-1.2252300026909106,-0.5476359894479325
7.6000000000000005,0.9254342974652295,1.0346520719436314,-0.27284325015422556,0.5441051224220752,2.0287732453598775,-1.2326894514737705,-0.5670903037987489
7.65,0.932177805628222,1.0523908862621942,-0.2699306220922858,0.5534934828617207,2.0356419669888925,-1.2401094407468358,-0.5859096590166539
7.7,0.9387109221411233,1.06965794899861,-0.26718699637439014,0.562657834703,2.042274077588002,-1.2474753391115168,-0.6040977625080051
7.75,0.9450348279761682,1.0864482503491815,-0.26460550330932125,0.5715939177511333,2.0486703313520125,-1.2547713793893154,-0.6216594480121639
7.800000000000001,0.9511508234432062,1.1027584563488932,-0.26217934222184863,0.5802971060692539,2.054832580897525,-1.2619826578807256,-0.638599838838826
7.8500000000000005,0.9570587262329243,1.1185850391226968,-0.25990190220939424,0.5887630489310376,2.060763639482215,-1.2690952830960653,-0.6549248199648426
7.9,0.9627609759496123,1.1339254002172616,-0.257766630170968,0.5969891186991848,2.0664658562009284,-1.2760961802292061,-0.6706407170260705
7.95,0.9682581041562732,1.1487775274429035,-0.25576725477223455,0.6049715103296355,2.0719425689900035,-1.2829733405314798,-0.6857542373306111
8.0,0.9735517751036382,1.163140132736051,-0.2538974678368416,0.6127082349714694,2.0771963873057135,-1.2897154808842128,-0.70027263719869
8.05,0.9786437981475651,1.1770120835123778,-0.2521514002436962,0.6201961855291033,2.082231542062471,-1.2963106963957396,-0.7142031684901308
8.1,0.9835356867347792,1.1903929119002237,-0.25052285221314413,0.6274343072878585,2.087050253813024,-1.3027491869414793,-0.7275539443352675
8.15,0.9882289754976891,1.2032828086941227,-0.2490059337022044,0.6344208869105535,2.09165626055171,-1.3090218789023569,-0.7403332737178743
8.200000000000001,0.9927267985043287,1.2156822444271558,-0.24759525643161856,0.6411553269281601,2.0960541974752758,-1.3151196127703433,-0.7525494636424245
8.25,0.9970299217244194,1.2275929752896277,-0.24628561899222332,0.6476363972535609,2.100248054465494,-1.3210354978719419,-0.7642112223268757
8.3,1.001141501675481,1.239016141298689,-0.24507142559862616,0.6538641147450741,2.1042404331074427,-1.3267611530825831,-0.7753277024916617
8.35,1.005063540346886,1.2499545454570267,-0.2439479434434458,0.6598384814691078,2.1080368806581906,-1.332291281333596,-0.7859080111652333
8.4,1.0087990126023352,1.2604108639170464,-0.24291024487284837,0.6655600604223658,2.1116405216881593,-1.337620753216392,-0.7959617176402052
8.450000000000001,1.0123497277657074,1.270388696200742,-0.24195351380766,0.6710297798086597,2.1150554538211206,-1.3427439804843642,-0.8054986612779214
8.5,1.015719521018754,1.279891800282988,-0.24107351259392665,0.6762485370532488,2.1182868812023328,-1.347656900586764,-0.8145285468587111
8.55,1.018910429439088,1.2889249398905405,-0.240265920000397,0.6812183285041258,2.1213384862250213,-1.3523566518346624,-0.8230616955381512
8.6,1.0219258895495822,1.2974931873250857,-0.2395267238519443,0.6859403845583688,2.1242148887086043,-1.3568407567542387,-0.8311084132234303
8.65,1.0247694860040635,1.3056022818187558,-0.23885236264512436,0.6904172907529352,2.126921497089394,-1.3611069423915612,-0.8386790785323155
8.700000000000001,1.027444050756522,1.3132585462977808,-0.23823870548308562,0.6946517784876336,2.12946064780773,-1.3651548303401233,-0.8457848884629453
8.75,1.0299535183758877,1.3204683341365833,-0.2376825141411037,0.6986461401755312,2.1318389190564253,-1.3689829058650367,-0.8524366940051316
8.8,1.0323005806518593,1.3272398357309636,-0.23718031522135133,0.7024043835987,2.1340596600534387,-1.3725928500663422,-0.8586461050072978
8.85,1.034490772386296,1.3335801871519373,-0.23672907181906883,0.7059303603266235,2.1361284535625504,-1.3759845385988332,-0.8644245939381292
8.9,1.036526451520756,1.3394987463268955,-0.23632572543941954,0.7092274069991272,2.138049535131239,-1.37916013381861,-0.8697841433693037
8.950000000000001,1.0384121006628004,1.345004467436893,-0.23596733120571167,0.7123002638231386,2.139827537414637,-1.3821219983457629,-0.8747370798346134
9.0,1.0401515158257386,1.3501072148781774,-0.23565117022649903,0.7151531970626709,2.1414675296269814,-1.384873118668657,-0.8792959925668796
9.05,1.0417502434628976,1.35481734458332,-0.23537447412436324,0.7177926854059498,2.142973874246649,-1.387417085231449,-0.8834738947788988
9.1,1.0432122120144565,1.3591456809504867,-0.23513453504095405,0.7202237744456806,2.144351277101068,-1.389758082473214,-0.8872842486741056
9.15,1.044541451544376,1.3631047714474203,-0.23492934182385597,0.7224511949767058,2.1456064181265413,-1.3919010678065173,-0.8907404231047269
9.200000000000001,1.0457448103108626,1.366705935444932,-0.23475653273071612,0.7244831782475663,2.1467433505769953,-1.3938518396894324,-0.8938566161644164
9.25,1.0468250410229514,1.369963062213818,-0.23461396467948697,0.7263241700878406,2.147767896108512,-1.3956158169719215,-0.8966472372599952
9.3,1.047789654511558,1.3728886585862716,-0.23449948051597955,0.7279833276324594,2.1486851000459883,-1.3972000728163834,-0.8991273462667893
9.35,1.0486429434048194,1.3754977122809506,-0.23441116848864194,0.7294666734340702,2.149501019105696,-1.398611858645811,-0.9013122604297285
9.4,-0.19242731346375433,-1.4579342679896012,0.28347045038755336,0.082244752501217,-0.4386359580125845,-1.1042801122657029,1.0643413356290032
9.450000000000001,-0.19222055058559956,-1.4581860882470452,0.28349223424192244,0.08064021978891159,-0.43842351389119366,-1.1049730913757005,1.0639902439437252
9.5,-0.19206798455510693,-1.4585861508278526,0.28348032667477735,0.07942426776940624,-0.4382349052240195,-1.1055581309251428,1.063689052533665
9.55,-0.19195203130021726,-1.4588264070410404,0.2834345145873698,0.07873662748671409,-0.43806139198228483,-1.1059017152649624,1.0634987417789592
9.600000000000001,-0.19187646232231007,-1.4588922730721405,0.28337990610104397,0.07837130080717096,-0.4379030602178553,-1.1060701303322225,1.063368941458621
9.65,-0.19184245911944706,-1.4587634332380153,0.2833128744814673,0.07856492106713465,-0.43774790788712276,-1.1059576811831933,1.0633448504935523
9.700000000000001,-0.19179725375271245,-1.4584453002584483,0.2832584617506532,0.07896061733398592,-0.4375867941789648,-1.1057155163285544,1.063344060477722
9.75,-0.19180942866640224,-1.4579578859630655,0.28323504496750496,0.0796146848975214,-0.43743593644509654,-1.1053284163018686,1.063355712624051
9.8,-0.19179156358225538,-1.4572781812527194,0.28323500212524005,0.08063095911462456,-0.4372617374046869,-1.1047426115828431,1.0634080596478173
9.850000000000001,-0.19174994021102842,-1.4563877491887018,0.283265931589549,0.08190591626127687,-0.43705995954336313,-1.1040033163638827,1.063474369337892
9.9,-0.19169052283996793,-1.4552987259994523,0.2833426333505597,0.08337247881979767,-0.4368410267421459,-1.103138718554598,1.0635289001096093
9.950000000000001,-0.19158924390036297,-1.4539917817125982,0.28346319080732246,0.08505726322632985,-0.4365745621220672,-1.1021510458179378,1.063572086222475
10.0,-0.191474226809227,-1.452439823528868,0.2836287557640177,0.08712045818236323,-0.4362824240641988,-1.10095577533119,1.0636329379108345
10.05,-0.19132159203723798,-1.4506093675580065,0.2838292720740412,0.08956501190061879,-0.4359153677206758,-1.099542989297809,1.0637113593477772
10.100000000000001,-0.19107808650452213,-1.4485436152020088,0.2840859057155351,0.09208340723430294,-0.43549501426459536,-1.0980366881132881,1.0637370442654523
10.15,-0.19072550390063908,-1.4463005309802544,0.2844233082834155,0.09448135776186618,-0.4350311360881089,-1.0965296537935187,1.0636561501813968
10.200000000000001,-0.1902802606508022,-1.4438571545071484,0.28485097536491405,0.09687892332761028,-0.43452902749881583,-1.0949988426574706,1.0634832836059411
10.25,-0.18976680636895224,-1.441210035677339,0.28539108309580674,0.09910908374788273,-0.4339815779416053,-1.0935069394275236,1.0631690736399004
10.3,-0.189113445604639,-1.438331368819402,0.28601862780979664,0.10157396872222256,-0.4333696034581992,-1.0918814512779762,1.062810216936892
10.350000000000001,-0.18843114804519182,-1.4351574898578041,0.2867429291363833,0.10424703230417416,-0.43270407470769295,-1.0901079366958417,1.0623911936052368
10.4,-0.18757492223934835,-1.431680275741313,0.28755130276730545,0.10717922922413056,-0.4319616122710148,-1.0881700288918386,1.0619380353225398
10.450000000000001,-0.18667621926777533,-1.427891505158239,0.2884748803269644,0.11021174580420566,-0.4311866468691893,-1.0861293331506732,1.0613943419039282
10.5,-0.18572928152671508,-1.4237675950183077,0.2895105604339292,0.11363487151657764,-0.4303697956479914,-1.083870310792795,1.06081316164315
10.55,-0.18463951801340303,-1.4192801192344031,0.2906362948369349,0.11750715466648952,-0.42945800597467676,-1.0813368577570872,1.0602255049166995
10.600000000000001,-0.18320160710290398,-1.4144617083362374,0.29184203156677474,0.12131480939231877,-0.4283966529539365,-1.0787699322219644,1.0595494692563734
10.65,-0.18163685647517291,-1.409412301309531,0.29318681048005885,0.12448917581309024,-0.42724741069435673,-1.0764338503175939,1.0586107880224414
10.700000000000001,-0.17992194274662232,-1.4042051416028214,0.29468752993318575,0.1270547993117474,-0.4259905491334171,-1.074347829206012,1.0573817944831931
10.75,-0.17803827548851575,-1.3988243898697428,0.2963390812248389,0.1291933139306441,-0.4246148126600124,-1.072434728968145,1.0558964216791262
10.8,-0.1759849978355623,-1.393227555504563,0.2981376340869442,0.13104053499808713,-0.4231276958892311,-1.0706252539128884,1.0541867061308852
10.850000000000001,-0.1737675391379841,-1.3873761209236952,0.30008252709435895,0.1326894045121449,-0.4215349919780738,-1.0688713878969853,1.0522741346942917
10.9,-0.17138950342859138,-1.3812446247662309,0.302171473492345,0.13422258964778755,-0.4198334032623349,-1.0671252034116845,1.0501769919985569
10.950000000000001,-0.16885463931027037,-1.3748070758081925,0.3044037902299817,0.13570544781891547,-0.4180248148249183,-1.0653529374614712,1.0479088631339937
11.0,-0.16616250326470228,-1.3680448835365202,0.3067820550976197,0.13715695168246736,-0.41611111668953754,-1.0635415946827176,1.0454723480297663
11.05,-0.16331396662754633,-1.3609475247427023,0.3093079859478048,0.13860792761925353,-0.41409065141068363,-1.0616738464497704,1.0428713143873318
11.100000000000001,-0.1603113356389676,-1.35350388476584,0.3119854654114708,0.14006932787613655,-0.4119653550367991,-1.0597431108003343,1.0401049004401621
11.15,-0.15715114394015467,-1.345706908149952,0.31481725347995554,0.14154560499233199,-0.4097311744759552,-1.057745908758872,1.0371708097233947
11.200000000000001,-0.15383570266738034,-1.337552019141032,0.3178059914939991,0.14304926047750527,-0.40738667719368443,-1.0556741474073685,1.0340678029550678
11.25,-0.15036509558501882,-1.3290316669733944,0.32095543595897236,0.14459221829390678,-0.40493369097213167,-1.0535223973112295,1.0307945388874715
11.3,-0.14673873557759107,-1.3201416853731227,0.32426733982285005,0.14617433736960433,-0.4023646777382949,-1.0512888901697512,1.0273476760372924
11.350000000000001,-0.14295724418022174,-1.310879200806608,0.32774594667498547,0.1477961170863154,-0.3996831929901967,-1.0489717965258465,1.023722871275443
11.4,-0.13902121605318107,-1.3012421073111973,0.3313942721020905,0.14946180490018096,-0.3968857202014004,-1.0465684472618895,1.0199169984560135
11.450000000000001,-0.13493220990251872,-1.2912262688431144,0.33521588370255095,0.15117750167034413,-0.39397225563979177,-1.0440767127492536,1.0159271285143188
11.5,-0.13069404057181241,-1.2808297208683526,0.3392140062847049,0.15296922329223805,-0.39094319645260545,-1.0414799375737909,1.0117541553999148
11.55,-0.12630155874787855,-1.2700489572473423,0.34339338376350836,0.15479152528687384,-0.38779422940454855,-1.038800061077661,1.007385677738792
11.600000000000001,-0.1217622052772337,-1.258887048713855,0.3477567260649517,0.15666935732242881,-0.38452363254233524,-1.0360287620439705,1.0028210934919826
11.65,-0.11707607552883915,-1.2473411180405445,0.3523076270623652,0.1586061997570021,-0.381131246938899,-1.0331618073114248,0.9980572084155188
11.700000000000001,-0.11224598223620108,-1.2354105100874906,0.3570483147949608,0.16061004463773262,-0.37761200838514847,-1.0301935416765318,0.9930913206610874
11.75,-0.10727561791742793,-1.2230945821866945,0.36198403441634924,0.1626700003882499,-0.3739690175509709,-1.0271300747477239,0.9879167794427751
11.8,-0.10216780194883102,-1.2103947393518375,0.36711739851114844,0.1648007721224391,-0.3701967283666849,-1.0239640900176803,0.9825316453874662
11.850000000000001,-0.09692762129907034,-1.1973104858457448,0.3724540645391443,0.1670042927024857,-0.3662996380884665,-1.0206939285458674,0.9769316684389417
11.9,-0.09155483723680606,-1.183843855037255,0.37799773396051567,0.16926667859753225,-0.36227109068047586,-1.017325935355402,0.9711101032653567
11.950000000000001,-0.08605683112903287,-1.1699979839777677,0.3837524127130916,0.17159866162607623,-0.35811024209923964,-1.0138562139707592,0.9650637101543106
12.0,-0.08043902954956408,-1.1557725921887487,0.38972165722361995,0.17400543395434068,-0.35381331639040065,-1.0102845242478613,0.9587890308941921
12.05,-0.07470751908837028,-1.1411697002773216,0.3959101366554649,0.17649957361088625,-0.34938078985195126,-1.006603034304403,0.9522834014931895
12.100000000000001,-0.06886598377103641,-1.1261914128659642,0.4023240574438076,0.17905898667881906,-0.34481209072984315,-1.0028223049572826,0.9455380080386286
12.15,-0.06292456168747804,-1.1108420921556075,0.4089661427560668,0.18172207879601565,-0.34009953777638274,-0.9989287005733483,0.9385548474398022
12.200000000000001,-0.05688574094712185,-1.0951226750039236,0.41584213206082593,0.18445823445089526,-0.33524313554478713,-0.9949319845188385,0.9313239943047543
12.25,-0.0507581862767888,-1.0790406340286227,0.4229572232481495,0.1872668071959829,-0.3302389969828309,-0.990837551161362,0.9238396447993823
12.3,-0.044551696347985566,-1.0626011663104697,0.43031902365024827,0.1901510444806572,-0.3250896433670454,-0.9866443175086435,0.9160964408099009
12.350000000000001,-0.038274773569792,-1.0458089386124123,0.43793320841220856,0.19312465736270673,-0.3197888890027214,-0.9823477390327982,0.9080920142095947
12.4,-0.031934612541791356,-1.0286651774263653,0.4458034638600592,0.1961805854216105,-0.3143266261757965,-0.9779557174931032,0.8998211030996282
12.450000000000001,-0.025543102027318933,-1.0111787107332404,0.45393759753405954,0.19931895959907134,-0.30870627494476705,-0.9734658440716865,0.8912776868659781
12.5,-0.019113508220771985,-0.9933545400975192,0.46234264901386246,0.20254547266478026,-0.3029211806397144,-0.9688802607719842,0.8824571781644945
12.55,-0.012655006512389544,-0.9751979292559141,0.47102560991130205,0.20585393644292668,-0.2969663628853732,-0.964204406944974,0.873353605895208
12.600000000000001,-0.00618418647776102,-0.9567166678572439,0.47999596551741386,0.20923855462633567,-0.29084026993514006,-0.9594447537035038,0.8639600091011943
12.65,0.0002907321748512456,-0.9379204932435119,0.48925867318034943,0.21271717008961016,-0.2845285618091676,-0.9545924199570677,0.8542746361987014
12.700000000000001,0.0067489421965725846,-0.9188127606167872,0.498823698810411,0.21627050238091672,-0.278030761706061,-0.9496609998319709,0.8442884055036188
12.75,0.013177648256815203,-0.8994036797435377,0.5086991194770769,0.21991355849299035,-0.2713367118551244,-0.9446500501854436,0.8339986463767878
12.8,0.019556431691979015,-0.8796983551393138,0.518894528230801,0.2236322661804836,-0.2644385576139607,-0.9395690417830825,0.8233975256115471
12.850000000000001,0.02586605417618992,-0.8597088593162832,0.5294200429572182,0.22742997961670047,-0.25732696237265973,-0.9344183285951848,0.8124793245093462
12.9,0.032084724306927964,-0.8394421101143189,0.5402868661878296,0.2313045273742416,-0.24999270556188083,-0.9292060984978979,0.8012380818576453
12.950000000000001,0.03818815751329336,-0.8189073116922709,0.5515072534855191,0.2352575847867506,-0.24242493612152038,-0.9239366005335821,0.7896681698691949
13.0,0.04415084745117256,-0.7981148513278526,0.5630933581224393,0.23929340146649017,-0.23460857010175254,-0.9186095297498061,0.777764145163694
13.05,0.049945556831724636,-0.7770704465929665,0.5750566376098368,0.24340221233189518,-0.22652551258038636,-0.9132390613891286,0.7655192040671472
13.100000000000001,0.05553940163010318,-0.7557878311135156,0.5874123720561659,0.2475895026369338,-0.21816289380249673,-0.9078248403861618,0.7529270461294321
13.15,0.06089791292976051,-0.7342755431496374,0.6001759401967829,0.2518538250378227,-0.20949995865295482,-0.9023739256433395,0.7399809223632512
13.200000000000001,0.06598529350582384,-0.7125416074198904,0.6133630078583074,0.25618893074220805,-0.2005144515543045,-0.8968977659202094,0.7266737101811035
13.25,0.07075328506204603,-0.6906006383385689,0.6269934187350328,0.26060629202926205,-0.19118214529335079,-0.8913935691570166,0.712998155418343
13.3,0.07515889904863088,-0.6684574767840517,0.6410850593019769,0.26509228142906494,-0.18147174033220545,-0.8858776389658602,0.698945729563583
13.350000000000001,0.07914743375948856,-0.6461261165107588,0.6556599225583704,0.26964725568564935,-0.17135241408314322,-0.8803549551134703,0.6845073129978934
13.4,0.08265766127558545,-0.6236174419621051,0.6707431802249864,0.27426918384594207,-0.160788360580775,-0.8748341665730812,0.669672905195866
13.450000000000001,0.08562270147435547,-0.6009407474281449,0.686360893020879,0.27895850272556894,-0.14973327992341431,-0.869323897897682,0.6544322683133968
13.5,0.08796473210315861,-0.578107637138703,0.7025430993025946,0.2837195626564626,-0.13813657210712849,-0.8638289035806999,0.6387738634703738
13.55,0.0895951624859813,-0.5551265212536982,0.7193229796645887,0.2885494170799219,-0.12593877533494857,-0.8583594343877842,0.6226839430435016
13.600000000000001,0.09041229094822545,-0.5320071702572325,0.7367380980487549,0.2934416158421839,-0.11307146299788491,-0.8529273703058011,0.6061461271373638
13.65,0.09029821124871784,-0.5087611419859047,0.7548319698506892,0.29839451229991587,-0.09945387923155194,-0.8475416460579835,0.5891413609475372
13.700000000000001,0.08911815060112348,-0.48539641752716145,0.7736536593481452,0.30341377006699033,-0.08498789567706193,-0.8422129744901423,0.5716487953156719
13.75,0.0867107004062243,-0.4619206599272343,0.7932597999091596,0.3084935021551304,-0.06955886696325006,-0.8369532651973901,0.5536419064523463
13.8,0.0828895479162454,-0.43834131566164425,0.8137157919417899,0.3136335923186243,-0.05302855417901921,-0.8317751048170248,0.5350894668903718
13.850000000000001,0.0774316039474123,-0.4146636994406868,0.8350979123417116,0.31883414653745484,-0.035228791270097384,-0.826692587789017,0.5159534568403853
13.9,0.07006475944148195,-0.39088970193135947,0.8574973786817834,0.32409411126171495,-0.015955281711871633,-0.8217259889720352,0.49618674390050443
13.950000000000001,0.060462923364882334,-0.36702102091767996,0.881022008370717,0.3294128192553117,0.005046040656588341,-0.8168925892998171,0.47573037263280743
14.0,0.04822566926671776,-0.34305316969087635,0.90580163650905,0.33479006048682836,0.028089850411773875,-0.8122185376850325,0.45451075298067845
14.05,0.03285335657183773,-0.31897567150156886,0.9319948678157516,0.3402273151117108,0.053573762121225894,-0.8077354148491815,0.43243427471726587
14.100000000000001,0.013711636338478609,-0.29476946976645924,0.9597971105723657,0.345732641201234,0.08201614388351784,-0.8034856301308916,0.40938001621475073
14.15,-0.010006503388529885,-0.2704036225030674,0.9894507148571896,0.3512984680598696,0.11407946729655849,-0.7995226293223542,0.3851903044249946
14.200000000000001,-0.03937099326623465,-0.24582893848502047,1.0212661195923842,0.3569277387959418,0.15065621413967767,-0.7959310267842088,0.3596553492402414
14.25,-0.07581494036578973,-0.22096530543407905,1.0556435272725664,0.3626199640711071,0.19296317779908814,-0.7928307348307622,0.3324925749987131
14.3,-0.12133146487387139,-0.1956834112732907,1.0931117808307385,0.3683788966486342,0.2427216098748141,-0.7904042804479505,0.30331062206757886
14.350000000000001,-0.178819625145296,-0.16976634998450804,1.1343942299500271,0.37422309653413205,0.3024741145397771,-0.7889460463536955,0.27154703799060215
14.4,-0.2527123170679151,-0.14282675342406928,1.1805016180433712,0.380167936363782,0.37619050008146576,-0.7889668779636124,0.23636379216084877
14.450000000000001,-0.3503492275053442,-0.11412479511726493,1.2329007527596845,0.3862526959958679,0.4706100118525643,-0.7914091964895925,0.19642332008981708
14.5,-0.4854201530328419,-0.08202024943741493,1.293733008682069,0.3925426864500123,0.5987971150418128,-0.7982805819015133,0.14935872763890615
14.55,-0.6891973791104076,-0.04188441113888314,1.3653844014820198,0.39918375514758325,0.7928949967767971,-0.814892607077479,0.09002698782964261
14.600000000000001,-1.0679696570192911,0.028691358353043483,1.4301334268187995,0.4065891729675213,1.188470514095018,-0.8647944492987371,7.13228034755764e-06
14.65,-0.3277291104256619,0.13751591558306686,0.13134894658424945,0.416312928765322,1.8155804662348225,-0.9831966933653614,-0.07847309777062911
14.700000000000001,-0.37044836585402885,0.132675960541753,0.23165567407839838,0.4727410527849198,1.7702849601484931,-0.9939656062468046,-0.06818002943654944
14.75,-0.33682345445234296,0.13465405187895974,0.14591103120547622,0.4326825144807203,1.7906935455165454,-1.0091710847418756,-0.06463413257820501
14.8,-0.3180463285057967,0.14208096807241175,0.13786503728273758,0.4204766922052663,1.8240002143550116,-1.0206918078319385,-0.07301716088161174
14.850000000000001,-0.29243801881448334,0.1575547118661233,0.09450349073067221,0.4209500857881178,1.8802488066004328,-1.033404830513171,-0.08750381324905887
14.9,-0.25925508701870875,0.17622184248924058,0.03184647991426663,0.4267605727003036,1.9439201488000823,-1.047176368477512,-0.10370126216328018
14.950000000000001,-0.22013343280753606,0.19562285577101035,-0.03758800372246571,0.43431387917384506,2.005329640213222,-1.0611787661951748,-0.11973087520446907
15.0,-0.17710967286855947,0.21498290200161443,-0.10698062818089911,0.44212961905289083,2.0607948883590557,-1.0747526652110986,-0.13522081403660294
15.05,-0.13180856418430242,0.2342481387947671,-0.17300086861577196,0.4497385775180796,2.109433343142146,-1.0875510246839843,-0.1503419666495833
15.100000000000001,-0.08548757748719889,0.2535887250463046,-0.2340207628175986,0.4570427504102559,2.1514076022979847,-1.0994422133496788,-0.1653528253268463
15.15,-0.03916741836808321,0.27319533635231275,-0.28927765608121714,0.46406280803285005,2.1872859841165173,-1.110429912017701,-0.1804507963769135
15.200000000000001,0.006318655602235115,0.2932046017238472,-0.3385263909919901,0.470850435281579,2.2178109047132937,-1.1205999308229597,-0.19574411283528168
15.25,0.05032595586969344,0.3136832717385261,-0.38187668890382753,0.47745397211396434,2.2437942548268954,-1.1300786920812687,-0.2112613512209588
15.3,0.09240319761895813,0.3346350000093761,-0.41968504582227295,0.48391411626606434,2.2660414492407686,-1.1390069731672567,-0.22697548519461788
15.350000000000001,0.13228478882334538,0.35601891541023595,-0.45246074720449964,0.4902620688761897,2.2852938280617594,-1.1475202097731896,-0.24282767337900535
15.4,0.1698629739379673,0.37776810258666094,-0.4807836562820712,0.4965188020756902,2.3021929212072316,-1.1557370040720407,-0.25874615380065275
15.450000000000001,0.20514732478092035,0.3998048453342486,-0.5052407776332695,0.5026998801283816,2.3172684952689595,-1.163756266159106,-0.2746591796235285
15.5,0.2382265544498806,0.42205240374773656,-0.5263829831563209,0.5088085358496837,2.330936440863129,-1.1716549042216113,-0.29050093318514486
15.55,0.26923271043612895,0.4444375220120202,-0.5447052833672963,0.5148547958083272,2.3435209778779713,-1.179491570710088,-0.3062164325553351
15.600000000000001,0.29832081556536155,0.46689291668123817,-0.5606414835225896,0.5208428084042086,2.3552701166320484,-1.1872990868948967,-0.3217604021430035
15.65,0.32565525958954955,0.4893604193896951,-0.5745580906192271,0.5267792367402816,2.366363309743184,-1.195116196545523,-0.33709802128359645
15.700000000000001,0.3513853152245736,0.5117947459591695,-0.5867647709101538,0.5326585427835216,2.3769380516849545,-1.2029633155850492,-0.35219879385042663
15.75,0.37565435311758066,0.5341519041554957,-0.5975217028469455,0.5384788893149101,2.387094183458126,-1.2108477043506987,-0.3670395032559742
15.8,0.3985939334276765,0.5563964624071527,-0.6070456206741468,0.5442367692700977,2.3969019685866417,-1.2187727461178794,-0.3816019721159884
15.850000000000001,0.42032355828687606,0.5784963958228154,-0.6155177038549233,0.5499341694475808,2.4064143567965055,-1.226740373058332,-0.3958729478047035
15.9,0.4409464704820562,0.6004262540509473,-0.6230896838349486,0.5555655188439448,2.415671456623538,-1.2347495088152762,-0.4098409380741915
15.950000000000001,0.46055611206869734,0.6221608788659759,-0.6298875315297174,0.5611369764990897,2.424696254852692,-1.2427966425951562,-0.4234998156782952
16.0,0.4792360506276757,0.6436804464423116,-0.6360189218269746,0.5666391822227173,2.433513398497984,-1.250873297042296,-0.43684249622275123
16.05,0.49705800445590814,0.6649664988576662,-0.6415731333809824,0.5720739730024736,2.442132663677645,-1.258973199660053,-0.44986545541763606
16.1,0.5140865210015554,0.686002560556201,-0.646626530173384,0.5774387527320393,2.4505663416511156,-1.2670898700359507,-0.4625657593351438
16.150000000000002,0.5303791102164386,0.7067747158398,-0.6512440442098849,0.5827337736269672,2.4588199828848087,-1.2752123808132607,-0.4749418556126075
16.2,0.5459860509326093,0.7272679733247855,-0.6554808150125286,0.5879577623512524,2.466898324616603,-1.283332732788437,-0.48699355682063716
16.25,0.5609517786150953,0.747470855074347,-0.65938388645735,0.593106292662408,2.474803985577055,-1.2914395457636474,-0.49872079595136515
16.3,0.5753169375827333,0.7673727035340321,-0.6629937345768794,0.5981789678962852,2.4825388397476393,-1.299524448258984,-0.5101242514697116
16.35,0.5891147489632259,0.786963031931752,-0.6663443175416166,0.6031718616600683,2.49010245510501,-1.3075774107035252,-0.5212054604169596
16.400000000000002,0.6023776397289607,0.8062321721181575,-0.6694656068151369,0.6080857585361247,2.4974965174006862,-1.315589937481088,-0.5319664902908536
16.45,0.6151327045135946,0.8251713302742486,-0.6723828241697897,0.6129196313389785,2.504719466912547,-1.3235522400399884,-0.5424101870397988
16.5,0.6274074198353382,0.843772180677393,-0.6751183311321047,0.6176727548540241,2.5117719215679286,-1.3314554441632105,-0.5525394299756605
16.55,0.6392227775811307,0.8620280041028893,-0.6776915888258391,0.6223422999846534,2.5186546118875897,-1.3392906019210693,-0.5623569858359815
16.6,0.6506016152539182,0.8799309877131717,-0.6801195288244973,0.6269274225969161,2.5253668844208916,-1.3470474055456558,-0.5718662185731122
16.650000000000002,0.6615637623595942,0.8974745415408556,-0.6824167894215777,0.6314282093790763,2.5319082042744756,-1.3547188513949409,-0.5810708509249244
16.7,0.6721202218042118,0.9146537142943364,-0.6845949449299354,0.6358362978311504,2.5382774114855096,-1.3622944094434999,-0.5899744860932786
16.75,0.682289811695488,0.9314626444158653,-0.6866655404271,0.6401560236913099,2.5444768276632717,-1.3697700555552155,-0.5985810317687409
16.8,0.6920850172896583,0.9478964136782255,-0.6886376557422582,0.6443860422100534,2.550504411181743,-1.3771376839132707,-0.6068950023558991
16.85,0.7015193708316573,0.963949684605802,-0.6905189741227885,0.6485255652796957,2.5563592078909823,-1.3843879709207143,-0.6149212198975108
16.900000000000002,0.7106041499469561,0.9796192491152556,-0.6923164286762528,0.652570787649228,2.562042332341489,-1.3915132372179322,-0.6226638864853042
16.95,0.7193512379282726,0.994900688179227,-0.6940366382794787,0.656524133054373,2.5675553460993417,-1.3985110016776678,-0.6301275929827787
17.0,0.727771215227958,1.0097903715825547,-0.6956845456692043,0.6603846523575436,2.57289651102514,-1.405373891696124,-0.6373173627241856
17.05,0.7358708997355471,1.0242863626870853,-0.6972651588204509,0.6641473018843861,2.578069345140962,-1.4120935406222475,-0.6442372931198688
17.1,0.7436610297707762,1.0383851994413025,-0.6987821186709741,0.6678143876948114,2.583071963226001,-1.418666569957128,-0.650892555457225
17.150000000000002,0.7511514201628641,1.052084999212383,-0.700239111673043,0.671386382143477,2.5879061334359923,-1.4250892978434933,-0.6572879511689667
17.2,0.7583483569159524,1.0653839675369658,-0.7016391686184879,0.6748593013898393,2.59257319541807,-1.4313539076827984,-0.6634281127157726
17.25,0.7652573949173392,1.0782798741173232,-0.7029847016863066,0.67823480823359,2.597073788631357,-1.4374582490832013,-0.6693183451905161
17.3,0.7718888871531576,1.0907712638543812,-0.7042778067467214,0.6815129288310786,2.6014083113406037,-1.4433984831192157,-0.6749637668600421
17.35,0.7782451964943967,1.102859671337337,-0.7055201341829341,0.684689709905572,2.6055786882838397,-1.4491697803804962,-0.6803690212115722
17.400000000000002,0.7843376985666257,1.1145423499519767,-0.7067143605751578,0.6877699994472556,2.6095884339381588,-1.4547705577903856,-0.6855389251484937
17.45,0.7901681378134944,1.125821150141092,-0.7078607616809931,0.6907485355911124,2.613434866949525,-1.4601963332930818,-0.6904787543578459
17.5,0.7957475720645767,1.1366948897618572,-0.7089616921137636,0.6936287982487935,2.617123929202337,-1.4654470966210493,-0.6951930578395572
17.55,0.8010775031662233,1.147166354033202,-0.7100181500330486,0.6964080497525942,2.620655954141862,-1.4705176728401814,-0.6996865604231753
17.6,0.8061641027450226,1.1572350031488094,-0.7110307514899656,0.6990870223799486,2.6240317231640042,-1.4754069358198474,-0.7039645753080526
17.650000000000002,0.8110135221665746,1.1669029252361864,-0.7119998709843177,0.7016674708126047,2.6272520535941175,-1.4801159637222219,-0.7080324264583184
17.7,0.8156334095861365,1.1761716080869646,-0.71292668180401,0.7041488027069981,2.630321007005436,-1.4846412178061592,-0.71189471929396
17.75,0.8200241357644167,1.1850457256857543,-0.7138116421716008,0.7065283223282737,2.6332401964442513,-1.4889824473095619,-0.7155561555688409
17.8,0.8241951282871036,1.1935260261419938,-0.7146557573539933,0.7088096304197679,2.636012453933431,-1.49313918135017,-0.7190215782379452
17.85,0.828150684439571,1.2016146956124498,-0.7154592912375283,0.710994279631728,2.638638351199748,-1.4971128083517162,-0.7222964270326749
17.900000000000002,0.831892104378826,1.2093201239417517,-0.7162225162984913,0.7130762481159261,2.6411214184824816,-1.5009000876645477,-0.7253848952936304
17.95,0.8354338581476047,1.2166409181304014,-0.7169473943477077,0.7150663763897588,2.643466459876539,-1.5045075084196946,-0.7282917701697752
18.0,0.838772420107372,1.2235840492959453,-0.7176335042008083,0.7169566156357977,2.6456725850858533,-1.5079312691338518,-0.7310222342052998
18.05,0.841913468456407,1.2301540632108632,-0.7182810752331082,0.718749683358261,2.647743252206326,-1.5111728563881988,-0.7335813497078659
18.1,0.8448674941483988,1.2363546796896687,-0.7188908547031043,0.72045125132472,2.6496812144293007,-1.514236730531571,-0.7359741839150359
18.150000000000002,0.8476328125909158,1.2421950013357779,-0.7194631849632692,0.7220574752764858,2.6514898435176177,-1.5171227958926252,-0.7382054612956499
18.2,0.8502177816074714,1.247679568763534,-0.7199982168066678,0.7235708279402292,2.653170679275354,-1.5198329956733558,-0.7402803240118498
18.25,0.8526273333451493,1.2528154221713992,-0.7204969143907409,0.724992870966841,2.6547288814040977,-1.5223700041098986,-0.7422034960607681
18.3,0.8548654298690933,1.2576100951664784,-0.7209601484378916,0.7263252821150009,2.6561676642164582,-1.5247392592851545,-0.7439799611750325
18.35,0.8569421013545229,1.2620701168578758,-0.7213898284448003,0.7275718529613099,2.6574930685395453,-1.526942476982453,-0.74561408419769
18.400000000000002,0.8588573811165252,1.266203782687506,-0.7217864354428687,0.7287312819940233,2.6587063216173203,-1.5289818194513263,-0.7471111925790158
18.45,0.8606189657913746,1.270019311004627,-0.7221488516961158,0.7298071889317412,2.6598050269104165,-1.5308644809949263,-0.7484776534317833
18.5,0.8622297352531896,1.2735279361835385,-0.7224785493213141,0.7307993103186091,2.660799790455147,-1.5325908110880886,-0.7497179858321671
18.55,0.86369782167018,1.2767378987019706,-0.7227764203950444,0.7317115314962289,2.6616925874108897,-1.5341669536825033,-0.7508375158395112
18.6,0.8650291332027682,1.2796593920247121,-0.7230438626372125,0.7325454009202461,2.6624889979250392,-1.5355970062622242,-0.7518413108294004
18.650000000000002,0.8662306908590399,1.2823016936527376,-0.7232813787099356,0.7333054075255401,2.663190409944756,-1.536886665332283,-0.7527353330885637
18.7,0.8673078296804027,1.2846767323034,-0.7234899694000038,0.7339921675180293,2.6638022977007667,-1.538041753388321,-0.7535251589605635
