SilviaXuva/Vision-guided-robot-manipulator/Helpers/Outputs copy/2023-12-09_21h08m34s/red9/Place/Joint Comparison/q_Ref.csv
,q0,q1,q2,q3,q4,q5,q6
0.0,0.04959988664904058,-0.8688615165041327,-0.41755533891544383,1.2603135513770791,-0.049334173170626716,-1.0327970878327353,1.9038236132490542
0.05,0.04960131308408199,-0.8688595971305635,-0.4175549771677474,1.2603110722516266,-0.049331968186629764,-1.0327971957389903,1.9038210332366512
0.1,0.04961121241521553,-0.868846276850299,-0.41755246667120904,1.2602938673435427,-0.04931666579563659,-1.0327979445987128,1.9038031281821868
0.15000000000000002,0.0496378229887293,-0.868810470360707,-0.417545718159437,1.2602476185146883,-0.04927553115785481,-1.0327999576222624,1.9037549972770107
0.2,0.0496891296301673,-0.8687414334900172,-0.4175327066595702,1.2601584482426633,-0.0491962213259844,-1.0328038388417866,1.9036621982588808
0.25,0.04977286623127585,-0.8686287597163944,-0.417511470836222,1.2600129151247272,-0.049066781246314715,-1.0328101733069162,1.9035107427329172
0.30000000000000004,0.04989651833694993,-0.868462376687011,-0.4174801123354234,1.2597980093817207,-0.04887563975982153,-1.032819527280462,1.9032870914925584
0.35000000000000003,0.05006732573217953,-0.8682325427371202,-0.4174367951285671,1.2595011483619851,-0.04861160560326401,-1.0328324484341107,1.9029781498405152
0.4,0.05029228502899605,-0.8679298434091287,-0.4173797448563505,1.2591101720452853,-0.048263863410281785,-1.0328494660441212,1.9025712629097264
0.45,0.05057815225341866,-0.8675451879716692,-0.4173072481727197,1.2586133385467297,-0.047821969712491905,-1.0328710911870194,1.9020542109843142
0.5,0.05093144543240068,-0.8670698059386738,-0.4172176520888129,1.2579993196206918,-0.047275848940585924,-1.0328978169352963,1.9014152048205377
0.55,0.05135844718077588,-0.8664952435884464,-0.4171093633169039,1.2572571961647305,-0.04661578942542685,-1.0329301185531017,1.90064288096775
0.6000000000000001,0.051865207288204956,-0.8658133604827359,-0.4169808476143458,1.256376453723512,-0.04583243939914621,-1.0329684536919428,1.8997262970893511
0.65,0.052457545306121824,-0.8650163259858086,-0.41683062912751456,1.25534697799273,-0.04491680299624105,-1.0330132625863777,1.898654927283745
0.7000000000000001,0.05314105313467999,-0.8640966157835213,-0.4166572897357524,1.2541590503230275,-0.04386023625467092,-1.0330649682497133,1.897418657405293
0.75,0.05392109760969896,-0.8630470084023942,-0.41645946839531145,1.2528033432239178,-0.04265444311695498,-1.0331239766697007,1.8960077803852693
0.8,0.054802823089610576,-0.8618605817286837,-0.41623586048329747,1.2512709158677042,-0.04129147143126889,-1.0331906770042307,1.8944129915528167
0.8500000000000001,0.05579115404240537,-0.860530709527455,-0.4159852171416132,1.2495532095934032,-0.03976370895254196,-1.033265441777031,1.8926253839559006
0.9,0.05689079763257899,-0.8590510579616553,-0.415706344620902,1.2476420434106639,-0.03806387934355405,-1.0333486270733614,1.890636443682265
0.9500000000000001,0.05810624630807851,-0.8574155821111862,-0.41539810362449137,1.2455296095036892,-0.03618503817603266,-1.0334405727357099,1.8884380451803864
1.0,0.0594417803872488,-0.8556185224919769,-0.41505940865233665,1.2432084687351574,-0.03412056893174993,-1.0335416025594888,1.8860224465804296
1.05,0.060901470645778964,-0.8536544015750571,-0.41468922734496444,1.2406715461501436,-0.03186417900361964,-1.0336520244887315,1.8833822850152029
1.1,0.06248918090364862,-0.8515180203056294,-0.41428657982741623,1.2379121264800395,-0.02940989569679424,-1.0337721308117873,1.8805105719411124
1.1500000000000001,0.0642085706120743,-0.8492044546221424,-0.413850538053192,1.2349238496464752,-0.02675206222976187,-1.0339021983570182,1.8774006884591175
1.2000000000000002,0.06606309744045585,-0.8467090519753638,-0.41338022514819367,1.2317007062652396,-0.02388533373544336,-1.0340424886884947,1.8740463806356855
1.25,0.06805601986332277,-0.8440274278474525,-0.4128748147546687,1.2282370331502033,-0.020804673262289297,-1.034193248301692,1.870441754823748
1.3,0.07019039974728056,-0.8411554622710324,-0.41233353037515386,1.224527508817237,-0.017505347775376934,-1.034354708819186,1.8665812729836535
1.35,0.07246910493795714,-0.8380892963482645,-0.41175564471641835,1.220567148988134,-0.01398292415750732,-1.0345270871863497,1.8624597480041245
1.4000000000000001,0.07489481184694916,-0.8348253287699197,-0.4111404790334079,1.2163513020945318,-0.010233265210302274,-1.0347105858670478,1.8580723390232121
1.4500000000000002,0.07747000803876844,-0.8313602123344522,-0.4104874024731878,1.2118756447818315,-0.006252525655301384,-1.0349053930393346,1.85341454674925
1.5,0.08019699481778823,-0.8276908504670722,-0.4097958314188871,1.2071361774131204,-0.0020371481350590706,-1.0351116827911495,1.8484822087818107
1.55,0.08307788981518974,-0.8238143937388184,-0.4090652288336413,1.2021292195730917,0.002416140785758497,-1.035329615316012,1.84327149493266
1.6,0.08611462957590835,-0.8197282363856306,-0.40829510360453697,1.1968514055719666,0.007110334619276258,-1.035559337108719,1.8377789025467122
1.6500000000000001,0.08930897214558,-0.8154300128274237,-0.40748500988655434,1.1912996799494149,0.012048150953313297,-1.0358009811610402,1.8320012518229847
1.7000000000000002,0.0926624996574877,-0.8109175941871591,-0.4066345464465115,1.1854712929784759,0.017232035450285843,-1.0360546671574147,1.8259356811355536
1.75,0.09617662091950771,-0.8061890848099189,-0.4057433560070076,1.1793637961694796,0.02266416584611025,-1.036320501670646,1.8195796423545085
1.8,0.09985257400105609,-0.8012428187819772,-0.4048111245903667,1.172975037773968,0.02834645594910601,-1.0365985783575995,1.8129308961669075
1.85,0.10369142882003486,-0.7960773564498747,-0.4038375808625812,1.1663031582886154,0.0342805596388986,-1.036888978154897,1.8059875073977318
1.9000000000000001,0.10769408972977856,-0.7906914809394898,-0.40282249547725535,1.1593465859591503,0.04046787486532266,-1.0371917694746138,1.798747840330842
1.9500000000000002,0.11186129810600051,-0.7850841946751128,-0.4017656804195488,1.152104032284276,0.04690954764732477,-1.0375070083999747,1.7912105540299312
2.0,0.11619363493373923,-0.7792547158985181,-0.4006669883501203,1.144574487519591,0.05360647607186668,-1.0378347388810492,1.7833745976594821
2.0500000000000003,0.12069152339430471,-0.773202475188037,-0.39952631194907134,1.1367572161815116,0.060559314292828015,-1.038174992930449,1.77523920580572
2.1,0.125355231452225,-0.7669271119776306,-0.3983435832598893,1.1286517525511914,0.06776847652990953,-1.038527790819022,1.7668038937975699
2.15,0.13018487444219223,-0.760428471075963,-0.3971187730333914,1.1202578961784435,0.07523414106753583,-1.0388931412715505,1.7580684530276096
2.2,0.13518041765600947,-0.7537065991854734,-0.3958518900716682,1.1115757073856605,0.08295625425375869,-1.0392710416624462,1.7490329462730256
2.25,0.14034167892953645,-0.74676174142145,-0.3945429805720271,1.102605502771736,0.0909345344991595,-1.0396614782114455,1.739697703016569
2.3000000000000003,0.14566833122963657,-0.7395943378311015,-0.3931921274709358,1.0933478507159862,0.09916847627575295,-1.040064426179307,1.7300633147675084
2.35,0.15115990524112283,-0.7322050199126313,-0.3917994497879661,1.08380356688207,0.10765735411588936,-1.0404798500635069,1.7201306303825874
2.4000000000000004,0.15681579195370454,-0.7245946071343089,-0.39036510196973734,1.0739737097219104,0.1164002266111582,-1.0409077037939347,1.7099007513869768
2.45,0.16263524524893314,-0.7167641034535444,-0.3888892732338599,1.0638595759796161,0.1253959404112905,-1.0413479309285898,1.699375027295233
2.5,0.1686173844871493,-0.7087146938359599,-0.38737218691287884,1.053462696195401,0.13464313422306248,-1.0418004648492776,1.68855505093225
2.5500000000000003,0.17476119709442878,-0.7004477407744628,-0.3858140997982175,1.042784830209507,0.14414024280919813,-1.0422652289573044,1.6774426537542155
2.6,0.18106554114952883,-0.6919647808083191,-0.384215301484121,1.0318279626661246,0.15388550098727202,-1.0427421368691752,1.666039901169567
2.6500000000000004,0.18752914797083486,-0.6832675210422259,-0.3825761137115998,1.0205942985173126,0.1638769476286129,-1.0432310926122885,1.6543490878599454
2.7,0.19415062470330652,-0.6743578356653834,-0.3808968897123733,1.0090862585269207,0.1741124296572061,-1.0437319908206326,1.6423727331011502
2.75,0.2009284569054241,-0.6652377624705695,-0.37917801355281344,0.9973064747745097,0.18458960604859687,-1.0442447169304818,1.630113576084095
2.8000000000000003,0.20786101113613495,-0.6559094993732113,-0.3774198994778881,0.9852577861592737,0.19530595182879293,-1.0447691473760925,1.617574571235763
2.85,0.2149465375418,-0.6463754009304581,-0.37562299125510495,0.9729432339039592,0.20625876207316812,-1.0453051497853991,1.6047588835401603
2.9000000000000004,0.22218317244313987,-0.6366379748602546,-0.37378776151845466,0.9603660570587875,0.21744515590536484,-1.04585258317571,1.5916698838592727
2.95,0.22956894092218136,-0.6266998785604136,-0.37191471111235475,0.9475296880053756,0.22886208049619716,-1.0464112981494036,1.5783111442540199
3.0,0.23710175940920372,-0.616563915627689,-0.3700043684355931,0.9344377479606572,0.24050631506255382,-1.046981137089625,1.5646864333052106
3.0500000000000003,0.24477943826968557,-0.6062330323768477,-0.3680572887852713,0.9210940424808025,0.2523744748663017,-1.0475619343559803,1.5507997114344974
3.1,0.25259968439125,-0.5957103143597442,-0.3660740537007485,0.907502556965142,0.2644630152131875,-1.0481535164802356,1.5366551262253323
3.1500000000000004,0.26056010377061256,-0.5849989828843913,-0.3640552703075849,0.8936674521600845,0.27676823545174245,-1.0487557023620098,1.5222570077439208
3.2,0.2686582041005262,-0.5741023915340353,-0.3620015706614851,0.8795930596630401,0.28928628297218373,-1.0493683034644725,1.5076098638601787
3.25,0.2768913973567286,-0.5630240226862266,-0.359913611092242,0.8652838774263407,0.3020131572053184,-1.0499911240100404,1.492718375568685
3.3000000000000003,0.2852570023848881,-0.5517674840318939,-0.35779207154768006,0.8507445652611603,0.31494471362144644,-1.0506239611760715,1.4775873923096374
3.35,0.29375224748755013,-0.5403365050944166,-0.35563765493759913,0.8359799403414374,0.3280766677292628,-1.0512666052905635,1.4622219272898094
3.4000000000000004,0.3023742730110835,-0.5287349337486976,-0.35345108647771784,0.8209949727077952,0.3414045990747614,-1.0519188400278472,1.4466271528035026
3.45,0.3111201339326273,-0.5169667327402363,-0.35123311303361704,0.8057947807714623,0.3549239552401378,-1.0525804426042853,1.4308083955535025
3.5,0.319986802447036,-0.5050359762042019,-0.3489845024646838,0.7903846268181951,0.3686300558426914,-1.0532511839739662,1.4147711319720355
3.5500000000000003,0.3289711705538278,-0.49294684618450435,-0.3467060429680545,0.7747699125121964,0.3825180965337303,-1.0539308290244014,1.39852098354172
3.6,0.33807005264412876,-0.48070362915286996,-0.34439854242255885,0.7589561744000399,0.3965831529974718,-1.0546191367722206,1.3820637121165258
3.6500000000000004,0.3472801880876212,-0.46831071252791173,-0.3420628277326628,0.7429490794145874,0.41082018494994793,-1.055315860558869,1.3654052152427258
3.7,0.356598243819488,-0.45577258119420444,-0.3396997441724129,0.7267544203789138,0.4252240401379057,-1.056020748246302,1.3485515214798531
3.75,0.36602081692736144,-0.44309381402135484,-0.33731015472937925,0.7103781115102239,0.4397894583377132,-1.0567335424126816,1.3315087857216543
3.8000000000000003,0.37554443723826736,-0.4302790803830771,-0.3348949394485994,0.6938261839237768,0.45451107535426005,-1.0574539805480734,1.3142832845170456
3.85,0.3851655699055725,-0.41733313667626426,-0.33245499477652163,0.6771047811368059,0.469383427019861,-1.0581817952501413,1.2968814113910687
3.9000000000000004,0.394880617995931,-0.40426082284006093,-0.3299912329049489,0.6602201545724394,0.48440095319316,-1.0589167144198446,1.279309672165843
3.95,0.40468592507623036,-0.3910670588749367,-0.32750458111498215,0.6431786590636214,0.499558001758032,-1.0596584614571332,1.261574680281524
4.0,0.4145777778005381,-0.37775684136175885,-0.3249959811209637,0.6259867483570335,0.5148488326224863,-1.0604067554566439,1.243683152117255
4.05,0.4245524084970478,-0.3643352399808655,-0.3224663884144213,0.6086509706170162,0.5302676217175691,-1.0611613114033973,1.2256419023121266
4.1000000000000005,0.4346059977550259,-0.35080739403113703,-0.31991677160801135,0.5911779639294884,0.545808464996268,-1.0619218403684925,1.2074578390861255
4.15,0.4447346770117579,-0.33717850894907064,-0.3173481117794623,0.5735744518058695,0.5614653824324133,-1.062688049704804,1.189137959561095
4.2,0.45493453113949417,-0.323453852827853,-0.31476140181551887,0.555847238687001,0.5772323220195811,-1.0634596432426773,1.170689345081688
4.25,0.46520160103239755,-0.3096387529364314,-0.3121576457558848,0.5380032054470659,0.5931031637699977,-1.0642363214856256,1.1521191565363211
4.3,0.47553188619348846,-0.29573859223858845,-0.309537858137167,0.520049304897511,0.6090717237134411,-1.065017781806025,1.1334346296781317
4.3500000000000005,0.48592134732159237,-0.28175880591201374,-0.3069030633368188,0.5019925572909675,0.6251317578961453,-1.065803718640811,1.1146430704459303
4.4,0.49636590889828447,-0.2677048778673784,-0.30425429491708395,0.4838400458251727,0.641276966379701,-1.0665938236871744,1.0957518502851586
4.45,0.5068614617748384,-0.2535823372674053,-0.3015925949689394,0.46559891214688987,0.6575009972399615,-1.067387786098258,1.0767684014688428
4.5,0.5174038657591706,-0.23939675504594393,-0.2989190134560398,0.4472763518558298,0.673797450565944,-1.0681852926788513,1.0577002124185475
4.55,0.5279889522027876,-0.22515374042704273,-0.29623460755866016,0.42887961000857266,0.690159882458732,-1.0689860280810877,1.0385548230253339
4.6000000000000005,0.5386125265877333,-0.2108589374440205,-0.29354044101764,0.4104159766224862,0.7065818090303815,-1.0697896750001403,1.0193398199707109
4.65,0.5492703711135323,-0.1965180214585429,-0.290837583478327,0.39189278217965196,0.7230567104028184,-1.0705959143699175,1.0000628320475942
4.7,0.5599582472841399,-0.18213669567969049,-0.28812710983452006,0.3733173931307806,0.7395780347067473,-1.0714044255587596,0.9807315254812579
4.75,0.570671898494886,-0.16772068768303583,-0.28541009957241326,0.35469720739913724,0.7561392020805509,-1.0722148865651344,0.9613535992502921
4.800000000000001,0.581407052619423,-0.15327574592971283,-0.2826876361145392,0.336039649884459,0.7727336086691944,-1.0730269742133336,0.9419367804075552
4.8500000000000005,0.5921594245966704,-0.13880763628549286,-0.2799608061637127,0.31735216796688026,0.7893546306231268,-1.0738403643491683,0.9224888194011324
4.9,0.6029247190177629,-0.12432213853985508,-0.2772306990469745,0.2986422270108494,0.805995628097187,-1.074654732035666,0.9030174853952879
4.95,0.6136986327129963,-0.1098250429250599,-0.27449840605953424,0.27991730586905217,0.8226499492495037,-1.075469751748766,0.8835305615914202
5.0,0.6244768573387732,-0.09532214663522254,-0.2717650198087148,0.261184892386332,0.8393109342404004,-1.076285097573015,0.8640358405490183
5.050000000000001,0.6352550819645507,-0.08081925034538451,-0.2690316335578953,0.2424524789036111,0.8559719192312976,-1.0771004433972637,0.8445411195066157
5.1000000000000005,0.646028995659784,-0.06632215473058967,-0.2662993405704551,0.22372755776181408,0.8726262403836141,-1.0779154631103636,0.8250541957027482
5.15,0.6567942900808762,-0.05183665698495199,-0.26356923345371697,0.2050176168057838,0.8892672378576738,-1.0787298307968614,0.8055828616969041
5.2,0.6675466620581236,-0.03736854734073203,-0.26084240350289045,0.18633013488820516,0.9058882598116065,-1.079543220932696,0.7861349006904814
5.25,0.6782818161826605,-0.022923605587409246,-0.25811994004501637,0.16767257737352703,0.9224826664002496,-1.0803553085808952,0.7667180818477448
5.300000000000001,0.6889954673934064,-0.0085075975907547,-0.2554029297829097,0.149052391641884,0.9390438337740528,-1.08116576958727,0.7473401556167791
5.3500000000000005,0.6996833435640142,0.0058737281880976155,-0.25269245613910263,0.13047700259301243,0.955565158077982,-1.0819742807761121,0.7280088490504428
5.4,0.7103411880898135,0.020214644173575658,-0.24998959859978967,0.11195380815017808,0.9720400594504193,-1.0827805201458893,0.7087318611273261
5.45,0.7209647624747586,0.034509447156597206,-0.24729543205876964,0.09349017476409238,0.988461986022068,-1.083584167064942,0.6895168580727034
5.5,0.7315498489183764,0.0487524617754993,-0.24461102616138986,0.07509343291683379,1.0048244179148573,-1.0843849024671783,0.6703714686794884
5.550000000000001,0.7420922529027085,0.06293804399696068,-0.24193744464849018,0.05677087262577385,1.0211208712408393,-1.0851824090477717,0.6513032796291935
5.6000000000000005,0.7525878057792623,0.07706058459693366,-0.23927574470034566,0.03852973894749101,1.0373449021010999,-1.0859763714588553,0.6323198308128775
5.65,0.7630323673559547,0.09111451264156945,-0.23662697628061072,0.020377227481695792,1.0534901105846561,-1.0867664765052187,0.6134286106521056
5.7,0.7734218284840579,0.10509429896814326,-0.2339921814802627,0.0023204798751534916,1.0695501447673592,-1.0875524133400047,0.5946370514199053
5.75,0.7837521136451491,0.11899445966598654,-0.23137239386154487,-0.015633420674401988,1.085518704710803,-1.088333873660404,0.5759525245617152
5.800000000000001,0.7940191835380526,0.13280955955740814,-0.22876863780191076,-0.033477453914336985,1.1013895464612196,-1.0891105519033524,0.5573823360163486
5.8500000000000005,0.8042190376657888,0.1465342156786258,-0.22618192783796734,-0.051204667033205364,1.1171564860483874,-1.0898821454412257,0.5389337215369414
5.9,0.8143477169225206,0.1601631007606923,-0.22361326800941833,-0.06880817915682425,1.1328134034845325,-1.0906483547775372,0.5206138420119111
5.95,0.8244013061804984,0.17369094671042018,-0.2210636512030084,-0.08628118584435174,1.1483542467632308,-1.0914088837426323,0.5024297787859104
6.0,0.8343759368770081,0.1871125480913136,-0.21853405849646604,-0.10361696358436889,1.1637730358583138,-1.0921634396893858,0.4843885289807821
6.050000000000001,0.8442677896013165,0.20042276560449235,-0.21602545850244742,-0.12080887429095766,1.1790638667227693,-1.0929117336888965,0.4664970008165119
6.1000000000000005,0.8540730966816156,0.21361652956961596,-0.2135388067124807,-0.1378503697997755,1.1942209152876404,-1.093653480726185,0.44876200893219353
6.15,0.863788144771974,0.22668884340581896,-0.21107504484090805,-0.15473499636414179,1.2092384414609392,-1.0943883998958883,0.4311902697069683
6.2,0.8734092774392794,0.23963478711263209,-0.20863510016883033,-0.17145639915111266,1.2241107931265407,-1.0951162145979563,0.413788396580991
6.25,0.8829328977501851,0.2524495207509099,-0.20621988488805046,-0.18800832673755985,1.2388324101430872,-1.095836652733348,0.39656289537638245
6.300000000000001,0.8923554708580586,0.2651282879237591,-0.2038302954450168,-0.20438463560624953,1.2533978283428946,-1.0965494468997279,0.37952015961818386
6.3500000000000005,0.9016735265899257,0.27766641925746693,-0.2014672118847668,-0.22057929464192383,1.2678016835308525,-1.0972543345871606,0.3626664658553107
6.4,0.9108836620334182,0.2900593358824255,-0.19913149719487072,-0.23658638962737677,1.2820387154833295,-1.097951058373809,0.34600796898150965
6.45,0.9199825441237188,0.3023025529140595,-0.19682399664937508,-0.252400127739532,1.29610377194707,-1.0986393661216283,0.3295506975563167
6.5,0.9289669122305102,0.3143916829337561,-0.194545537152746,-0.26801484204553017,1.3099918126381085,-1.0993190111720634,0.31330054912600236
6.550000000000001,0.9378335807449191,0.326322439469791,-0.19229692658381284,-0.28342499599879734,1.3236979132406619,-1.0999897525417444,0.29726328554453496
6.6000000000000005,0.9465794416664634,0.3380906404782529,-0.19007895313971193,-0.2986251879351314,1.337217269406039,-1.1006513551181825,0.28144452829453437
6.65,0.9552014671899968,0.34969221182397203,-0.18789238467983047,-0.31361015556877425,1.3505452007515382,-1.1013035898554664,0.2658497538082265
6.7,0.9636967122926583,0.36112319076144894,-0.18573796806974965,-0.32837478048849666,1.363677154859354,-1.1019462339699582,0.25048428878839935
6.75,0.9720623173208177,0.37237972941578157,-0.18361642852518772,-0.34291409265367623,1.3766087112754821,-1.1025790711359893,0.23535330552935152
6.800000000000001,0.9802955105770201,0.38345809826358956,-0.1815284689559447,-0.3572232748903752,1.3893355855086162,-1.1032018916815571,0.22046181723785874
6.8500000000000005,0.9883936109069343,0.39435468961394693,-0.17947476930984474,-0.3712976673874213,1.401853633029059,-1.10381449278402,0.20581467335411485
6.9,0.9963540302862972,0.40506602108929957,-0.17745598591668102,-0.38513277219247866,1.4141588532676137,-1.104416678665794,0.19141655487270315
6.95,1.0041742764078614,0.4155887391064035,-0.17547275083215821,-0.39872425770813913,1.4262473936144997,-1.1050082607900493,0.17727196966353898
7.0,1.0118519552683423,0.425919622357243,-0.17352567118183682,-0.41206796318799177,1.438115553418246,-1.1055890580564047,0.16338524779282726
7.050000000000001,1.0193847737553652,0.43605558528996835,-0.17161532850507502,-0.42515990323271113,1.4497597879846027,-1.1061588969966258,0.1497605368440169
7.1000000000000005,1.0267705422344071,0.44599368158981023,-0.16974227809897488,-0.43799627228612437,1.4611767125754356,-1.1067176119703197,0.13640179723876322
7.15,1.034007177135747,0.45573110766001346,-0.16790704836232473,-0.4505734491312956,1.4723631064076323,-1.1072650453606305,0.12331279755787627
7.2,1.0410927035414121,0.4652652061027662,-0.16611014013954156,-0.4628880013866101,1.483315916652008,-1.1078010477699372,0.11049710986227312
7.25,1.0480252577721223,0.4745934692001248,-0.16435202606461635,-0.47493669000184546,1.4940322624322036,-1.1083254782155478,0.0979581050139422
7.300000000000001,1.0548030899742409,0.483713542394939,-0.16263314990505623,-0.4867164737542573,1.5045094388235953,-1.108838204325397,0.08569894799688571
7.3500000000000005,1.061424566706712,0.4926232277717808,-0.16095392590582985,-0.49822451374464904,1.5147449208521875,-1.1093391025337411,0.07372259323809072
7.4,1.0678881735280177,0.5013204875378741,-0.1593147381333087,-0.5094581778934599,1.524736367493528,-1.1098280582768543,0.0620317799284702
7.45,1.074192517583118,0.5098034475040178,-0.15771593981921223,-0.520415045436843,1.5344816256716016,-1.1103049661887252,0.05062902734382102
7.5,1.0803363301903977,0.518070400565515,-0.1561578527045509,-0.5310929114227374,1.543978734257738,-1.110769730296752,0.03951663016578655
7.550000000000001,1.0863184694286148,0.5261198101831006,-0.1546407663835696,-0.5414897912069534,1.5532259280695109,-1.1112222642174399,0.028696653802802397
7.6000000000000005,1.0921379227238428,0.5339503138638646,-0.15316493764769212,-0.5516039249492477,1.5622216418696426,-1.111662491352095,0.01817092971105838
7.65,1.097793809436424,0.5415607266421867,-0.15173058982946352,-0.5614337821094069,1.5709645143649114,-1.1120903450825228,0.007941050715448927
7.7,1.1032853834479106,0.5489500445606565,-0.1503379121464939,-0.5709780659433217,1.5794533922050469,-1.1125057689667226,-0.0019916336694723036
7.75,1.108612035748011,0.556117448151005,-0.14898705904540266,-0.580235717999072,1.5876873339816413,-1.1129087169345844,-0.01162602191853268
7.800000000000001,1.1137732970215373,0.5630623059150279,-0.14767814954576158,-0.5892059226129953,1.5956656142270407,-1.1132991534835834,-0.02096126517498842
7.8500000000000005,1.118768840235354,0.5697841778055168,-0.1464112665840384,-0.5978881114057786,1.6033877274132637,-1.1136770538744791,-0.029996771929572397
7.9,1.1235984832253216,0.5762828187071847,-0.14518645635754052,-0.6062819677785267,1.6108533919508898,-1.1140424043270076,-0.03873221269953264
7.95,1.1282621912832431,0.5825581819175931,-0.14400372766835828,-0.614387431408848,1.6180625541879727,-1.1143952022155807,-0.04716752470768504
8.0,1.132760079743808,0.588610422628074,-0.1428630512673092,-0.6222047027469286,1.6250153924089341,-1.1147354562649805,-0.055302916561446036
8.05,1.1370924165715466,0.5944399014046682,-0.14176435919788072,-0.6297342475116134,1.6317123208334763,-1.115063186746055,-0.06313887293189557
8.1,1.141259624947769,0.6000471876690456,-0.14070754414017433,-0.636976801186488,1.638153993615478,-1.1153784256714159,-0.07067615923280712
8.15,1.1452622858575112,0.6054330631794289,-0.13969245875484876,-0.6439333735159503,1.6443413088419,-1.1156812169911325,-0.07791582629969329
8.200000000000001,1.1491011406764902,0.6105985255115316,-0.13871891502706324,-0.6506052530013029,1.6502754125316932,-1.1159716167884302,-0.08485921506886873
8.25,1.1527770937580395,0.6155447915394743,-0.13778668361042207,-0.6569940113968171,1.6559577026346899,-1.1162496934753836,-0.09150796125647176
8.3,1.1562912150200597,0.6202733009167154,-0.13689549317091804,-0.6631015082058132,1.6613898330305141,-1.116515527988615,-0.09786400003751883
8.35,1.1596447425319663,0.6247857195569781,-0.13604502973087557,-0.6689298951767497,1.6665737175274853,-1.1167692139849892,-0.10392957072494768
8.4,1.1628390851016381,0.6290839431151847,-0.135234936012893,-0.674481620799301,1.6715115338615232,-1.1170108580373106,-0.10970722144867429
8.450000000000001,1.1658758248623589,0.633170100468375,-0.13446481078378802,-0.6797594348004286,1.6762057276950426,-1.1172405798300178,-0.11519981383462641
8.5,1.1687567198597595,0.6370465571966284,-0.1337342081985426,-0.6847663926404561,1.6806590166158588,-1.1174585123548801,-0.12041052768377636
8.55,1.171483706638778,0.6407159190640077,-0.13304263714424214,-0.6895058600091675,1.6848743941361009,-1.117664802106695,-0.1253428656512141
8.6,1.1740589028305977,0.6441810354994737,-0.13238956058402196,-0.6939815173218677,1.6888551336911009,-1.1178596092789819,-0.13000065792517468
8.65,1.1764846097395891,0.6474450030778194,-0.13177439490101173,-0.698197364215468,1.6926047926383045,-1.11804310795968,-0.13438806690608596
8.700000000000001,1.1787633149302676,0.6505111690005891,-0.13119650924227566,-0.7021577240445731,1.696127216256178,-1.1182154863268436,-0.13850959188561784
8.75,1.1808976948142242,0.6533831345770069,-0.130655224862761,-0.7058672483775397,1.699426541743089,-1.1183769468443376,-0.14237007372571187
8.8,1.1828906172370905,0.6560647587049178,-0.13014981446923607,-0.7093309214925756,1.7025072022162433,-1.118527706457535,-0.14597469953764763
8.85,1.1847451440654724,0.6585601613516967,-0.1296795015642378,-0.7125540648738111,1.7053739307105613,-1.1186679967890116,-0.14932900736107912
8.9,1.1864645337739,0.6608737270351861,-0.12924345979001306,-0.7155423417073781,1.7080317641775964,-1.1187980643342423,-0.1524388908430776
8.950000000000001,1.1880522440317685,0.6630101083046129,-0.1288408122724652,-0.7183017613774803,1.710486047484419,-1.1189181706572982,-0.15531060391716656
9.0,1.1895119342902998,0.6649742292215335,-0.12847063096509287,-0.7208386839624965,1.7127424374125513,-1.1190285925865409,-0.15795076548239528
9.05,1.19084746836947,0.6667712888407438,-0.12813193599293815,-0.7231598247310274,1.7148069066568352,-1.11912962241032,-0.1603663640823525
9.1,1.192062917044968,0.6684067646912084,-0.12782369499652813,-0.7252722586379976,1.7166857478243511,-1.1192215680726683,-0.16256476258422614
9.15,1.1931625606351424,0.6698864162570108,-0.12754482247581644,-0.7271834248207396,1.7183855774333432,-1.1193047533689988,-0.1645537028578654
9.200000000000001,1.1941508915879357,0.6712162884582382,-0.12729417913413243,-0.7289011310950395,1.7199133399120679,-1.119379518141799,-0.16634131045477885
9.25,1.195032617067848,0.6724027151319485,-0.12707057122211823,-0.730433558451254,1.7212763115977536,-1.119446218476329,-0.16793609928723185
9.3,1.1958126615428668,0.6734523225130753,-0.12687274988167763,-0.7317892655503622,1.7224821047354681,-1.1195052268963162,-0.16934697630725548
9.35,1.1964961693714253,0.6743720327153644,-0.12669941048991518,-0.7329771932200659,1.723538671477042,-1.119556932559652,-0.1705832461857093
9.4,-0.1924273134637544,-1.457934267989601,0.28347045038755336,0.08224475250121754,-0.4386359580125845,-1.1042801122657027,1.0643413356290035
9.450000000000001,-0.19242558675917984,-1.4579316177866044,0.2834699424119857,0.0822437349394575,-0.4386332700437613,-1.1042801314869901,1.0643397971150415
9.5,-0.19241360358444204,-1.4579132256157217,0.28346641710714804,0.08223667315219124,-0.43861461578143257,-1.1042802648809997,1.06432911996626
9.55,-0.19238139139273056,-1.4578637852839706,0.28345694067058125,0.08221769023237048,-0.4385644709168608,-1.1042806234598823,1.064300418526866
9.600000000000001,-0.1923192845249767,-1.4577684616197735,0.28343866958248193,0.08218109012451538,-0.43846778887484417,-1.1042813148195838,1.064245080581633
9.65,-0.19221792107834593,-1.4576128856666148,0.28340884968445096,0.08212135577929038,-0.43830999593888503,-1.1042824431747036,1.0641547645656888
9.700000000000001,-0.1920682397747302,-1.4573831498767016,0.2833648152582419,0.08203314730808008,-0.43807698637635756,-1.1042841093933544,1.064021396774308
9.75,-0.19186147682924054,-1.4570658033046222,0.28330398810450924,0.08191130013756498,-0.43775511756367586,-1.1042864110320207,1.0638371685727006
9.8,-0.19158916281869934,-1.456647846801005,0.28322387662155707,0.08175082316429745,-0.437331205111462,-1.1042894423704195,1.0635945336058032
9.850000000000001,-0.19124311955013287,-1.456116728206178,0.2831220748840872,0.08154689690927744,-0.43679251798971397,-1.1042932944463575,1.0632862050080687
9.9,-0.1908154569292637,-1.455460337543828,0.2829962617219478,0.08129487167252833,-0.4361267736529736,-1.104298055090592,1.0629051526132558
9.950000000000001,-0.1902985698290031,-1.45466700221466,0.2828441997988817,0.08099026568767284,-0.4353221331654948,-1.10430380896169,1.0624446001642203
10.0,-0.18968513495794348,-1.4537254821900552,0.2826637346912748,0.08062876327650878,-0.43436719632641124,-1.104310637580886,1.0618980225227048
10.05,-0.1889681077288509,-1.4526249652057313,0.28245279396690465,0.0802062130035849,-0.43325099679490475,-1.1043186193669428,1.0612591428791287
10.100000000000001,-0.18814071912715735,-1.4513550619554014,0.2822093862636885,0.07971862583077675,-0.4319629972153729,-1.1043278296710102,1.060521929962378
10.15,-0.18719647257945335,-1.449905801284433,0.2819316003684321,0.07916217327186251,-0.43049308434259725,-1.1043383408114842,1.0596805952495965
10.200000000000001,-0.18612914082198023,-1.4482676253835067,0.2816176042955778,0.07853318554709877,-0.4288315641669113,-1.1043502221088661,1.0587295901759746
10.25,-0.18493276276912265,-1.4464313849822765,0.2812656443659532,0.07782814973779643,-0.42696915703936855,-1.1043635399206222,1.057663603344541
10.3,-0.18360164038190105,-1.4443883345430275,0.2808740442855194,0.07704370794089649,-0.4248969927969103,-1.1043783576760422,1.0564775577359513
10.350000000000001,-0.182130335536464,-1.4421301274543363,0.28044120422411944,0.07617665542354589,-0.42260660588753385,-1.1043947359110997,1.0551666079182793
10.4,-0.18051366689258067,-1.4396488112247297,0.2799655998942269,0.07522393877767333,-0.4200899304954605,-1.10441273230331,1.0537261372568065
10.450000000000001,-0.1787467067621333,-1.4369368226763433,0.27944578162969397,0.07418265407456516,-0.4173392956663035,-1.1044324017065905,1.0521517551238124
10.5,-0.17682477797760957,-1.4339869831385812,0.2788803734645,0.07305004501944112,-0.4143474204322359,-1.1044537961861196,1.050439294108365
10.55,-0.1747434507605951,-1.4307924936417757,0.2782680722115002,0.07182350110603027,-0.4111074089371587,-1.1044769650531951,1.0485848072261101
10.600000000000001,-0.1724985395902658,-1.427346930110845,0.2776076465411735,0.07050055577114672,-0.40761274556186905,-1.1045019549000952,1.0465845651290628
10.65,-0.17008610007188035,-1.4236442385589538,0.27689793606037144,0.06907888454926557,-0.4038572900492278,-1.104528809634936,1.0444350533153959
10.700000000000001,-0.16750242580527266,-1.419678730281171,0.27613785039106636,0.06755630322709863,-0.39983527262932794,-1.1045575705165311,1.0421329693392318
10.75,-0.16474404525334424,-1.4154450770481308,0.2753263682490998,0.06593076599817035,-0.39554128914466224,-1.1045882761892525,1.0396752200204316
10.8,-0.16180771861055662,-1.4109383062996896,0.274462536522931,0.06420036361739362,-0.3909702961752915,-1.1046209627178873,1.037058918654385
10.850000000000001,-0.1586904346714239,-1.4061537963385868,0.27354546935238533,0.06236332155564553,-0.3861176061640124,-1.104655663622499,1.0342813822218015
10.9,-0.15538940769900508,-1.4010872715241032,0.2725743472074024,0.06041799815434336,-0.3809788825415258,-1.1046924099132849,1.0313401285985
10.950000000000001,-0.15190207429339644,-1.3957347974657206,0.27154841596678503,0.05836288278002022,-0.37555013485160404,-1.104731230125437,1.0282328737651987
11.0,-0.14822609026022412,-1.3900927762167798,0.27046698599694713,0.05619659397890103,-0.3698277138762598,-1.1047721503540011,1.0249575290173052
11.05,-0.14435932747913646,-1.3841579414681422,0.26932943123066233,0.053917877631478324,-0.3638083067609137,-1.1048151942887345,1.0215121981747073
11.100000000000001,-0.14029987077229647,-1.3779273537418457,0.2681351882458124,0.05152560510708801,-0.3574889321395621,-1.104860383248967,1.0178951747915632
11.15,-0.1360460147728742,-1.3713983955847664,0.26688375534413566,0.04901877141848528,-0.35086693525994544,-1.1049077362184587,1.0141049393660901
11.200000000000001,-0.1315962607935392,-1.3645687667622766,0.2655746916299754,0.04639649337642038,-0.34393998310871604,-1.1049572698802606,1.0101401565503565
11.25,-0.126949313694953,-1.3574364794519043,0.26420761608902815,0.04365800774421452,-0.33670605953660626,-1.1050089986515725,1.0059996723600706
11.3,-0.1221040787542615,-1.3499998534369924,0.26278220666709223,0.04080266939233564,-0.3291634603835963,-1.105062934718604,1.0016825113843717
11.350000000000001,-0.11705965853358745,-1.342257511300357,0.26129819934881626,0.03782994945297427,-0.32131078860408246,-1.1051190880714314,0.9971878739956196
11.4,-0.1118153497485227,-1.3342083736179482,0.25975538723644725,0.03473943347461933,-0.3131469493920449,-1.1051774665388592,0.9925151335591846
11.450000000000001,-0.10637064013662094,-1.3258516541525074,0.2581536196285793,0.031530819576634034,-0.3046711453062157,-1.1052380758232776,0.9876638336432387
11.5,-0.10072520532588983,-1.3171868550472279,0.2564928010989019,0.028203916603831626,-0.29588287139524694,-1.1053009195355226,0.9826336852285444
11.55,-0.09487890570328365,-1.308213762019413,0.2547728905749483,0.024758642281051298,-0.2867819103228787,-1.1053659992297358,0.9774245639182461
11.600000000000001,-0.08883178328319553,-1.298932439554136,0.25299390041684394,0.021195021367733928,-0.27736832749310686,-1.1054333144382218,0.9720365071476589
11.65,-0.0825840585759502,-1.2893432260978988,0.2511558954960551,0.017513183812498084,-0.2676424661753516,-1.1055028627063097,0.9664697113940602
11.700000000000001,-0.076136127456296,-1.279446729252291,0.2492589922741368,0.013713362907715618,-0.2576049426296245,-1.1055746396272104,0.9607245293864788
11.75,-0.0694885580318977,-1.26924382096765,0.24730335788148178,0.009795893444087711,-0.24725664123169772,-1.1056486388768771,0.9548014673154854
11.8,-0.06264208751182854,-1.258735632736718,0.24528920919606836,0.005761209865220482,-0.23659870959827084,-1.105724852248864,0.9487011820429828
11.850000000000001,-0.05559761907506322,-1.247923550788304,0.24321681192220942,0.0016098444222011898,-0.2256325537121399,-1.1058032696891855,0.942424478311996
11.9,-0.0483562187389697,-1.2368092112809403,0.24108647966930027,-0.002657574671826396,-0.21435983304736447,-1.105883879331176,0.9359723059564623
11.950000000000001,-0.04091911222780195,-1.2253944954965437,0.23889857303056744,-0.007040325087085866,-0.2027824556944362,-1.1059666675303481,0.9293457571110213
12.0,-0.0332876818411926,-1.2136815250340731,0.23665349866181695,-0.01153759222259236,-0.19090257348544695,-1.106051618899253,0.9225460634208056
12.05,-0.025463463322644875,-1.20167265700319,0.2343517083601827,-0.01614847105157685,-0.1787225771192562,-1.106138716342339,0.9155745932512303
12.100000000000001,-0.017448142728025307,-1.1893704792179158,0.23199369814287488,-0.020871967966910238,-0.16624509128665949,-1.1062279410908107,0.9084328488977833
12.15,-0.009243553294056295,-1.1767778053902938,0.22958000732592845,-0.025707002626527517,-0.15347296979555652,-1.1063192727374889,0.901122463795816
12.200000000000001,-0.0008516723068083265,-1.163897670324045,0.22711121760295153,-0.03065240979885188,-0.1404092906961188,-1.1064126892716688,0.8936451997303327
12.25,0.0077253820298076314,-1.15073332510823,0.22458795212387375,-0.03570694120821909,-0.1270573514059578,-1.1065081671139807,0.8860029440457812
12.3,0.016485353725547547,-1.1372882323109061,0.22201087457369467,-0.04086926738030147,-0.11342066383529292,-1.106605681151248,0.8781977068558426
12.350000000000001,0.02542585213534193,-1.1235660611727882,0.21938068825123225,-0.046137979487532066,-0.09950294951211958,-1.1067052047713464,0.8702316182532218
12.4,0.03454435509080328,-1.1095706828009073,0.21669813514787134,-0.05151159119452889,-0.08530813470737747,-1.1068067098980638,0.8621069255194378
12.450000000000001,0.04383821203173435,-1.0953061653622678,0.21396399502631167,-0.05698854050351926,-0.07084034556011726,-1.10691016702596,0.8538259903346127
12.5,0.053304647137634276,-1.0807767692775105,0.21117908449931694,-0.06256719159976332,-0.05610390320267106,-1.1070155452552246,0.8453912859872639
12.55,0.06294076245920793,-1.065986942414568,0.20834425610846258,-0.06824583669697923,-0.04110331888581753,-1.1071228123265366,0.8368053945840918
12.600000000000001,0.07274354104987185,-1.0509413152823261,0.20546039740288463,-0.07402269788276628,-0.02584328910395245,-1.1072319346559245,0.8280710042597722
12.65,0.0827098500972629,-1.0356446962242822,0.20252843001802784,-0.07989592896402975,-0.01032869072025494,-1.1073428773696248,0.8191909063867451
12.700000000000001,0.09283644405474561,-1.0201020666122043,0.19954930875439417,-0.08586361731240505,0.005435423908144055,-1.1074556043389412,0.8101679927850047
12.75,0.10311996777291937,-1.0043185760397901,0.19652402065629132,-0.09192378570968138,0.021443831804993208,-1.1075700782151043,0.8010052529318908
12.8,0.11355695963112622,-0.988299537516327,0.19345358409058108,-0.09807439419322633,0.03769114424975306,-1.1076862604641307,0.791705771171878
12.850000000000001,0.12414385466895878,-0.97205042266035,0.19033904782542754,-0.10431334190141023,0.054171811652429125,-1.1078041114016817,0.7822727239263654
12.9,0.1348769877177668,-0.9555768568933025,0.1871814901090459,-0.1106384689190294,0.07088012842840141,-1.107923590227923,0.7727093769034685
12.950000000000001,0.14575259653216655,-0.9388846146331925,0.18398201774845033,-0.11704755812273182,0.0878102378732597,-1.1080446550623841,0.7630190823078069
13.0,0.15676682492154598,-0.9219796144882559,0.18074176518820306,-0.1235383370264396,0.10495613703763229,-1.1081672629788175,0.753205276050297
13.05,0.16791572588157455,-0.9048679144506117,0.17746189358916217,-0.13010847962677463,0.12231168160202066,-1.1082913700400576,0.7432714749579401
13.100000000000001,0.1791952647257088,-0.8875557070899242,0.17414358990723047,-0.1367556082484814,0.139870590751629,-1.1084169313328798,0.733221273983614
13.15,0.19060132221670212,-0.870049314747059,0.1707880659721034,-0.14347729538985265,0.15762645205119918,-1.1085439010028604,0.7230583434158618
13.200000000000001,0.2021296976981104,-0.8523551847277459,0.167396557566018,-0.15027106556815226,0.1755727263198399,-1.1086722322892353,0.7127864260886834
13.25,0.21377611222580017,-0.834479884496235,0.16397032350250101,-0.15713439716503994,0.19370275250585978,-1.10880187755976,0.7024093345913246
13.3,0.2255362116994568,-0.816430096868957,0.16051064470511722,-0.16406472427199548,0.21200975256160026,-1.1089327883455673,0.691930948478068
13.350000000000001,0.23740556999409146,-0.7982126152081823,0.1570188232862181,-0.1710594385357429,0.23048683631826672,-1.1090649153760281,0.6813552114780224
13.4,0.2493796920915487,-0.7798343386156802,0.15349618162569,-0.1781158910036743,0.2491270063607598,-1.10919820861361,0.6706861287049136
13.450000000000001,0.2614540172120139,-0.7613022671263785,0.14994406144970285,-0.1852313939692743,0.2679231629025084,-1.109332617288737,0.6599277638668747
13.5,0.27362392194552154,-0.7426234969020211,0.14636382290945815,-0.19240322281754424,0.286868108660302,-1.1094680899346472,0.649084236476235
13.55,0.2858847233834623,-0.7238052154248285,0.14275684365993768,-0.1996286178704264,0.30595455372912195,-1.109604574422254,0.6381597190593113
13.600000000000001,0.2982316822500901,-0.7048546966911572,0.13912451793865196,-0.20690478623222758,0.3251751204569727,-1.1097420179950046,0.6271584343661986
13.65,0.31066000603403066,-0.6857792964051573,0.13546825564438839,-0.21422890363504427,0.34452234831971595,-1.1098803673037385,0.616084652580558
13.700000000000001,0.3231648521197886,-0.6665864471724334,0.13178948141595986,-0.22159811628418596,0.3639886987959007,-1.1100195684415481,0.6049426885294091
13.75,0.33574133091925495,-0.647283653693702,0.12808963371095305,-0.2290095427035998,0.38356656024159663,-1.1101595669786366,0.5937368988929189
13.8,0.3483845090032144,-0.6278784879584529,0.12437016388447711,-0.23646027558129423,0.4032482527652239,-1.110300307997178,0.5824716794141931
13.850000000000001,0.3610894122328536,-0.608378584438606,0.12063253526791162,-0.24394738361476387,0.4230260331023886,-1.110441736126177,0.5711514621090645
13.9,0.37385102889126876,-0.5887916352821715,0.11687822224765534,-0.25146791335641316,0.4428920994907113,-1.1105837955763258,0.5597807124758846
13.950000000000001,0.3866643128149716,-0.56912538550691,0.11310870934387465,-0.25901889105898057,0.4628385965446612,-1.1107264301748665,0.5483639267053134
14.0,0.39952418652540034,-0.5493876281939882,0.10932549028925134,-0.2665973245209637,0.482857620130389,-1.1108695834004483,0.5369056288901086
14.05,0.41242554436042245,-0.5295861996816439,0.10553006710773224,-0.2742002049320413,0.5029412222405537,-1.1110131984179867,0.5254103682349184
14.100000000000001,0.42536325560584687,-0.5097289747588392,0.10172394919327629,-0.2818245087184998,0.523081415869162,-1.1111572181135243,0.5138827162660675
14.15,0.4383321676269286,-0.48982386185892346,0.09790865238860388,-0.2894671993886559,0.5432701798863947,-1.1113015851290882,0.5023272640413513
14.200000000000001,0.4513271089998778,-0.4698787982532895,0.09408569806394476,-0.297125229378282,0.5634994639134416,-1.1114462418975501,0.49074861935982317
14.25,0.4643428926433658,-0.44990174524503734,0.09025661219578682,-0.3047955418960286,0.5837611931973312,-1.1115911306774864,0.4791514039715872
14.3,0.47737431895003446,-0.429900683362628,0.08642292444562422,-0.3124750727688503,0.6040472734857647,-1.1117361935880357,0.46754025078758554
14.350000000000001,0.49041617891800326,-0.4098836075535459,0.08258616723870585,-0.32016075228742896,0.6243495959019478,-1.1118813726437589,0.4559198010893901
14.4,0.5034632572823754,-0.38985852237795693,0.07874787484278378,-0.3278495070515983,0.6446600418194217,-1.1120266097894986,0.4442947017389931
14.450000000000001,0.5165103356467483,-0.36983343720236705,0.07490958244686152,-0.335538261815768,0.6649704877368965,-1.1121718469352382,0.43266960238859564
14.5,0.5295521956147169,-0.349816361393285,0.07107282523994318,-0.3432239413343467,0.6852728101530792,-1.1123170259909614,0.42104915269040055
14.55,0.5425836219213852,-0.3298152995108765,0.06723913748978072,-0.3509034722071682,0.7055588904415124,-1.1124620889015107,0.40943799950639903
14.600000000000001,0.5555994055648734,-0.30983824650262415,0.06341005162162278,-0.35857378472491486,0.7258206197254018,-1.112606977681447,0.3978407841181629
14.65,0.5685943469378224,-0.2898931828969906,0.05958709729696368,-0.3662318147145408,0.7460499037524486,-1.1127516344499089,0.3862621394366351
14.700000000000001,0.5815632589589038,-0.26998806999707514,0.05577180049229136,-0.3738745053846968,0.7662386677696813,-1.1128960014654727,0.37470668721191913
14.75,0.5945009702043285,-0.25013084507426986,0.05196568257783532,-0.3814988091711554,0.7863788613982896,-1.1130400211610103,0.36317903524306816
14.8,0.6074023280393509,-0.23032941656192563,0.04817025939631617,-0.3891016895822331,0.8064624635084547,-1.1131836361785488,0.35168377458787736
14.850000000000001,0.6202622017497792,-0.2105916592490047,0.044387040341692996,-0.39668012304421585,0.8264814870941817,-1.1133267894041305,0.34022547677267323
14.9,0.6330754856734827,-0.19092540947374181,0.04061752743791208,-0.40423110074678376,0.8464279841481328,-1.1134694240026712,0.3288086910021013
14.950000000000001,0.6458371023318977,-0.17133846031730782,0.03686321441765586,-0.411751630488433,0.8662940505364554,-1.1136114834528201,0.31743794136892167
15.0,0.658542005561537,-0.15183855679746072,0.033125585801090374,-0.41923873852190263,0.8860718308736197,-1.113752911581819,0.306117724063793
15.05,0.6711851836454967,-0.13243339106221086,0.029406115974614344,-0.42668947139959723,0.905753523397248,-1.1138936526003604,0.29485250458506684
15.100000000000001,0.6837616624449625,-0.11313059758348087,0.0257062682696077,-0.4341008978190106,0.9253313848429425,-1.114033651137449,0.2836467149485772
15.15,0.6962665085307204,-0.09393774835075641,0.022027494041179152,-0.44147011046815243,0.9447977353191279,-1.1141728522752585,0.2725047508974282
15.200000000000001,0.7086948323146612,-0.07486234806475656,0.01837123174691563,-0.44879422787096923,0.964144963181871,-1.1143112015839924,0.2614309691117874
15.25,0.7210417911812889,-0.055911829331085405,0.014738906025629828,-0.45607039623277035,0.9833655299097219,-1.114448645156743,0.25042968441867464
15.3,0.7333025926192296,-0.03709354785389274,0.011131926776109413,-0.46329579128565257,1.0024519749785417,-1.1145851296443499,0.23950516700175117
15.350000000000001,0.745472497352737,-0.018414777629535806,0.007551688235864773,-0.4704676201339224,1.0213969207363351,-1.11472060229026,0.22866163961111174
15.4,0.7575468224732019,0.00011729385976577689,0.003999568059877612,-0.4775831230995221,1.0401930772780832,-1.1148550109653868,0.2179032747730728
15.450000000000001,0.7695209445706601,0.018495570452268906,0.00047692639934932,-0.4846395755674541,1.0588332473205775,-1.114988304202969,0.2072341919999634
15.5,0.7813903028652944,0.03671305211304299,-0.0030148950195497126,-0.49163428983120117,1.0773103310772432,-1.1151204312334297,0.1966584549999183
15.55,0.7931504023389505,0.05476283974032059,-0.006474573816933449,-0.4985646169381567,1.0956173311329835,-1.1152513420192371,0.18618006888666172
15.600000000000001,0.8047968168666408,0.07263813997183233,-0.009900807880450502,-0.5054279485350445,1.1137473573190038,-1.1153809872897618,0.17580297738930284
15.65,0.8163251923480488,0.09033226999114485,-0.013292316286535821,-0.512221718713344,1.1316936315876445,-1.1155093185761367,0.16553106006212437
15.700000000000001,0.8277312498390421,0.10783866233400996,-0.01664784022166288,-0.5189434058547151,1.1494494928872148,-1.1156362882461173,0.15536812949437218
15.75,0.8390107886831768,0.1251508696946979,-0.01996614390359469,-0.5255905344764221,1.1670084020368232,-1.1157618495389394,0.1453179285200461
15.8,0.8501596896432058,0.14226256973234297,-0.023246015502635664,-0.5321606770767573,1.1843639466012124,-1.1158859566001795,0.1353841274276888
15.850000000000001,0.8611739180325846,0.15916756987727898,-0.026486268062882845,-0.5386514559804649,1.2015098457655837,-1.116008564516613,0.1255703211701793
15.9,0.8720495268469837,0.17585981213738733,-0.029685740423478102,-0.545060545184167,1.2184399552104412,-1.116129629351074,0.11588002657451801
15.950000000000001,0.882782659895792,0.19233337790443517,-0.032843298139859756,-0.5513856722017862,1.2351482719864135,-1.1162491081773154,0.10631667955162105
16.0,0.8933695549336247,0.20858249276041296,-0.035957834405013545,-0.5576246199099703,1.2516289393890905,-1.1163669591148664,0.09688363230610797
16.05,0.9038065467918319,0.22460153128387672,-0.03902827097072392,-0.5637752283935155,1.2678762518338516,-1.1164831413638927,0.08758415054609492
16.1,0.9140900705100055,0.24038502185629018,-0.04205355906882663,-0.5698353967907915,1.2838846597306992,-1.1165976152400559,0.07842141069298136
16.150000000000002,0.9242166644674881,0.2559276514683677,-0.04503268033246022,-0.5758030851391667,1.2996487743590985,-1.1167103422093723,0.06939849709124113
16.2,0.9341829735148788,0.27122427052641074,-0.047964647717316844,-0.58167631622043,1.3151633727427956,-1.1168212849230725,0.06051839921821456
16.25,0.9439857521055437,0.28626989765865485,-0.05084850642289518,-0.5874531774062176,1.3304234025246617,-1.1169304072524606,0.05178400889389412
16.3,0.9536218674271173,0.30105972452159735,-0.053683334813749595,-0.5931318225034337,1.345423986841516,-1.1170376743237724,0.04319811749072189
16.35,0.9630883025330175,0.315589120606355,-0.05646824534074424,-0.5987104735996777,1.360160429198962,-1.117143052553037,0.03476341314337272
16.400000000000002,0.9723821594739472,0.32985363804499235,-0.05920238546230344,-0.6041874229086673,1.3746282183462202,-1.1172465096809332,0.026482477958549078
16.45,0.9815006624294089,0.34384901641687304,-0.06188493856566457,-0.609561034615664,1.3888230331509626,-1.1173480148076507,0.0183577852247645
16.5,0.9904411608392039,0.3575711875549923,-0.06451512488812727,-0.6148297467228953,1.402740747474137,-1.1174475384277491,0.01039169662214312
16.55,0.9992011325349435,0.37101628035231604,-0.06709220243830621,-0.6199920728949776,1.416377435044802,-1.1175450524650163,0.002586459432204702
16.6,1.0077781868715596,0.3841806255681315,-0.06961546791738393,-0.6250466043043448,1.429729374334963,-1.1176405303073282,-0.005055796252346978
16.650000000000002,1.0161700678588075,0.3970607606343788,-0.0720842576403608,-0.6299920114766687,1.4427930534344005,-1.1177339468415082,-0.01253306031782997
16.7,1.0243746572927768,0.4096534344620024,-0.07449794845730745,-0.6348270461362866,1.4555651749255043,-1.1178252784881864,-0.019843445419797767
16.75,1.0323899778873964,0.42195561224727585,-0.07685595867461531,-0.6395505430516196,1.4680426607581007,-1.117914503236658,-0.026985189773244267
16.8,1.0402141964059435,0.43396448027815815,-0.07915774897624933,-0.6441614218806041,1.480222657124291,-1.118001600679744,-0.03395665994281938
16.85,1.047845626792553,0.4456774507406289,-0.08140282334499971,-0.6486586890161105,1.4921025393332799,-1.118086552048649,-0.040756353633035314
16.900000000000002,1.0552827333037211,0.45709216652502604,-0.08359072998373251,-0.6530414394313702,1.5036799166862083,-1.118169340247821,-0.04738290247847621
16.95,1.0625241336398148,0.4682065060323908,-0.08572106223664211,-0.6573088585253984,1.514952637350985,-1.1182499498898115,-0.05383507483401084
17.0,1.0695686020765802,0.4790185879808053,-0.08779345951050105,-0.6614602239684171,1.5259187932371163,-1.1183283673301332,-0.06011177856499805
17.05,1.0764150725966493,0.48952677621173524,-0.08980760819591416,-0.6654949075472844,1.5365767248705422,-1.11840458070212,-0.06621206383749967
17.1,1.0830626420210472,0.49972968449637656,-0.09176324258856916,-0.6694123770109123,1.5469250262684684,-1.1184785799517867,-0.0721351259084928
17.150000000000002,1.0895105731407013,0.5096261813419845,-0.0936601458104877,-0.6732121979156948,1.5569625498141961,-1.1185503568726873,-0.07788030791607481
17.2,1.0957582978479457,0.5192153947982214,-0.09549815073127621,-0.6768940354709299,1.5666884111319495,-1.1186199051407753,-0.08344710366967223
17.25,1.101805420268034,0.5284967172634978,-0.0972771408893805,-0.6804576563842472,1.576101993961721,-1.1186872203492613,-0.08883516044025952
17.3,1.1076517198906397,0.5374698102913116,-0.09899705141333409,-0.6839029307070276,1.5852029550340903,-1.1187523000434745,-0.09404428175055801
17.35,1.113297154701373,0.5461346093965944,-0.1006578699430119,-0.687229833679831,1.5939912289450615,-1.1188151437557194,-0.09907443016525308
17.400000000000002,1.1187418643132745,0.554491328862035,-0.10225963755087991,-0.6904384475778161,1.6024670330308899,-1.1188757530401379,-0.10392573008119976
17.45,1.1239861730983387,0.5625404665444438,-0.10380244966324886,-0.6935289635561709,1.6106308722429268,-1.1189341315075656,-0.1085984705176346
17.5,1.1290305933190128,0.5702828086810778,-0.10528645698152472,-0.6965016834955321,1.6184835440224417,-1.118990284860393,-0.1130931079063866
17.55,1.1338758282597032,0.5777194346959877,-0.1067118664034602,-0.6993570218474101,1.6260261431754484,-1.1190442209274245,-0.11741026888208417
17.6,1.1385227753582896,0.5848517220063605,-0.10807894194440748,-0.7020955074796161,1.633260066747559,-1.1190959496987365,-0.12155075307237029
17.650000000000002,1.1429725293376256,0.5916813508288525,-0.1093880056585681,-0.704717785521682,1.640187018898791,-1.1191454833605383,-0.1255155358881046
17.7,1.1472263853370483,0.5982103089859319,-0.11063943856024488,-0.7072246192102845,1.6468090157784068,-1.11919283633003,-0.12930577131357768
17.75,1.1512858420438867,0.6044408967122266,-0.11183368154509438,-0.7096168917346741,1.6531283903997571,-1.1192380252902625,-0.13292279469672108
17.8,1.1551526048249738,0.6103757314608638,-0.1129712363113794,-0.7118956080820967,1.6591477975151028,-1.119281069224996,-0.13636812553931876
17.85,1.158828588858149,0.6160177527098076,-0.11405266628121791,-0.7140618968832171,1.6648702184904507,-1.11932198945356,-0.1396434702872138
17.900000000000002,1.1623159222637565,0.6213702267681898,-0.11507859752183486,-0.71611701225754,1.6702989661803724,-1.1193608096657122,-0.1427507251205149
17.95,1.165616949236174,0.6264367515826721,-0.11604971966681749,-0.7180623356588415,1.6754376898028567,-1.1193975559564981,-0.14569197874381534
18.0,1.1687342331753074,0.6312212615437729,-0.11696678683736306,-0.7198993777205897,1.6802903798141355,-1.1194322568611097,-0.14846951517639884
18.05,1.171670559818094,0.6357280322922141,-0.11783061856353155,-0.7216297801013656,1.6848613727835051,-1.1194649433897443,-0.1510858165424449
18.1,1.174428940370024,0.6399616855252566,-0.1186421007054988,-0.7232553173302951,1.6891553562681736,-1.119495649062466,-0.15354356586124673
18.150000000000002,1.177012614636631,0.6439271938030391,-0.11940218637480371,-0.7247778986524612,1.693177373688071,-1.119524409944061,-0.15584564983741056
18.2,1.1794250541550169,0.6476298853549292,-0.12011189685560547,-0.7261995698743424,1.696932829200712,-1.1195512646789019,-0.15799516165107663
18.25,1.1816699653253457,0.6510754488858588,-0.12077232252593223,-0.7275225152092265,1.7004274925760017,-1.119576254525802,-0.15999540374812482
18.3,1.1837512925423612,0.6542699383826678,-0.12138462377893278,-0.7287490591226379,1.703667504071082,-1.1195994233928774,-0.16184989063038047
18.35,1.185673221326885,0.657219777920429,-0.12195003194412629,-0.7298816681777618,1.7066593793051483,-1.1196208178724065,-0.16356235164582777
18.400000000000002,1.187440181457334,0.6599317664688162,-0.12246985020865975,-0.7309229528808698,1.7094100141343085,-1.119640487275687,-0.16513673377882188
18.45,1.1890568501012173,0.6624130826984236,-0.12294545453855221,-0.7318756695267425,1.711926689526381,-1.1196584836678973,-0.1665772044402949
18.5,1.1905281549466502,0.6646712897871114,-0.12337829459995109,-0.7327427220440919,1.7142170764357538,-1.1196748619029548,-0.1678881542579651
18.55,1.1918592773338743,0.6667143402263633,-0.12376989468038557,-0.7335271638409921,1.716289240678214,-1.1196896796583748,-0.16907419986655658
18.6,1.1930556553867302,0.6685505806275893,-0.1241218546100098,-0.7342321996502934,1.718151647805755,-1.119702997470131,-0.17014018669798814
18.650000000000002,1.1941229871442047,0.6701887565285167,-0.1244358506828645,-0.7348611873750581,1.7198131679814415,-1.1197148787675129,-0.17109119177161047
18.7,1.1950672336919068,0.6716380171994842,-0.12471363657812057,-0.7354176399339715,1.721283080854214,-1.1197253899079869,-0.17193252648439072
