SilviaXuva/Vision-guided-robot-manipulator/Helpers/Outputs copy/2023-12-09_18h06m43s/blue2/Align/Joint Comparison/q_dot_dot_Real.csv
,q0,q1,q2,q3,q4,q5,q6
0.0,0.0,0.0,0.0,0.0,0.0,0.0,0.0
0.05,0.0008082744888010764,-0.31343338436130225,-0.013528723589143601,0.12312783619580195,-0.13856690955227585,-0.010930129326724101,0.14100196172775017
0.1,-0.004380669487590461,-0.243163907009626,0.0026854944463325326,0.10455207322079484,-0.07287704662605497,-0.008667670664027887,0.03719962036409813
0.15000000000000002,-0.005937437141022989,-0.14702424520960017,0.008898334423069693,0.07074355885357468,-0.022250745954194018,-0.006503187746218879,-0.026925451171044626
0.2,-0.007152160207030342,-0.09149853344573786,0.006710284757982334,0.04622811323847252,-0.004379388440571494,-0.007977100407275846,-0.041049360740842006
0.25,-0.00910266455940962,-0.06276825150250909,0.0021310622440559373,0.02929553678406145,-0.0008302274408125698,-0.011219854772200472,-0.03639898242376399
0.30000000000000004,-0.011688955631930648,-0.04876084941859843,-0.002409471993434758,0.017578009838991604,-0.0020795971278415523,-0.015028419531318143,-0.02776898411668477
0.35000000000000003,-0.01465790657586289,-0.04315019751345989,-0.006277271997144193,0.009496153303362245,-0.004632648201573358,-0.018908853793931923,-0.019948824516326513
0.4,-0.01781263190978745,-0.0423384995886987,-0.009434235172570997,0.0039022426246059644,-0.007242446177714787,-0.0226730509117299,-0.014114630724211402
0.45,-0.021025284964130628,-0.0442150280811264,-0.012010158828055176,-3.2763356323656234e-05,-0.009526199047412108,-0.026260846600326612,-0.010198532773236652
0.5,-0.024219838696707546,-0.04755282555224477,-0.014155315688347131,-0.0028825570217468066,-0.011432270956731813,-0.029665222120698262,-0.00777809945687144
0.55,-0.027354060628859908,-0.05164462415909454,-0.015994092446583105,-0.005030199667084567,-0.013016034842183305,-0.032897970960607745,-0.0064134572881204
0.6000000000000001,-0.030406112610757707,-0.05608484435830369,-0.017617034173465808,-0.006724990604379255,-0.0143515902961543,-0.03597475121006208,-0.005751463349275288
0.65,-0.033365855787631446,-0.06064211277692272,-0.019085764095324066,-0.008126126938605843,-0.015502328191148336,-0.03890951593805966,-0.0055381908675848635
0.7000000000000001,-0.03622960432970619,-0.06518531344988726,-0.020440568886522584,-0.009333802409312031,-0.016514759670247653,-0.04171307061737385,-0.005601832077077595
0.75,-0.03901641739714648,-0.06966425857583419,-0.021684658947368207,-0.010458949343012947,-0.017432061948456992,-0.04428516088379707,-0.0058187043665518245
0.8,-0.04170603954543092,-0.07398878610616388,-0.022850180746695585,-0.011466917766309037,-0.018245015994081126,-0.046735911040717004,-0.006145139203807964
0.8500000000000001,-0.04425411653562403,-0.07814954587950368,-0.02401221444170404,-0.012316774027001376,-0.018993701996061346,-0.04929373825888608,-0.006528731623582085
0.9,-0.046731452109134985,-0.08215671434945143,-0.025100282212362837,-0.013159801188777631,-0.019667857562640917,-0.05168248696431871,-0.006930634352933368
0.9500000000000001,-0.049133493665665245,-0.08600341855973664,-0.02613112416109828,-0.013969160090277766,-0.020278694554613716,-0.05393630260390844,-0.0073338761088243
1.0,-0.05145568617162921,-0.08968525137627276,-0.027109685497422806,-0.014742906165156888,-0.020828092587271488,-0.05606756047654357,-0.007732096251327203
1.05,-0.05369787912848353,-0.09320029296723598,-0.02803920454646669,-0.015480654492714685,-0.02131604716151765,-0.058083408949406445,-0.008121419327825619
1.1,-0.05586216217036283,-0.09654916458407381,-0.028921900779704107,-0.016182573550852786,-0.0217419504359629,-0.05998792923074481,-0.008498900023961725
1.1500000000000001,-0.05795142965043243,-0.09973379042382408,-0.02975923831409509,-0.016849321222489333,-0.022104678002363987,-0.06178329237029878,-0.00886250585896628
1.2000000000000002,-0.05996888799979394,-0.10275670347239696,-0.030552270826123204,-0.01748166382854771,-0.02240274360205019,-0.06347063714379222,-0.009210868824967716
1.25,-0.06191787722316433,-0.10562073517143972,-0.03130184902277178,-0.018080318470952705,-0.02263441312998188,-0.06505055050675806,-0.009543030952786635
1.3,-0.06380181091424908,-0.10832887207230024,-0.0320087300789558,-0.018645930086396145,-0.022797762917697723,-0.06652331046127405,-0.009858261101280616
1.35,-0.06562416700582246,-0.11088418949251666,-0.032673636772175274,-0.01917909204319057,-0.02289070354527023,-0.06788900773843184,-0.010155931952619476
1.4000000000000001,-0.06738849835855987,-0.11328982245085384,-0.03329729115696553,-0.0196803749639346,-0.02291098381342116,-0.06914760534483103,-0.010435439043321101
1.4500000000000002,-0.06909844980085483,-0.11554895437330459,-0.033880435607958614,-0.020150351826454527,-0.02285618275931628,-0.07029896594404131,-0.010696147746638227
1.5,-0.07075777655690979,-0.11766481409268448,-0.0344238480689768,-0.02058961628518985,-0.0227236939395703,-0.07134286242545723,-0.010937358124063698
1.55,-0.0723703625388053,-0.11964067667971812,-0.0349283551576722,-0.02099879455715714,-0.02251070410833403,-0.0722789794858783,-0.011158280799642845
1.6,-0.07394023837134278,-0.1214798660894767,-0.0353948451467756,-0.02137855221398033,-0.022214167278202107,-0.07310691014390358,-0.011358019345743611
1.6500000000000001,-0.07547159946874216,-0.12318575875390536,-0.03582428201407514,-0.02172959725257939,-0.021830774475973258,-0.07382614910356772,-0.011535556286033644
1.7000000000000002,-0.0769688245661515,-0.12476178780686131,-0.03621772136457771,-0.022052680574405348,-0.02135691912427684,-0.07443608385432676,-0.011689740842399238
1.75,-0.0784364950686467,-0.12621144786564675,-0.036576328896359284,-0.022348594691734558,-0.02078865776306338,-0.07493598385316103,-0.011819277213632393
1.8,-0.07987941550264221,-0.12753830042582792,-0.0369014020136256,-0.022618171259609632,-0.020121665616690265,-0.07532498782838765,-0.011922712552701331
1.85,-0.08130263525765014,-0.12874597995767179,-0.03719439528666532,-0.022862277775753115,-0.019351186435533352,-0.07560208907911731,-0.011998424071316821
1.9000000000000001,-0.08271147176614702,-0.12983820085683218,-0.037456950510784126,-0.023081813752426905,-0.018471975862382473,-0.07576611852507381,-0.012044604795212327
1.9500000000000002,-0.08411153515929193,-0.13081876539272952,-0.03769093228366438,-0.023277706486795058,-0.01747823748301791,-0.07581572518059465,-0.012059247595962302
2.0,-0.08550875440012429,-0.13169157284519395,-0.03789847017817011,-0.023450906562088036,-0.016363550561882823,-0.07574935362560681,-0.012040127119335893
2.0500000000000003,-0.0869094047813157,-0.13246063003474973,-0.038082008822661884,-0.02360238314920493,-0.015120788319379352,-0.07556521800734656,-0.011984779253338476
2.1,-0.08832013658527593,-0.13313006347536738,-0.03824436746066168,-0.023733119156675864,-0.013742025430319993,-0.07526127197864635,-0.01189047773632896
2.15,-0.08974800455013587,-0.13370413342102427,-0.03838881089630958,-0.023844106267543186,-0.012218433225694714,-0.07483517391314948,-0.011754207493236066
2.2,-0.09120049759786475,-0.13418725009310184,-0.03851913415068381,-0.02393633990420252,-0.01054016087479126,-0.07428424661967914,-0.011572634255384365
2.25,-0.0926855680266675,-0.13458399242529562,-0.03863976364132077,-0.024010814131880664,-0.008696200574350721,-0.07360543066624925,-0.011342069943393804
2.3000000000000003,-0.09421165901990214,-0.134899129680765,-0.038755878325852644,-0.02406851654868758,-0.0066742345200665465,-0.07279523028475787,-0.011058433284335117
2.35,-0.0957877288541975,-0.13513764632896608,-0.038873555012089445,-0.024110423162360117,-0.00446046117066945,-0.07184965067204452,-0.010717205087408949
2.4000000000000004,-0.09742326957686953,-0.13530477059453427,-0.03899994296174075,-0.024137493307536673,-0.0020393980166788506,-0.07076412535189758,-0.010313377542810545
2.45,-0.09912831707198033,-0.13540600708756512,-0.03914347408598556,-0.02415066461265769,0.0006063421765972743,-0.06953343206990148,-0.009841396920471021
2.5,-0.1009134483215246,-0.1354471739031038,-0.0393141164402841,-0.02415084806472123,0.003496304929724303,-0.06815159550509153,-0.009295099041783939
2.5500000000000003,-0.10278976016492858,-0.13543444453205433,-0.03952368048285693,-0.024138923192221773,0.006652480825765639,-0.06661177490387693,-0.008667636945209611
2.6,-0.10476882187081205,-0.13537439479198388,-0.03978618969740999,-0.02411573343062412,0.010099628938548544,-0.06490613454533556,-0.007951400290983762
2.6500000000000004,-0.10686259115235353,-0.1352740547877196,-0.04011832983110558,-0.024082081695541158,0.01386564007894775,-0.06302569484780474,-0.0071379262725672354
2.7,-0.10908327970575948,-0.13514096555678257,-0.04053999417346299,-0.024038726220321216,0.017981942426739672,-0.060960161827660064,-0.006217802191192737
2.75,-0.11144314962600155,-0.13498323953025082,-0.041074946201139495,-0.02398637674431825,0.02248395084728183,-0.05869773275340551,-0.005180560421199701
2.8000000000000003,-0.1139542157183826,-0.13480962307837907,-0.04175162555623585,-0.023925691086764678,0.02741155901005099,-0.05622487615653038,-0.004014567480930334
2.85,-0.11662782037573094,-0.13462955816982536,-0.042604128810463104,-0.023857272227024717,0.03280966983864264,-0.05352608508938539,-0.0027069103023826674
2.9000000000000004,-0.11933470226157095,-0.1345138717955896,-0.04360208796369447,-0.023968381658630022,0.03872662771982727,-0.050571444430428936,-0.0012407914564033923
2.95,-0.12255780802538196,-0.1342465735955911,-0.04506346463203387,-0.02357181763492644,0.04520404903683106,-0.04742116877370861,0.0003880350995082854
3.0,-0.1257300676833617,-0.1341520664189555,-0.046673760613264725,-0.0235923187490239,0.0523634478312085,-0.04387321416771006,0.002217497949017627
3.0500000000000003,-0.12912756034511474,-0.13405673407645535,-0.048731549913917926,-0.023499114575029623,0.06021458683799441,-0.04007201373675828,0.004248790829896876
3.1,-0.13270027040602206,-0.13401445169820891,-0.05127026667999357,-0.02340528076572923,0.06885388661961422,-0.03592210986243627,0.006509774328162521
3.1500000000000004,-0.13643416767542327,-0.13403814298561523,-0.05439653225587454,-0.023304855547432446,0.0783664813995344,-0.031394998325702805,0.009021897155689351
3.2,-0.14030037014651775,-0.13414144974138953,-0.058236366292439,-0.023197023712941967,0.08884539479101394,-0.026454060483404596,0.011807632991686773
3.25,-0.14423434071612284,-0.13427145345767055,-0.06297668345435131,-0.02297898029647749,0.10039311730239198,-0.021216115934806767,0.014865975625837635
3.3000000000000003,-0.14816542042487946,-0.13462580452536232,-0.06873751990238319,-0.022905711944278817,0.1130623735641334,-0.015412446096476629,0.018298349400060893
3.35,-0.15206826047060584,-0.1350620871491004,-0.07572656187931598,-0.022838115281555993,0.12706651971895688,-0.008834262759180866,0.022042604170947472
3.4000000000000004,-0.1556887718623734,-0.13559667014621413,-0.08425004773980893,-0.022723642776312225,0.1424202544065567,-0.0017344337621538752,0.02614071798529405
3.45,-0.1588355755005555,-0.13624705895807554,-0.09460974618712176,-0.022591232643147663,0.15919872295391269,0.005973360398749961,0.030609922405476497
3.5,-0.1612246546273821,-0.1369920115754919,-0.10715779411887838,-0.02244998009010679,0.1774524339842909,0.014344647876048944,0.03544014987819255
3.5500000000000003,-0.1624688667343166,-0.13779640137392413,-0.12229996207422378,-0.022304060027298345,0.19716805781790692,0.023409473213995557,0.040608895489218644
3.6,-0.16205446416148406,-0.1385961319512663,-0.14048913497553495,-0.022155069403451133,0.2182400216209146,0.03316680757840196,0.046064290338874714
3.6500000000000004,-0.15931468773068502,-0.13928619831721778,-0.16220884449775375,-0.02200380196722973,0.24042543696224605,0.04356989333542671,0.05171222321235819
3.7,-0.15340463287870532,-0.13970603211168386,-0.1879401082916704,-0.021850918152763743,0.2632826815397893,0.054503384981315905,0.0574007719998712
3.75,-0.14328487447070937,-0.13962163195042288,-0.21810227343553257,-0.02169721795411972,0.286093180267315,0.06575208785950859,0.06290140077107709
3.8000000000000003,-0.12772664867236494,-0.13870620705005998,-0.2529566869736988,-0.021543729208859386,0.30776911945807006,0.0769614084150172,0.06788869083122456
3.85,-0.10535836860223524,-0.13652326777244372,-0.292461963134506,-0.0213917057772961,0.326757576842156,0.08759234124341875,0.07192259153462277
3.9000000000000004,-0.07478043568981518,-0.1325197291911262,-0.33607482900421315,-0.02124230628679724,0.34096448277363134,0.09687797766848472,0.074440668393706
3.95,-0.03477874535278036,-0.12604109390286333,-0.3825053911374027,-0.021096079756823816,0.3477411147372056,0.10379783892563332,0.07477215771484413
4.0,0.015341645646254065,-0.11638426713352024,-0.4294661579309206,-0.020951195845211323,0.34399624284828345,0.10709547939809938,0.07218920382360688
4.05,0.0753137122825398,-0.10290448573631705,-0.4735002985012021,-0.020796143163046565,0.32650683751129117,0.1053752462473756,0.06601150076084666
4.1000000000000005,0.14343249729441787,-0.08530202494516859,-0.5100024163748884,-0.02061554463581139,0.29249744125504185,0.09728885053731817,0.05581283820852351
4.15,0.21621167643244288,-0.06465918568618223,-0.5334745337163604,-0.020553174550126396,0.24049844238946516,0.0815751811793497,0.04189357375375319
4.2,0.28842294732328133,-0.04003377296114996,-0.5390342446761953,-0.020307322830677155,0.1708497273725884,0.05838495984693326,0.02394249946943844
4.25,0.35374623152312656,-0.012077550801965486,-0.522936414719134,-0.020146056733394424,0.08687045904003599,0.028603721261413195,0.0028831731575448827
4.3,0.40573214538641267,0.015195440810920058,-0.4835567210563485,-0.020003628579772226,-0.0059024282201924905,-0.006231684148116923,-0.01841223608843312
4.3500000000000005,0.4394318166658423,0.03991545535675822,-0.42278159951538496,-0.019801157415586523,-0.10006017976593062,-0.04327559651016388,-0.03854905571091055
4.4,0.4523998862243761,0.06035311496231266,-0.3454507897296788,-0.01952271743649092,-0.1880249578533033,-0.07935572727502782,-0.056056012781266484
4.45,0.44507178741558795,0.0752736984613156,-0.25824654614108433,-0.019172055348977146,-0.2635617908061283,-0.11163140690516271,-0.06982676124221376
4.5,0.42031225182766807,0.08426549788902116,-0.16822250955882412,-0.018758088806807294,-0.32275111703467196,-0.1380574428078496,-0.07940448080379726
4.55,0.3824256208369359,0.08769991949280631,-0.08150647584119985,-0.018293211053683756,-0.3642038755332666,-0.15758185929666602,-0.08493584554892408
4.6000000000000005,0.3360927321615892,0.08649410496786802,-0.002559179917801524,-0.017791674546618896,-0.38862980186747387,-0.170066622042907,-0.08697445397540832
4.65,0.28557587736170176,0.08182234513665176,0.06597086815249731,-0.01726736046172128,-0.3980980271299761,-0.17604120168726367,-0.08625796859709996
4.7,0.23430378759615123,0.07487524192006934,0.12298710949447011,-0.016731825071576445,-0.3953100315370939,-0.1764185259757034,-0.08353345824631458
4.75,0.18477386572940513,0.06670687152651844,0.16851925864036943,-0.016193191632782877,-0.3830598806075558,-0.17225866389271594,-0.07945522965653123
4.800000000000001,0.138644317294897,0.058165100633562616,0.20330571645909346,-0.015656025781056737,-0.36391511337457716,-0.1646103372739549,-0.07454526188593893
4.8500000000000005,0.0969023523526319,0.049880150731576034,0.22846549391915993,-0.01512188059209496,-0.34007429731547856,-0.1544238665779296,-0.0691935419917572
4.9,0.06003762241203858,0.04228537724097481,0.24527411224642082,-0.014590133516074744,-0.3133361837948845,-0.14251481319283554,-0.06367760445935094
4.95,0.028188952967820313,0.035651289362905736,0.25502554389973064,-0.014058798394718242,-0.2851260159097063,-0.1295576817141353,-0.0581875411327043
5.0,0.0012566360244753438,0.030121576993049626,0.2589541276181484,-0.013525306826802641,-0.25654418537064627,-0.11609446554604941,-0.052849174407307575
5.050000000000001,-0.021015951481411776,0.025745805958521384,0.2581939949303902,-0.012986931329110885,-0.2284185574760994,-0.10254935465139836,-0.0477426941114531
5.1000000000000005,-0.03898368119661488,0.022506935027694075,0.25376027761796593,-0.012441110156558022,-0.20135218098355612,-0.08924470166968845,-0.04291661196029778
5.15,-0.05305752738624825,0.02034339321049794,0.24654264997415076,-0.011885643993589934,-0.1757646577824258,-0.07641645502056149,-0.03839758385964981
5.2,-0.06367385950772408,0.019166223034026153,0.23730596936406667,-0.011318795098151924,-0.15192736915368668,-0.06422841286644831,-0.03419714926541306
5.25,-0.07128690906161028,0.01886031530429877,0.22669218403171487,-0.010752405111413843,-0.13001918138803387,-0.052765795460050224,-0.03030424628811118
5.300000000000001,-0.07626982937460558,0.019361975543353838,0.21524811043841074,-0.010122834780290635,-0.1100000607348263,-0.0421722022846549,-0.026762544053400283
5.3500000000000005,-0.07908737935539645,0.02049863562895049,0.2033818424238487,-0.009543991630986959,-0.09200810533449011,-0.03232088776876363,-0.02348244000164812
5.4,-0.08007654624185567,0.022214065850394427,0.19145194889209294,-0.008922599401961495,-0.07588697070441616,-0.023315683748580396,-0.020503065813189947
5.45,-0.07957182475438196,0.024401563421134753,0.17971385968718168,-0.008288773447673314,-0.0615624363571074,-0.0150956705367844,-0.01779216393708094
5.5,-0.07786124287589957,0.026982072735097784,0.16836103691473703,-0.007643010333155953,-0.04891106088307007,-0.007618449165233132,-0.015332985561108403
5.550000000000001,-0.07520587827085617,0.029871650727610888,0.15753266611368222,-0.006984420118143486,-0.0378058455974023,-0.0008346790355096001,-0.013100351844169689
5.6000000000000005,-0.07181136658111764,0.03303962370837632,0.1473170770337895,-0.0063257760658586015,-0.028102458188409563,0.005319824658858163,-0.011088800221369932
5.65,-0.06796018220319638,0.0365106672644433,0.1377595088933048,-0.005722187413703672,-0.019739872090620836,0.010894159314055463,-0.0092734516398979
5.7,-0.0634682545328702,0.039682045911425545,0.12895344897583483,-0.00484570409928331,-0.012281396079933948,0.015854960150711306,-0.007551923960597007
5.75,-0.05894619977166671,0.04347852453381762,0.1207871637411545,-0.004299193416297253,-0.006101641820425996,0.020541781029437267,-0.0061115311794657234
5.800000000000001,-0.12556235412595207,0.11789845840061708,0.04684800328299488,0.10035041963670333,0.10855662061192692,-0.3979478458829938,-0.007880346221740275
5.8500000000000005,-0.33376997903949657,0.313489717267621,-0.17246815285032135,0.38383416687915783,0.45585036138509727,-1.7188527085072325,-0.003195222419661581
5.9,-0.32942822517702863,0.24393637028851778,-0.19367541595781468,0.25128182041809666,0.4974305627484435,-1.8476407347423485,0.04366468337598961
5.95,-0.2923985750708502,0.1731037097708188,-0.18757792755023872,0.12320484614583904,0.48081177317090773,-1.757190593513549,0.0755362164519971
6.0,-0.25866537396164513,0.1349694001469004,-0.1862023902861487,0.048941342112658326,0.4605656856203456,-1.6582640560502449,0.09175673618846122
6.050000000000001,-0.2286910298600292,0.1172281835043476,-0.1873513187397391,0.006865644444278285,0.4396235507389368,-1.5599083840288075,0.0989976569898307
6.1000000000000005,-0.20157579361204547,0.11005663728199444,-0.1889443967204807,-0.01633422828682507,0.4189925336261058,-1.4632157989633177,0.10136793763911425
6.15,-0.17732783714025535,0.11045886152723394,-0.19019760417294362,-0.02962389634805218,0.3982040483599991,-1.3678279392397297,0.1006172976893284
6.2,-0.15540979806648314,0.11398059380504533,-0.1904035250031988,-0.03672865570116812,0.3778240544950906,-1.2742855251316154,0.09828989498757337
6.25,-0.13558205095343168,0.1194444987263732,-0.18943733105543759,-0.04044358143272753,0.357729391517598,-1.182405100092443,0.09485150737778669
6.300000000000001,-0.1176068087209664,0.12586748435355455,-0.1872464093626902,-0.04218350926733283,0.3379132109889754,-1.092213327094429,0.09066822930348967
6.3500000000000005,-0.10124373898660055,0.1327021036902054,-0.18385477623466207,-0.042777913749092455,0.3183360701790344,-1.0036773923156916,0.08593411720863281
6.4,-0.08631988465009122,0.13964798773936193,-0.17933349450597214,-0.04271588647509095,0.29891915468589547,-0.9168000242287055,0.08078680739280863
6.45,-0.0724690787299731,0.1463759253623187,-0.17370156131900627,-0.042137447880157275,0.2797640656685213,-0.8315669896658484,0.07523075023575576
6.5,-0.05974267707944625,0.15300156970212697,-0.16710494979842228,-0.04138538005808101,0.26061175814275916,-0.7480224476373554,0.06941872335281707
6.550000000000001,-0.04785004613635402,0.15926525470512765,-0.1595694459684338,-0.04038494748765942,0.24158575745672706,-0.666254081034503,0.0633392232994473
6.6000000000000005,-0.03668989954667912,0.1651563031630343,-0.15116772938548628,-0.039213039810843675,0.22263411283326762,-0.5863375606823062,0.05704551216541898
6.65,-0.026201380502580696,0.17070776839333668,-0.14197812922071007,-0.03793563854090465,0.20369719514121476,-0.5083777376965282,0.05059972068444385
6.7,-0.016060882052748582,0.17561089749904113,-0.13199999566354093,-0.036372608524768424,0.1850158101268995,-0.4325008678971898,0.043942537988391206
6.75,-0.006532877725071717,0.18026247028662956,-0.12137653107794688,-0.034841605240183426,0.16623493052261296,-0.3587851848843693,0.03730273927096406
6.800000000000001,0.002683002191956607,0.18435995424039175,-0.11011549050614522,-0.033107537599033066,0.1476562916590296,-0.2874295644014424,0.030584648142391035
6.8500000000000005,0.011569668744372263,0.187928822175083,-0.09828602757839366,-0.031231711688097796,0.12925326544701243,-0.21855363501950276,0.023896146818074282
6.9,0.020141429800003552,0.19102790361129163,-0.08596831087732348,-0.029248710201295047,0.11103390228447862,-0.1522896688008757,0.017300210266182336
6.95,0.02850565029937191,0.19340044668802348,-0.07316496131596684,-0.027058295789292863,0.09321248343271638,-0.08878003370730969,0.010800452166102037
7.0,0.03655987098221902,0.1953533371241578,-0.06003073350003385,-0.024821423976191248,0.07563426923578698,-0.02812022439024453,0.004537288505357395
7.050000000000001,0.044379977160582396,0.1967027726202386,-0.04659321934251892,-0.022443093404986847,0.05849917092870749,0.02955431749253279,-0.001493039615001468
7.1000000000000005,0.05192353099452873,0.19754439156107972,-0.0329474292964993,-0.01997811805058536,0.04180983607294464,0.08415474434660286,-0.007208328067683789
7.15,0.05925995107061932,0.19760370757381462,-0.019108116093955463,-0.017357665372483844,0.025798031157800994,0.13561220391282713,-0.01262038816656541
7.2,0.06624009432763867,0.19723031596291962,-0.005212672618527536,-0.014762946144668554,0.010262548745880729,0.18396517585043792,-0.0175666685528586
7.25,0.07295070428544159,0.1962969065238962,0.008634740436889166,-0.012017098199987863,-0.004517090617683905,0.22893924276493838,-0.022135862794961936
7.300000000000001,0.07933415790741138,0.19485948902453254,0.02238944931640119,-0.009271570405466889,-0.018597328386180667,0.2706971451686746,-0.02623205677652951
7.3500000000000005,0.08539898542820223,0.1927533511497148,0.03599038253727094,-0.00643615812626841,-0.03177953425965052,0.30914465633977706,-0.029881120260923932
7.4,0.09105373031579433,0.19024929849700944,0.049335109702985935,-0.003678106382163371,-0.04423925549138508,0.34444654970607225,-0.0329796844394914
7.45,0.09626007386072555,0.18727017562531145,0.0623828289349071,-0.0009594392545331232,-0.055884723740708964,0.37664454925211643,-0.03554269129784182
7.5,0.10122430037140417,0.18380960213956854,0.0750178192095563,0.0018429614621995327,-0.06648157053082304,0.4055940719654094,-0.03775318786529924
7.550000000000001,0.10555361667396013,0.17998291059624583,0.08722838604385386,0.004479974082882698,-0.07633583445918912,0.43161881372405286,-0.03929513023343434
7.6000000000000005,0.10944080476993356,0.17589988940901025,0.09894051938043824,0.007040315184903001,-0.08534619537386656,0.45477194032569557,-0.04038258404191697
7.65,0.11304421329985881,0.17120263208834752,0.11011710530472674,0.009610468644374315,-0.09323526326674436,0.4750862661631228,-0.04116827684687241
7.7,0.11596698759308799,0.16654385016723783,0.12066575102452459,0.011991669535542648,-0.1004764401797198,0.4926846781937799,-0.04133273290945705
7.75,0.11848081898341634,0.1617406727591142,0.13061884623994602,0.014256394572553788,-0.10690511783963186,0.5078455245186353,-0.041141611218666885
7.800000000000001,0.12060847488572057,0.15626680652684133,0.13994440825895071,0.016470366904386413,-0.11222459487151615,0.5205543223331999,-0.04071292486287681
7.8500000000000005,0.12215312860035854,0.15114990314289978,0.1485602534919117,0.018461337585706783,-0.11706260148002412,0.5310361781373896,-0.0397769281341398
7.9,0.12325481713143516,0.14587736290932352,0.15652706283841744,0.02034651546057864,-0.1211096785291127,0.5394410846400666,-0.03859040237394473
7.95,0.12400552129646192,0.14025043258100833,0.16380535889515824,0.022103208694270737,-0.12429348964153375,0.5458969435284855,-0.03724688202597526
8.0,0.12422331055949143,0.13488559919002885,0.17039117987351138,0.023672609257068267,-0.12699221316798293,0.5505502591902989,-0.03555449309783687
8.05,0.12408771425797216,0.12951705845459238,0.1763069708899112,0.025122975551299387,-0.12905402374045305,0.5535626862974485,-0.03372484979770107
8.1,0.1235653699045236,0.12403633262700331,0.1815500672311976,0.026405552744539484,-0.13048983557276073,0.5550575324625018,-0.03177412355483633
8.15,0.12267328282543066,0.11880889652110649,0.1861380568445159,0.027553314415873498,-0.13150307651115856,0.5551794523807185,-0.029654949074501835
8.200000000000001,0.12149297468796671,0.11346153901238387,0.19008006575872427,0.028556214298876004,-0.1319381819779225,0.5540403041920361,-0.027522206807100713
8.25,0.11994825112869423,0.10850027022062392,0.19341362325532296,0.02941348717376613,-0.13210432076905976,0.5517888823467598,-0.025233067227747874
8.3,0.11822143959149267,0.10328864710627883,0.19613976983484438,0.030145548071458528,-0.1316776192808694,0.5484984881001931,-0.023053522189513398
8.35,0.11615946355190587,0.09853753907295926,0.1982906612786406,0.030726508850345002,-0.13111414312405756,0.5443193038071037,-0.020726063811762896
8.4,0.11393753868950807,0.09387114143083464,0.19990182994827577,0.03122583784204158,-0.13018875530498575,0.5393178847895941,-0.01847464697699308
8.450000000000001,0.11150387439899156,0.08922201075393765,0.20097433922584562,0.03157504938844591,-0.12895031708100468,0.5335814387637061,-0.016276736646387846
8.5,0.10892527112924433,0.08486000632312529,0.2015526421182856,0.03184678370148575,-0.12753834796797037,0.5272068215604775,-0.014092955974213672
8.55,0.10619398947129044,0.08050524456067465,0.20164227341957552,0.03198411783398969,-0.12586306551096493,0.5202468844321051,-0.01200719304925102
8.6,0.10336110140391153,0.07644391816110652,0.20128718140770108,0.032058955009108825,-0.124077669380116,0.5127856601384639,-0.009956202670917125
8.65,0.10042563675855543,0.0723682940942666,0.20048575650259637,0.0320112802788064,-0.12207172995049365,0.5048569815732495,-0.008032808544285452
8.700000000000001,0.09742299358999285,0.06859132305905902,0.19928803475459778,0.03191531444177387,-0.12000866406661759,0.49653242112365437,-0.006153794241759436
8.75,0.09507588979740245,0.06451911513668807,0.19784172110387188,0.03198465634640213,-0.11768331643818519,0.4885192137136829,-0.004554115164642769
8.8,0.09217904635882457,0.06106143070501224,0.1958247392463186,0.03172267334833667,-0.11542253355692256,0.47944371758410265,-0.002871774167245711
8.85,0.08895302459956178,0.057421889600305365,0.19347085329177283,0.031365235306897166,-0.11298569956440851,0.47006681755717317,-0.0012544003074599352
8.9,0.08564404633246481,0.05415055701438909,0.19082567524034033,0.030961014219774707,-0.1106334205791154,0.4604715805255677,0.00030616740651079333
8.950000000000001,0.08247503534550726,0.05065202911648192,0.18783026112497936,0.0304954292687043,-0.10805279509948862,0.45063546618635875,0.001587509042898505
9.0,0.0793141251794327,0.04757558118429206,0.1845486604086577,0.030034615572998025,-0.10559835624226105,0.44058770351620646,0.0028632861409141896
9.05,0.07625134397685751,0.044157877150769465,0.18093840555356122,0.029494685172627433,-0.10287757745873011,0.4302979383094696,0.00388876130037602
9.1,0.07317695415723524,0.041128201676266796,0.17704341639122545,0.028923654171555402,-0.10033002840619559,0.41982931921884403,0.004933165282162977
9.15,0.07019013594819601,0.038071524861215955,0.17288304936331989,0.028354833728130302,-0.0976796968412072,0.40914504751410563,0.005823594909341034
9.200000000000001,0.06721168093589414,0.03494257051862737,0.16842904790169644,0.027694402596579182,-0.09497362158133404,0.398254351025189,0.006592617804679901
9.25,0.06430485639241257,0.031951460517920804,0.16372530493460963,0.02705084708939709,-0.0922862928417656,0.3871661780173896,0.00729163490438528
9.3,0.06140868343308348,0.028867715767508795,0.158742703384826,0.02632193634189317,-0.08954343529062825,0.37586557522399033,0.007866521546641692
9.35,0.05858425605185513,0.025901451534114106,0.1535197456490381,0.025616252721635258,-0.08682209026942556,0.36435734243971507,0.008373525419302086
9.4,0.055769108505610565,0.02282418435961525,0.14802661144704937,0.024829422366517973,-0.0840428432643281,0.35262123671707,0.008759767140835428
9.450000000000001,0.053022574364074426,0.019847803070884296,0.14229754581439408,0.024069736718609902,-0.08128648002661276,0.3406596020690644,0.009083450275173544
9.5,0.05028062671941169,0.01674403690629045,0.13630303729758597,0.023231506794457735,-0.07846721255804476,0.32844764096227275,0.00929147869606628
9.55,0.04760146658255138,0.01372707985913546,0.13007393778035004,0.022423357074257688,-0.07566952251144884,0.3159861943342246,0.00944308266574212
9.600000000000001,0.04491932686394445,0.010568529886124112,0.12358039186120662,0.02153825233020712,-0.07280268231063466,0.30324680391146774,0.009484805546808306
9.65,0.042290979343005686,0.007486588551320894,0.11685161993084114,0.02068516632743822,-0.06995475736621737,0.2902296803480886,0.00947673041137867
9.700000000000001,0.039652677975912376,0.004243269682057127,0.10985641900977505,0.019757229873142157,-0.06702495022360727,0.2769027068943586,0.009362359531487757
9.75,0.03705379547981863,0.0010766039740542355,0.10262447749292539,0.018861206458426205,-0.0641143716543928,0.2632668775357422,0.00920753710429753
9.8,0.0344387273560684,-0.0022742570924014216,0.09512115394571918,0.01789226520748366,-0.06110594996280999,0.24928694490106873,0.008947792711302277
9.850000000000001,0.031845688591935206,-0.005544292250874022,0.08737905764562973,0.01695523515102687,-0.05811624952489214,0.23496469412545296,0.008657589588560027
9.9,0.029231198577757134,-0.009023553534377449,0.07935854020160546,0.01594624162887831,-0.055010238714331416,0.22026303278853743,0.008261956636142903
9.950000000000001,0.026615658552304744,-0.012405543346324377,0.0710981485453134,0.014969747330139671,-0.051926404818535554,0.20518402792491286,0.007848831192486805
