SilviaXuva/Vision-guided-robot-manipulator/Helpers/Outputs copy/2023-12-09_21h08m34s/red3/Align/Joint Comparison/q_dot_dot_Real.csv
,q0,q1,q2,q3,q4,q5,q6
0.0,0.0,0.0,0.0,0.0,0.0,0.0,0.0
0.05,0.00017023338404817572,2.3093279676788084e-05,-0.00011821819264076692,-0.0011037397884924214,-0.00021242804634949926,6.261744629046536e-05,0.00020102908564564913
0.1,0.001278177170871679,-0.00046851754508601696,-0.0006965248341199445,0.0004968075188106777,-1.322218200057698e-05,-0.002783946767343999,0.0014101617973733026
0.15000000000000002,0.0030444860765973963,-0.0017195230874350609,-0.0016727314843721654,0.0027999663069006235,0.00015623241946813315,-0.006690965688009141,0.0033480978967241255
0.2,0.005125234281783782,-0.0033331513786789184,-0.0028770866711440757,0.005394206099911031,0.0003011081562426677,-0.01071937159818114,0.0056340442545909
0.25,0.007325844342366113,-0.005120640060025931,-0.004210358688009483,0.008116452298268729,0.0004702180261054417,-0.014602067298985109,0.008048375074686013
0.30000000000000004,0.009533496018931071,-0.006979023370169324,-0.005623510969297057,0.010888266315391712,0.0007257748627265961,-0.01827940429474207,0.010462350916750613
0.35000000000000003,0.011679018595636444,-0.008844717777490378,-0.007102062302007472,0.013660655373881114,0.0011349361962695835,-0.02175151213393782,0.012799190718368368
0.4,0.013714669696703709,-0.010680290764748688,-0.008654443084160357,0.016399918822691928,0.001768819015548215,-0.025037274854490515,0.015012497434932215
0.45,0.015600382719986707,-0.012465903064159253,-0.010303233426372151,0.019081395689126604,0.002702846491023682,-0.0281593020577418,0.017074476884730728
0.5,0.01729459496394775,-0.014192715209079675,-0.012078152135569977,0.02168581972334711,0.004016648019934694,-0.031138212228503347,0.018969954587308747
0.55,0.0187475014699523,-0.015858403303719328,-0.01400982699978454,0.02419735531887457,0.005793019129069765,-0.03399115474622877,0.02069381192351588
0.6000000000000001,0.019895614079614796,-0.017464299240897724,-0.016123580090426637,0.026602635189279262,0.008115768607448934,-0.036731956533347654,0.022250313146183233
0.65,0.020657174812721713,-0.01901359952612024,-0.018432651350174627,0.02889033865878717,0.011066376208579455,-0.039371684803334306,0.023653235967933794
0.7000000000000001,0.020928398634958087,-0.02051024780593179,-0.020930464137414104,0.03105105409446248,0.014719479768390692,-0.04191918500183418,0.024925897227557198
0.75,0.020580755536729715,-0.021958238753992422,-0.023581733800657374,0.03307728432999927,0.01913740389568805,-0.04438148102158514,0.026100194878550358
0.8,0.019459532166771973,-0.02336118787806759,-0.02631244739929168,0.03496351069640816,0.02436428803337179,-0.046764043843554315,0.027213768324305353
0.8500000000000001,0.017383664029336707,-0.02472207377431982,-0.02899897124936969,0.03670626233968178,0.030420880766487274,-0.04907096849613532,0.028304412524903372
0.9,0.014146179904634681,-0.026043097550376357,-0.031456674981538285,0.038304156173160145,0.03730168543842394,-0.05130510095488525,0.02940107679995252
0.9500000000000001,0.009513413583287222,-0.02732562641588932,-0.03342829988374669,0.03975788531427306,0.04497672183508161,-0.05346814773268413,0.030511241270202508
1.0,0.0032192985361652326,-0.02857019995918867,-0.034571534372086,0.04107014470967972,0.05340045449122574,-0.055560789150006645,0.03160526045986302
1.05,-0.005051505020119557,-0.029776583878226882,-0.03444347035012965,0.042245490811344474,0.06253008689311321,-0.05758280729103643,0.03259939528560962
1.1,-0.015701280784739258,-0.030943858758213857,-0.03247628739948362,0.043290140744878594,0.07235405487336005,-0.05953323183998882,0.03334067425631859
1.1500000000000001,-0.02929185893989883,-0.03207053445737233,-0.027933007100960916,0.04421172212371226,0.08292877434407958,-0.06141050431760997,0.033598501496229366
1.2000000000000002,-0.046672881822096,-0.03315468281075873,-0.019823500238891067,0.045018990515216656,0.0944168557447167,-0.06321266320035657,0.03307070768518647
1.25,-0.06919740463742025,-0.03419408218238301,-0.006747246524429484,0.04572153545897788,0.10711123608984158,-0.06493756080372892,0.03141775676268721
1.3,-0.09907584232593997,-0.035186361762137436,0.013393090038950894,0.046329498846749,0.12141131184517234,-0.06658313750548761,0.02835408888634483
1.35,-0.13995210288528348,-0.03612910919206777,0.04390083868524547,0.04685333348159654,0.1376730565740697,-0.06814779994635117,0.02386487435432405
1.4000000000000001,-0.1978313492033884,-0.037019838689386075,0.09017036712668514,0.0473036386517911,0.15574232162944596,-0.06963096493053156,0.018715295970234413
1.4500000000000002,-0.2825081494801812,-0.03785553228883701,0.16116935654333808,0.04769109887174855,0.17368912651316015,-0.07103378902671043,0.015661954130018474
1.5,-0.40942447873544396,-0.038631020356383605,0.2716841488913091,0.04802658288885708,0.18452717713931477,-0.07235991378598705,0.022345865937046516
1.55,-0.600531252383586,-0.039334582689707215,0.4446451267021856,0.048321507188092416,0.168016833852625,-0.0736147594696307,0.058026016759645804
1.6,-0.8770081354778403,-0.03993818035538915,0.7085039592730336,0.048588414863656726,0.07188168889865482,-0.07479734806365879,0.16770789604335187
1.6500000000000001,-1.2182758932062465,-0.040385307941352144,1.068654496733198,0.04884155695265152,-0.2206490920534443,-0.0758660544363543,0.44220245292690985
1.7000000000000002,-1.4322001737973689,-0.040622401691743915,1.3984736610179116,0.04909577503535628,-0.8907027517879959,-0.07665466088832174,0.9971766197932813
1.75,-0.9911711668967227,-0.040821078937876426,1.2557508174191456,0.04935637508040963,-1.9230272308738554,-0.07688119431798035,1.7320905317697677
1.8,0.49052474991520656,-0.04160666680409153,0.1668111949711948,0.049579341725119186,-2.481587747891527,-0.0768352912809267,1.8989368588766486
1.85,1.9585046556783858,-0.042962013331650506,-1.1976568360458706,0.04961855048174535,-1.547946846281767,-0.07780323020454893,0.8627708414483837
1.9000000000000001,2.064203088608201,-0.04350929558001787,-1.594926235424463,0.04940073077667528,-0.013663529079539494,-0.07951059804149507,-0.37929381629105974
1.9500000000000002,1.341080772506399,-0.04310587434141547,-1.2049893001765988,0.04923605458490021,0.7676917944245476,-0.08041016646153532,-0.8271641962588339
2.0,0.6979349159732121,-0.042663572095641006,-0.7454564868692979,0.04936843102401556,0.862397240832049,-0.08055872390891894,-0.7381294581804587
2.0500000000000003,0.32729520324691463,-0.0424256607826512,-0.444754913799069,0.049553222826954624,0.7249311364324074,-0.08052140047651868,-0.530636203821131
2.1,0.13914924122470695,-0.04225080732629699,-0.2738796578945088,0.04966911233773352,0.5636791360537918,-0.0803227960649644,-0.352032826091091
2.15,0.04669592703794412,-0.04201265668394544,-0.17874813829166836,0.04957951619322554,0.43090440819999465,-0.0801543196308685,-0.22187657859003007
2.2,0.0016109707309985843,-0.041696224981859625,-0.12477293720265736,0.049428253094284114,0.3309149818169477,-0.07995170236747895,-0.13075319658624185
2.25,-0.020114338196861592,-0.04132130999532871,-0.09310112973073492,0.04927887306026002,0.2573443169622358,-0.07971157836457521,-0.06715142740529867
2.3000000000000003,-0.030185583086540513,-0.040904826877056766,-0.07373651919404645,0.049143371186551876,0.20320835815310634,-0.07942075188802966,-0.022386933948563836
2.35,-0.03435036458830365,-0.040456034433093147,-0.06134550885896428,0.04901395162090649,0.16296143308630384,-0.07906829531408532,0.009494511684899898
2.4000000000000004,-0.03547705253380551,-0.039977959232324056,-0.05303296653983547,0.04887814903195897,0.1325897202891957,-0.07864775946715752,0.032477256507625896
2.45,-0.03502757264701173,-0.0394702469683203,-0.04719165183568519,0.04872527754357647,0.10928363574152167,-0.07815657143124821,0.04922469560970866
2.5,-0.033765344159362165,-0.03893129152700736,-0.04290544892974091,0.04854789254406855,0.09109583500019669,-0.07759467863074687,0.06153173027048764
2.5500000000000003,-0.03209951049846782,-0.03835944196291047,-0.039636443802988364,0.04834132639755517,0.07667378860660268,-0.07696342283981306,0.07062297938539963
2.6,-0.030254956668163135,-0.037753550273181835,-0.0370583957490922,0.04810285896203026,0.06506967523364215,-0.07626475395396626,0.07734605636321445
2.6500000000000004,-0.0283579065955053,-0.03711313232310137,-0.034966572449607325,0.047831006082323935,0.055610567074910744,-0.07550087403047301,0.08229665277632359
2.7,-0.02648007844632816,-0.03643832356614973,-0.033227945362472866,0.04752497482454099,0.047811330056648504,-0.07467403233583303,0.08589989227715034
2.75,-0.024662099970708118,-0.03572976507543485,-0.031753060182755366,0.047184363893809644,0.04131644558143632,-0.0737864477695005,0.08846376215432272
2.8000000000000003,-0.022926334273660753,-0.03498847382539888,-0.030479760334520822,0.04680898273197842,0.035861047568646054,-0.07284026962536605,0.09021460829699235
2.85,-0.021284143701113534,-0.03421572480370949,-0.029363521413947602,0.046398761610781936,0.031244623249495618,-0.0718375750357314,0.09132103180575335
2.9000000000000004,-0.019740148181156547,-0.03341295636994229,-0.028371554512773844,0.04595371138588211,0.027313066365248773,-0.07078037540237503,0.09191020173825004
2.95,-0.018294802856126946,-0.03258169967690655,-0.027479109637376098,0.0454739089621492,0.02394626756429208,-0.06967062455815132,0.09207915151968615
3.0,-0.016946002413140704,-0.031723528664106826,-0.02666709518812871,0.04495949409792699,0.021049408802515934,-0.06851022606079837,0.09190271393688221
3.0500000000000003,-0.015690102083778523,-0.03084002614269471,-0.025920504442886738,0.044410669998352637,0.018546763829336843,-0.06730103904883489,0.09143917294121895
3.1,-0.01452257780869548,-0.02993276179729165,-0.02522734917379532,0.043827704125058986,0.01637721645767476,-0.06604488283367127,0.09073434307036665
3.1500000000000004,-0.013438456982254321,-0.029003278663073118,-0.024577919633295142,0.043210927777004304,0.014490972793177459,-0.06474354059641696,0.08982455103659026
3.2,-0.01243260001153712,-0.028053085411486323,-0.02396425943583802,0.042560734146361856,0.01284711529729643,-0.06339876247453358,0.08873884049686032
3.25,-0.011499883174385106,-0.02708365250394279,-0.02337978501823157,0.0418775749886402,0.011411758974679831,-0.06201226826054285,0.08750062002007564
3.3000000000000003,-0.010635315345158824,-0.026096410804282433,-0.022819004420473465,0.041161956300490576,0.010156644236658519,-0.06058574981406384,0.0861289071108895
3.35,-0.009834110074805613,-0.02509275171813735,-0.02227730560564689,0.04041443331085803,0.009058050750245794,-0.05912087326769511,0.08463927577525121
3.4000000000000004,-0.009091727416978834,-0.024074028178495688,-0.02175079441077532,0.039635605159247245,0.0080959501971134,-0.057619281023970625,0.08304458424359229
3.45,-0.008403895287147911,-0.02304155605614061,-0.021236168520766263,0.03882610949675458,0.007253339001149772,-0.05608259354152878,0.08135553800734385
3.5,-0.007766617048563518,-0.021996615710673517,-0.0207306180543676,0.03798661719677021,0.006515708102887707,-0.05451241089753367,0.0795811284021486
3.5500000000000003,-0.007176169961679024,-0.020940453503870693,-0.020231746106764703,0.0371178273155337,0.005870618192995725,-0.052910314118637114,0.0777289763204636
3.6,-0.006629097687662622,-0.019874283167121976,-0.019737504502137515,0.03622046238471066,0.0053073568424877315,-0.051277866249166415,0.07580560306417627
3.6500000000000004,-0.006122199079112711,-0.0187992869619652,-0.01924614128955726,0.0352952641012827,0.004816659819564251,-0.0496166131697362,0.07381664482347006
3.7,-0.005652514781537832,-0.017716616608547953,-0.01875615744114212,0.034342989424482884,0.004390483092622244,-0.047928084151984685,0.07176702326060269
3.75,-0.005217312713980959,-0.01662739396880386,-0.01826627083784338,0.03336440711712907,0.0040218151867921215,-0.04621379215840715,0.06966108169217611
3.8000000000000003,-0.0048140731435153405,-0.015532711496954177,-0.017775386100488122,0.03236029470247148,0.0037045218741216246,-0.04447523389333963,0.06750269416110122
3.85,-0.004450815791776641,-0.014124672599276633,-0.01730257830806048,0.031228563693033173,0.003433442076137272,-0.042672788136022266,0.06529313533788939
3.9000000000000004,-0.004077084736334724,-0.013644399222159098,-0.0167661166282429,0.03036490869753994,0.0032080445816218273,-0.041110757016107335,0.06305463949713985
3.95,-0.0037775502927994697,-0.012268175248844604,-0.016278529443422007,0.029239106576277596,0.0030162616082662908,-0.039076424681293576,0.060736669517917896
4.0,-0.0034810857101252868,-0.011098211224124799,-0.015785697084511607,0.028095371611998043,0.0028502032720156834,-0.03724034834878265,0.05840587180795165
4.05,-0.003202688757263372,-0.009999577314558916,-0.015281458851265084,0.02697457644644574,0.0027171791822122593,-0.035446097686832045,0.05603787370193736
4.1000000000000005,-0.0029473227245635503,-0.008901317914714324,-0.014768356492115275,0.025838197993970358,0.002615211250716065,-0.033612274520198326,0.05362936319021405
4.15,-0.0026937139610039296,-0.007853129208937881,-0.014234157475412346,0.02467517774884964,0.0025450669126736436,-0.031826507528320835,0.05118304928735218
4.2,-0.0025079161830787733,-0.00667527264633011,-0.013735187201074917,0.02349449362363698,0.0024828219588735045,-0.02983603189850359,0.04872262576833819
4.25,-0.002295207810831812,-0.005592575286729462,-0.013198667135690956,0.022316659485437373,0.0024438611562160872,-0.027953339520350173,0.04620921700083769
4.3,-0.0021060949048024025,-0.004234727167918839,-0.01267594850023035,0.02099752625661866,0.0024244791193384074,-0.02600618000518584,0.04368322116164114
4.3500000000000005,-0.0019423359486470115,-0.0036819470875615323,-0.012110901461062085,0.01993068202586379,0.002437931045049524,-0.024362926749579294,0.041145793475871884
4.4,-0.0017841367144466602,-0.00234588393542845,-0.011569288153068236,0.018636930706421584,0.0024406607602256436,-0.022161177772846985,0.03854500748192491
4.45,-0.0016375313200900354,-0.0012265820075263445,-0.011027512615218171,0.017341434105411224,0.00245825049323134,-0.020250965656172237,0.03595979210338163
4.5,-0.001503127932295234,-0.00016385363473869763,-0.010470615949533801,0.016057200427069818,0.0024942443729569774,-0.018361761744755123,0.033348901054959246
4.55,-0.0013808715724639153,0.0008955139762995001,-0.009904884572479178,0.01476552426580624,0.0025425640760801116,-0.016443141246225146,0.030716843209018796
4.6000000000000005,-0.0012694623511833036,0.0019511516908432558,-0.00933349874265077,0.01346169122500962,0.0025994463429146464,-0.014508842498580643,0.028069038897465814
4.65,-0.0011545771044774167,0.0033327365993002234,-0.008772822016470672,0.0120530143264308,0.0026533404741724276,-0.012476969843219221,0.025408230271911636
4.7,-0.0010932125444484964,0.003662517024913825,-0.008145777850615543,0.010868761993948484,0.0027710707130323975,-0.010905394619807884,0.022744928658781083
4.75,-0.0009915124116266494,0.00505283614228913,-0.007581071297676489,0.00952361499375054,0.0028083103361487005,-0.008591545275797863,0.020039710094671426
4.800000000000001,-0.0009143463133931551,0.006125688640629123,-0.006996802992330631,0.008134239302863833,0.0028847446855073677,-0.006662804418450241,0.017358054766767328
4.8500000000000005,-0.0008462306220335947,0.0071218420515978265,-0.006398239586964394,0.006763095768997918,0.0029714164841121438,-0.004776089054986388,0.014662220225973854
4.9,-0.0007835042754689159,0.008107171124287771,-0.005788744818264746,0.005393354610871981,0.0030648578657477277,-0.002877116886446096,0.011956456073094479
4.95,-0.0007043139407247878,0.009452525630622155,-0.005195072450807636,0.003932683156266936,0.003140344662807548,-0.0008446515394144871,0.009248194450715008
5.0,-0.0007169763769110382,0.009642504968338794,-0.004527404117763423,0.0026833008789928225,0.0032994397197239067,0.0006896850276383315,0.006543380531385257
5.050000000000001,-0.0006427809596387668,0.011046109011942917,-0.00394732006689269,0.0013106474381296973,0.003329563847719319,0.003035233929251091,0.003815795524634291
5.1000000000000005,-0.0006053452490945022,0.012065435337358377,-0.003332696061277285,-0.00013230176596157328,0.003417666884002468,0.0049249631014475215,0.0011126588192722497
5.15,-0.0005715232812697479,0.01295307099822951,-0.0026940736607111715,-0.0015456346494829853,0.0035184162648416173,0.006741328107603972,-0.0015999031428182153
5.2,-0.0005465290436068582,0.013841004031336368,-0.002033359890493136,-0.002936991762545471,0.003641598868460161,0.008598277182214065,-0.004307644459183857
5.25,-0.000523068579754149,0.014880511590922851,-0.0013984884008616527,-0.004381756379639445,0.0037379783739199812,0.010475167966445542,-0.006998052355351447
5.300000000000001,-0.000521869440592293,0.015619299446643087,-0.0007888343536599507,-0.005708314493358957,0.003773221275403804,0.012427264102728985,-0.009702253920541581
5.3500000000000005,-0.0005000941158311845,0.01662266275177321,-0.00013780741132785046,-0.007143818083673592,0.003861844080225163,0.014339553866581367,-0.012393323297907877
5.4,-0.0004917309169705231,0.01747864226879864,0.0005168198287047732,-0.008563842290170709,0.003946450848258953,0.01614629747458962,-0.015073289201197326
5.45,-0.000491000370747563,0.0183351196419812,0.0011829791636497333,-0.009968659575035899,0.004039436771899885,0.01796777921191095,-0.01774147457904829
5.5,-0.0004916573391927637,0.019187484764442986,0.0018852167587374291,-0.011392769328320562,0.00417172949184863,0.019718901217734564,-0.020396227227530428
5.550000000000001,-0.0004952318627376995,0.020007900249151278,0.0024718445970772773,-0.01272834037223225,0.0041336597795260666,0.021712504789348497,-0.023041464096523745
5.6000000000000005,-0.0004951748780535059,0.020890103939236182,0.00314607626850677,-0.014158769339566168,0.004205997241650272,0.023503954559233042,-0.025676243847551072
5.65,-0.0005110449121517591,0.021678598596202303,0.003822807219835689,-0.015563876133671828,0.004275843148280334,0.025245875905415827,-0.028290786138401858
5.7,-0.0005181519168084847,0.022578815781076067,0.004522433645376411,-0.0170002606904629,0.004370286962400716,0.02697719187953862,-0.03088396331509702
5.75,-0.0005617828625512078,0.023124843770643277,0.005148121494437108,-0.01828854139027114,0.004343800102181716,0.028759713736533632,-0.033469122127779416
5.800000000000001,-0.0005613523029862622,0.02407854915793456,0.0058185012919095835,-0.019690671286731187,0.00437152012772668,0.030602372656535204,-0.036030549764686226
5.8500000000000005,-0.0005804443652032698,0.024804518233978445,0.006512477551808282,-0.021078031569165545,0.004416037951189833,0.03226508432979225,-0.03857513309655669
5.9,-0.0005885070080846599,0.025714912031809534,0.007206349976826287,-0.022499656808229185,0.004464099379174469,0.033957242288038536,-0.041083039423344125
5.95,-0.0006821339827690898,0.026043631212439577,0.00785600912772716,-0.023743642125325093,0.004441221723316957,0.03554561409866708,-0.04357849184412288
6.0,-0.0006669177055064479,0.027046638440660353,0.008514619932771528,-0.025095692900464206,0.004404306674912206,0.0374144203301463,-0.04605015327270312
6.050000000000001,-0.0006981935658748051,0.027744516613897596,0.009200312382594,-0.02645852882268207,0.004403361196931299,0.03900546089662782,-0.04849475405640402
6.1000000000000005,-0.0007208228208406553,0.02848880994277464,0.009942201491258684,-0.027829781922276697,0.004468384013752713,0.04053264043560323,-0.050907544287169815
6.15,-0.0008319910664186803,0.028913195825399085,0.01053348740976734,-0.029034146078579237,0.00435273306544276,0.042140674890792096,-0.053275001535868505
6.2,-0.0008117591171168809,0.02975908806989197,0.01123252694412713,-0.030336942790812338,0.0043098146047640395,0.04384475984020586,-0.055651221503022485
6.25,-0.0008608813887963501,0.03042177906611737,0.011905944118939527,-0.03163798059450995,0.004269168064768569,0.04536589042470063,-0.057963237984878235
6.300000000000001,-0.0009322814677599142,0.031046904848865964,0.012619546345308263,-0.03293622716086242,0.004287888475153767,0.04677180828605798,-0.060238876298046584
6.3500000000000005,-0.000968125743721765,0.03162907694327893,0.013207508522540268,-0.03411373155876085,0.0040909716884421354,0.04840866738669902,-0.06249772979897039
6.4,-0.001014387595422231,0.03226286873262846,0.013917026538892707,-0.03536119062063192,0.004066415671839935,0.04986243012370439,-0.06471590192394516
6.45,-0.0009815138852660443,0.033002445178949014,0.014591361429620031,-0.03660672439804724,0.0039482364062463915,0.051353419285621316,-0.06690284691409087
6.5,-0.0011902499132762298,0.03317745093109198,0.015194532762601298,-0.037709921453731865,0.0038443839753939113,0.05261738491231627,-0.06900337640965759
6.550000000000001,-0.0011744645094838302,0.03401308553831972,0.015886813188804028,-0.03889550543944298,0.0037577701284711995,0.05416473347831352,-0.07110917869270872
6.6000000000000005,-0.001168897293304591,0.03485589802919131,0.01655250508094619,-0.04014556915072742,0.0036604852666720367,0.055520080724916765,-0.07314680303127541
6.65,-0.001433233260644054,0.03461627734870243,0.017183501745879903,-0.04114428766792799,0.003563616833651556,0.056543583461853286,-0.07514308056779773
6.7,-0.001377816555645367,0.03560293708884277,0.017831172386077454,-0.042233753775968164,0.003409786031703249,0.05813436077010126,-0.07709772809989968
6.75,-0.0013762073867366886,0.03640610652675291,0.01846745006660766,-0.04342456295245822,0.0032748963728431585,0.059396992446996144,-0.07898967968653081
6.800000000000001,-0.0016364224745227252,0.036168312945155934,0.019080140419136804,-0.04435641814144187,0.0031495509007712502,0.06033061990973976,-0.0808417921612048
6.8500000000000005,-0.001603752231249117,0.03704156439491735,0.01970108647565555,-0.045375314562104974,0.0029758387528508977,0.061773111327413366,-0.08263705901667251
6.9,-0.0016008743223713817,0.037719906974770234,0.020330710378301253,-0.04647035284867318,0.002827030473851371,0.06291144789584202,-0.0843768303690462
6.95,-0.0018656097566042973,0.03759154188102326,0.020887182462012432,-0.04732713802417576,0.002663581664112359,0.06378692256415575,-0.08604764496865147
7.0,-0.0018434108911109803,0.03831617260847131,0.02149470114840707,-0.04826358973344769,0.0024819353489806233,0.06506999156928539,-0.08768046140025465
7.050000000000001,-0.0018769340395487222,0.038837333332793766,0.022088513034741464,-0.04923889497856826,0.002318855408963774,0.06605753910915002,-0.08924019198278732
7.1000000000000005,-0.0020707702848764276,0.03891174658497212,0.02261770109204947,-0.0500381026682678,0.0021277567874018397,0.06693314331651212,-0.09072936903706919
7.15,-0.0021062728282643384,0.03942584784255507,0.023176894180574337,-0.05088082563888319,0.001937938397275768,0.0679762526913874,-0.09216697171642807
7.2,-0.0021680814662541903,0.039791241678322625,0.02374436354184578,-0.05172056117138085,0.0017806102176458338,0.0688024868979098,-0.09353594277590804
7.25,-0.0023020583158119,0.03998785575215616,0.024232487022659843,-0.05243944127437089,0.0015596774970438182,0.0696532795698307,-0.09482495008221625
7.300000000000001,-0.0022989046974525307,0.040580934941348706,0.024751880523543046,-0.05324971072887735,0.001367525730038427,0.07053753933930984,-0.09605004939247541
7.3500000000000005,-0.002559786892026572,0.040303571514905545,0.025228407526631802,-0.0538290387826576,0.0011895962935067061,0.0710464829759444,-0.09720839109699397
7.4,-0.0025516672169356713,0.04086180405196482,0.025710030198553002,-0.05448467963463377,0.0009829761171872148,0.07195369259061668,-0.09828517459830044
7.45,-0.0026117609171270872,0.04119912132730802,0.02616351822300439,-0.05515705615693589,0.0007892583651232521,0.07258905486770661,-0.09928275282869325
7.5,-0.0027666061633738193,0.041212574632950444,0.026583757524219487,-0.055689851156824344,0.0005911449094102295,0.07310094713736448,-0.10020816483971073
7.550000000000001,-0.002751243042149465,0.04173173013930387,0.02698890854519756,-0.05631692837657215,0.00037187232967604567,0.07373014331335248,-0.10104919583314165
7.6000000000000005,-0.0030531716790538344,0.04120822185724335,0.027415186015827403,-0.05663723059666392,0.0002606112367042196,0.07394343541003989,-0.10182279774395564
7.65,-0.002994137004022901,0.0417744343734823,0.02775702388650575,-0.05710618409368512,3.117215253700678e-06,0.07466884730575163,-0.10249060835895274
7.7,-0.003026873092284166,0.04205376174876027,0.02810846868203362,-0.057598408779580834,-0.00017684104538860657,0.07504080368143429,-0.10307969849150389
7.75,-0.003254319857307897,0.041766395035832196,0.028402536281946222,-0.05788327686001765,-0.0003548649184278996,0.07515389234469927,-0.10358738304604542
7.800000000000001,-0.00326509473167369,0.041976704404143514,0.028713018899907544,-0.05819238114024655,-0.0005387542548312974,0.07551904257637354,-0.10400999893026952
7.8500000000000005,-0.0033545488508272825,0.04203257311782137,0.028973842290831164,-0.05848836540782526,-0.0007014136291106504,0.07562563803786282,-0.10433024957547832
7.9,-0.0034400798853682912,0.041946755122739196,0.029210529752683734,-0.05865226936715234,-0.0008866386969170331,0.0758083253629227,-0.10456958756179524
7.95,-0.003438008168453466,0.04214344504964558,0.029424843537995127,-0.058891830639257736,-0.0010507978369964782,0.07593288229186923,-0.10470356754908705
8.0,-0.0036870634513617995,0.04163361848353482,0.02958240265147738,-0.05889892925435819,-0.0011895769152524965,0.0756911497866325,-0.10475115777056954
8.05,-0.0036581943388373783,0.041765292684012925,0.029743533970673086,-0.05896031396319196,-0.0013523471509117868,0.07578459894939993,-0.10470084179439565
8.1,-0.0037009298488478726,0.041720605723444895,0.02985331861590404,-0.05901340658245213,-0.001497425496191085,0.0756386294048006,-0.10454454732813978
8.15,-0.003814054200758643,0.041409350887995355,0.02993300905185889,-0.058928763972046494,-0.0016253265386164534,0.07534819313087748,-0.10429618253281925
8.200000000000001,-0.003808457319851022,0.04136949391105954,0.029984763755269428,-0.05887130065827653,-0.0017587540026354348,0.0751227440702823,-0.10394049024098378
8.25,-0.003968542508521605,0.040880490872663156,0.029986005781480474,-0.05864566996737916,-0.0018618157652288553,0.0746303609681151,-0.10348462560335087
8.3,-0.003968383137788883,0.04073662238803413,0.029960381133269515,-0.05843011882868801,-0.001984522626818086,0.07428587653312224,-0.1029226209411549
8.35,-0.003977121009346718,0.04047536780506258,0.029922475168206036,-0.058190890981582866,-0.002066017815615731,0.07376982769904783,-0.10225545570406169
8.4,-0.004060594775006296,0.04002548297432677,0.02980848572714509,-0.05782635834192945,-0.0021612755525274308,0.07312616326399207,-0.1014762602962116
8.450000000000001,-0.004051174474040756,0.039749291254966394,0.02967423186367016,-0.057472536547538006,-0.002242914094537918,0.07248975457616741,-0.10058853703398929
8.5,-0.004143491424279666,0.03915785400548044,0.029492696197486457,-0.05697210711387096,-0.0023040409049124647,0.07166486723767546,-0.09959382080065388
8.55,-0.004047952353415929,0.03894640294104315,0.029287626414393753,-0.056533953149792565,-0.002378052424402352,0.07094621376179347,-0.09848310670659693
8.6,-0.004245551198324357,0.038013449541754486,0.029018550992880726,-0.05585215447722648,-0.002392095274021573,0.06980375454640877,-0.09726145521136959
8.65,-0.004146254940590732,0.03768420826593122,0.028727324916781455,-0.05522677508694285,-0.0024536238844387673,0.06896633853169437,-0.09592317034680664
8.700000000000001,-0.004131814629537434,0.037144566559232164,0.028394714402691854,-0.05457851311341487,-0.0024612432365555235,0.06781067369385455,-0.09446410020082535
8.75,-0.00415522095072049,0.03637180761074905,0.028010176016767876,-0.05376790135543076,-0.0024853708767689706,0.0666454864025462,-0.09289220664276399
8.8,-0.004126953717380061,0.03573524147631426,0.027577845313566385,-0.0529501503941536,-0.002494971505512065,0.06539146631969792,-0.09119532239789563
8.85,-0.0040726686199261605,0.035048051337088285,0.027126520602937174,-0.05209653291773399,-0.002473534840136231,0.06401866765186823,-0.08938052610366273
8.9,-0.004089530929100027,0.034144604382155934,0.026599965501428943,-0.05109822960546663,-0.002462927175275859,0.0625076322177863,-0.08744264522037526
8.950000000000001,-0.004021708030025953,0.03338346216703557,0.02605573715898188,-0.05010283386301134,-0.002417711373192493,0.06092521232619136,-0.08537967150498038
9.0,-0.004015480547572437,0.032357206382959344,0.02544957865814032,-0.048944607592194024,-0.0023857143931978013,0.05930089881594228,-0.0831924738205829
9.05,-0.003935634869304365,0.031496063308207034,0.024795953345162075,-0.04778761617461031,-0.0023443835403282737,0.05759343803509197,-0.08087457580530116
