SilviaXuva/Vision-guided-robot-manipulator/Helpers/Outputs copy/2023-12-09_18h06m43s/green7/Align/Joint Comparison/q_dot_dot_Real.csv
,q0,q1,q2,q3,q4,q5,q6
0.0,0.0,0.0,0.0,0.0,0.0,0.0,0.0
0.05,0.5205741022633578,-0.16375124525587523,-0.3628510337805323,0.10921299107901292,-0.5803254735553468,-0.20779153258952676,0.4699173977951282
0.1,0.09130917992053768,-0.09534906580198788,-0.06335483910374036,0.09377701023483052,-0.11049475864285327,-0.0432949707078056,0.08404670937806988
0.15000000000000002,-0.09183852867712748,-0.04663817706934789,0.06587354163638315,0.07264172729291064,0.0877926126150004,0.02708555001558522,-0.08606000473594617
0.2,-0.1195014303289265,-0.023986119843162623,0.08610522529520118,0.05790439408272022,0.11297405779002845,0.03617515650899468,-0.11664416570962018
0.25,-0.09749375737294501,-0.013973465144247257,0.07145200116702263,0.04970358197318406,0.08247453793389349,0.025308013241129197,-0.10233186753709066
0.30000000000000004,-0.06689940465355058,-0.009901706146236977,0.05079455022732116,0.04667959808065662,0.042120878065018755,0.010681087152524353,-0.08005488221201978
0.35000000000000003,-0.041044540227340824,-0.008598986266135714,0.03349115670403765,0.04733080744931603,0.006885602961996876,-0.0023361298961505766,-0.061802355927077154
0.4,-0.02277109905774316,-0.008547869979855724,0.02152210512296103,0.05041076432690368,-0.01995253663712733,-0.012505108981407699,-0.050135785439222105
0.45,-0.011344365343559301,-0.009030237442754427,0.014356626289241808,0.05500205941048025,-0.03912787525857192,-0.020028857793139218,-0.044403770633978726
0.5,-0.005144008556316922,-0.009713749142981482,0.010847239418712955,0.06047239892471648,-0.052387597903095426,-0.025489788210489306,-0.04316073260663883
0.55,-0.0026220797846892435,-0.010449673434570136,0.009901917156002263,0.0664036602115288,-0.06141827280808865,-0.029463268088502914,-0.045026163204256384
0.6000000000000001,-0.002567431211898258,-0.011174896253272268,0.010668009636353934,0.07252721555229477,-0.06754525141203546,-0.032405667856283404,-0.04892098524910765
0.65,-0.004114174755952896,-0.011865109483704742,0.012536678024540893,0.07867424294473346,-0.07171852166928248,-0.034645676795541126,-0.05407468871975615
0.7000000000000001,-0.006673158050869987,-0.01251288575538606,0.015093802486598265,0.0847405986690003,-0.07458568415690897,-0.03640788573403674,-0.05996381573028384
0.75,-0.009854683874030157,-0.013117686360433478,0.018065185965406155,0.090663174561499,-0.07657578751976452,-0.037841129537937376,-0.06624280094269047
0.8,-0.013404491459999834,-0.013681482488295746,0.021271364646936325,0.09640449058261502,-0.07796919844244563,-0.039042447787026174,-0.07268676162670323
0.8500000000000001,-0.017156876902567758,-0.014206949591772863,0.024594623202338628,0.101942879147843,-0.07894894165885707,-0.04007482829749623,-0.07914963007330314
0.9,-0.02100262341247411,-0.014696793701664476,0.027956500605797185,0.10726633549355158,-0.07963591707115664,-0.04097943915790603,-0.08553551125071557
0.9500000000000001,-0.02486803271119456,-0.01515354304378623,0.03130313136439397,0.11236871366167162,-0.08011199830523105,-0.04178369372780835,-0.09177993394964584
1.0,-0.028701644940714865,-0.01557952137888001,0.034595998864316024,0.1172473958626788,-0.08043472188436512,-0.042506393631128736,-0.09783794887213093
1.05,-0.03242627538010995,-0.01602043991731042,0.03774272020311817,0.12190131451719072,-0.08068190615234422,-0.04301573584538754,-0.10365803713424881
1.1,-0.036132188315452785,-0.016367863445361716,0.04088846122335732,0.12633511223393123,-0.08076161023876816,-0.04359507040764196,-0.1092931486134785
1.1500000000000001,-0.03968698479532268,-0.016707765331832533,0.04389047402210161,0.13054307547765487,-0.0808423211270426,-0.04422830687660237,-0.11461765585842942
1.2000000000000002,-0.04310045678453611,-0.01702388214719179,0.04674344799696084,0.13453177714888048,-0.08089220669138919,-0.044764515816867606,-0.11966594271961895
1.25,-0.04636034896264851,-0.017321251035698274,0.04943894480757827,0.13830285273994353,-0.0809319933753011,-0.04524321308914045,-0.12441859426232937
1.3,-0.04945834588292425,-0.017600129843076268,0.05197135231929828,0.14185856548231596,-0.08097472763490099,-0.04567664106158942,-0.12886516296781947
1.35,-0.05238873168442432,-0.017860800780504643,0.054335351961969924,0.1452012655939411,-0.08103131363684318,-0.0460716432399165,-0.13299716389309102
1.4000000000000001,-0.05488631627573265,-0.018334650416345216,0.05636315554152144,0.14826241097708248,-0.0814020366554899,-0.046527467954700086,-0.1365639319006015
1.4500000000000002,-0.05802271897989569,-0.0182063518501209,0.05872723978452149,0.15129319317292,-0.08090484764949057,-0.046671246654412524,-0.1405521567965537
1.5,-0.06015892290678421,-0.018497722001997174,0.06038429976427284,0.15399631318516016,-0.0813548518960544,-0.04704199291135899,-0.14345512738744182
1.55,-0.0623862303490591,-0.01870792157699433,0.062029829911757206,0.1565013513253205,-0.08156389835326211,-0.04732227601648917,-0.1462504738950604
1.6,-0.06445946282138793,-0.01889384975950134,0.0635058759866497,0.158810840130304,-0.08180317271356485,-0.04755980259964862,-0.14872076368672715
1.6500000000000001,-0.06637816986996864,-0.019060300144568554,0.0648093187109755,0.16092497996185062,-0.08208214140596665,-0.04776108365947218,-0.15085669051132372
1.7000000000000002,-0.06815030982684489,-0.0192086414999873,0.06594288719171393,0.16284512557299846,-0.08240070370486546,-0.04792607640962954,-0.1526573529987682
1.75,-0.06978539430208985,-0.01933940077205848,0.0669106381583412,0.1645732090734947,-0.08275689947645798,-0.04805263427331008,-0.15412344093644115
1.8,-0.07129501141009187,-0.01945271284389219,0.06771787674817453,0.16611145856263998,-0.08314660486425207,-0.04813802556753649,-0.15525716508074328
1.85,-0.07269229362056595,-0.01954847583232569,0.06837068598896656,0.16746228224844895,-0.08356400989223967,-0.04817912905350358,-0.15606178560770678
1.9000000000000001,-0.07399153222241994,-0.019626436265337277,0.06887558060563737,0.16862820115989496,-0.084001920791002,-0.04817252494697527,-0.1565412992114501
1.9500000000000002,-0.0749731663539216,-0.019938674021912628,0.06910934171374283,0.16952723446822193,-0.08471576029764782,-0.04820622193302648,-0.15647805508767987
2.0,-0.07664494831519653,-0.019576217402907936,0.06963889810759849,0.17045357496585478,-0.0845793094480557,-0.04790110110685586,-0.1568128880593933
2.0500000000000003,-0.0774406791069554,-0.01971311996281172,0.06955721518789204,0.17106625943093978,-0.08536716016673884,-0.04782767367807195,-0.15606458854335648
2.1,-0.0785091204739008,-0.019731688227651173,0.06953779814725392,0.17150861730687916,-0.08578913923582121,-0.047597323245854306,-0.15529218071065887
2.15,-0.07956057054014976,-0.019722633371920956,0.06940108399707878,0.1717836787098581,-0.08617918381165768,-0.04729514888093367,-0.15422124376422652
2.2,-0.08060746706903321,-0.019691500490056774,0.06914841764520396,0.17189268130173296,-0.08653013148600341,-0.04692302409756155,-0.15285072614875217
2.25,-0.08166973964915919,-0.019639312749486354,0.06878432752609742,0.1718374303367276,-0.08682515465954388,-0.04647770601663492,-0.15118702980607135
2.3000000000000003,-0.08276444640186426,-0.01956666746942018,0.06831063208286248,0.17162015822953292,-0.08704940245917836,-0.04595529741781457,-0.14923410190004482
2.35,-0.0839081393264357,-0.01947419353147517,0.06772743140841864,0.17124337383827237,-0.08718767792539217,-0.045352420183419895,-0.1469949060709841
2.4000000000000004,-0.08511712136954397,-0.019362632142566755,0.06703305913958568,0.17070979099675032,-0.0872240029698329,-0.04466606576812915,-0.14447158154814177
2.45,-0.08608672361214598,-0.01970641392493533,0.06606700194932369,0.1698475451380832,-0.08751223339016456,-0.0440487745297502,-0.14135499490559367
2.5,-0.08828018010189231,-0.018620794099748483,0.06555360308216407,0.16933619918105047,-0.08634245367915183,-0.04278948794452786,-0.13905447808151616
2.5500000000000003,-0.0892035816641451,-0.01892086776125887,0.06417920294840451,0.1682012127400212,-0.08666251288315274,-0.04213333742181802,-0.13511082748110081
2.6,-0.0908744120139593,-0.018752748265283836,0.06300799057938788,0.16707298436815732,-0.08605539101827986,-0.04106342420033826,-0.13149777478640656
2.6500000000000004,-0.0926861193054565,-0.018556588684977005,0.06167884566611048,0.16579927008826267,-0.08525183328996822,-0.03990290194714641,-0.12759291085283064
2.7,-0.09463267314637092,-0.018352845992244127,0.06016580757176093,0.164386341524696,-0.08425127003613975,-0.03865834100337362,-0.12337323923574783
2.75,-0.09674597078795755,-0.018142523183795334,0.05845744703674105,0.16283861890472595,-0.08300558769535393,-0.03732249923022457,-0.11885018267424718
2.8000000000000003,-0.09904719847849769,-0.017926618410925577,0.05653233123515511,0.1611598538112946,-0.08147519323250696,-0.035890417745587655,-0.11402463831235887
2.85,-0.10155341478306157,-0.01770715184306118,0.05436220554632332,0.1593533724037055,-0.0796214040271076,-0.034359908464204336,-0.10889271310186799
2.9000000000000004,-0.10427995996764028,-0.017486731234969688,0.051912761603892243,0.15742241285277458,-0.07740271066994375,-0.03273025952813646,-0.1034483963801669
2.95,-0.1072411640995874,-0.017268284976064002,0.049143376439085285,0.15537035730291304,-0.0747729269223818,-0.03100157478108434,-0.0976847729163699
3.0,-0.11045054114352748,-0.017054764615647006,0.046006523893298845,0.15320076839123065,-0.07167959610200891,-0.029174435478400707,-0.09159481770158573
3.0500000000000003,-0.11379280274827153,-0.017097698625272995,0.042413330211901745,0.1507640241358188,-0.0681922474691199,-0.027301249968685326,-0.08505802772086457
3.1,-0.1178213452207516,-0.016497948368518478,0.0384590363459314,0.1485866807779701,-0.06367108035842173,-0.025160121680383174,-0.078561776004209
3.1500000000000004,-0.12165986071096535,-0.016443804013089036,0.03377811136613673,0.14605909304835407,-0.05901107448162857,-0.023133724023989277,-0.07128235035974373
3.2,-0.12597843775170647,-0.01629299026109754,0.028529564499575888,0.1434433662573953,-0.05335127294751052,-0.02092032999508664,-0.0638503572651028
3.25,-0.13057737747099674,-0.016150238394460337,0.022531271796709107,0.1407326196698655,-0.046834210723367686,-0.018622793393774373,-0.056074894029011224
3.3000000000000003,-0.1354489660112551,-0.01602510752987174,0.015669365839565685,0.13792982458195935,-0.03934339588994806,-0.016249935879251165,-0.047964449257272834
3.35,-0.14058408331324324,-0.015917675548516586,0.007815188485389979,0.1350384032246965,-0.030735547592132262,-0.013806117239072435,-0.03954366432909029
3.4000000000000004,-0.14595861806751043,-0.01582519376710556,-0.001180235478075442,0.1320618720494382,-0.020851784994176947,-0.011298115683244792,-0.030846095074821278
3.45,-0.15153235219151406,-0.015742424358778373,-0.011486887127077905,0.12900394258799297,-0.009512691005709728,-0.008736674505316344,-0.02192047440890854
3.5,-0.15724479220024956,-0.015660734996710002,-0.023297274376585242,0.12586857843169597,0.0034847813893201796,-0.006136454138396807,-0.012836675835913303
3.5500000000000003,-0.16300934868872408,-0.015566918423871035,-0.03682768802014791,0.12265999030847574,0.01836959721656317,-0.0035165488752619822,-0.0036926595800601536
3.6,-0.16870575931308474,-0.015441811714100029,-0.052318756979073955,0.11938261477058454,0.03539796450278132,-0.0009015669879142152,0.00537713668281703
3.6500000000000004,-0.1741705204034516,-0.015258665637918056,-0.07003475847529472,0.11604109710413146,0.054853288322569416,0.001676822059861749,0.014191569362018708
3.7,-0.17918506882011187,-0.014981239847811079,-0.09026093188142792,0.11264028262364834,0.07704405460618124,0.00417784955506928,0.022510401697575233
3.75,-0.18346146084123938,-0.014561646811715456,-0.11329777947808761,0.10918521487020882,0.10229855986181535,0.006549032916149944,0.03001957619136908
3.8000000000000003,-0.186625405530495,-0.013938035387344727,-0.13945099327010435,0.1056811375666511,0.13095495308340865,0.008722866768255955,0.03631418971838163
3.85,-0.18819676558500587,-0.013032310406285719,-0.16901523745627117,0.10213349652999248,0.16334451596320854,0.010612688578599538,0.04087960552469516
3.9000000000000004,-0.1875681086849723,-0.011748244644023131,-0.2022495750405523,0.09854793732997802,0.19976548490667767,0.012107598287145471,0.04307179144255047
3.95,-0.18398267812864466,-0.009970570118648103,-0.23934192944754573,0.09493029407954712,0.2404440713454803,0.013066363211167165,0.04209900902109043
4.0,-0.17651438085213966,-0.0075659466454608415,-0.2803597626405316,0.09128656465711371,0.2854788052557211,0.013310364970979816,0.03700852244219566
4.05,-0.16405420295042772,-0.0043870887064673125,-0.3251843797761275,0.08762286854363976,0.3347641818763103,0.01261589675872088,0.026684158632066524
4.1000000000000005,-0.14530996746732194,-0.0002817390425474686,-0.3734273282376957,0.08394538691786746,0.3878903015809687,0.010706575192827028,0.009863351598062842
4.15,-0.11895084447046123,0.005015634473929942,-0.4242993734042952,0.08030940910285889,0.4440736169860715,0.0070200164113232155,-0.014855746819941729
4.2,-0.08311108931840283,0.011126802644617073,-0.4766050091588428,0.07658328498862943,0.501559339639015,0.0014581281168424276,-0.048620856360983566
4.25,-0.036502876362835,0.018768920870254058,-0.5285670395563654,0.07292225075201442,0.5588375197454143,-0.00606940513952825,-0.09302204976858963
4.3,0.02226592520425119,0.027485020624739565,-0.5775541968219147,0.06924821551681948,0.6124451521251828,-0.01664890111633399,-0.14861936195600167
4.3500000000000005,0.0940502469006943,0.03706172646229855,-0.6203700635656075,0.0655878192956405,0.6584844423480796,-0.030631590852012724,-0.21556999625055528
4.4,0.17887604476376606,0.04707553222382588,-0.6531784870418436,0.061955178246635434,0.6921412394835436,-0.04833150627626681,-0.2929355737835082
4.45,0.2755190481713621,0.056849106922032266,-0.6717464946412743,0.05836239115941666,0.7079461460850522,-0.06989390874254209,-0.37829353529641674
4.5,0.3810867955297259,0.06549456065767845,-0.6718989589825775,0.05482782818075016,0.7003583797532364,-0.09510410986609763,-0.46747325461529377
4.55,0.49074654207431956,0.07200504543768749,-0.6501739607616641,0.051380498974999966,0.6646457974076059,-0.12321454523970932,-0.5545254679693135
4.6000000000000005,0.5977659218553577,0.07541828178261212,-0.6046116759310277,0.04806461096131365,0.5980138449448891,-0.15281564378689882,-0.6321114026336616
4.65,0.6940394048528059,0.07503693523641775,-0.5355053800865217,0.04494353246620175,0.5007597029236877,-0.18181865045766132,-0.6924230311177304
4.7,0.7711736103117955,0.07065080626907361,-0.44585622374815115,0.04210188863285946,0.3770650798552122,-0.20762471962732842,-0.7285713600362298
4.75,0.8219902642259554,0.06267757402277918,-0.3412737891886375,0.03964458073392407,0.23499500786956062,-0.22750702933153732,-0.7361277509667463
4.800000000000001,0.8420483155342081,0.05214763117925458,-0.2292083931233535,0.037693214020149135,0.08545258085548735,-0.2391374924025158,-0.714298360471981
4.8500000000000005,0.83064816679084,0.040513881384685035,-0.11766454440298446,0.03638296360557902,-0.05975266986872896,-0.24109212829378612,-0.6662285345875874
4.9,0.7909107380288244,0.029347118204382516,-0.013792497744917753,0.03586523672599373,-0.19012878484210072,-0.23314080489078792,-0.5982512101840798
4.95,0.7289032546796115,0.02003210126665267,0.07718231014894772,0.03632207447579194,-0.29825390244545336,-0.21620775930871305,-0.5183635459843106
5.0,0.652188664927501,0.013571695289801289,0.15240791525963915,0.037996851747574834,-0.38053074823924726,-0.19203676364951017,-0.4345380290060974
5.050000000000001,0.5683519985970448,0.010546250263420154,0.21124110287779274,0.04124449920055673,-0.4368985993049157,-0.16271162455053112,-0.3534486209621224
5.1000000000000005,0.48393671553747075,0.011208846141522733,0.2546984514851136,0.04660656231520788,-0.4698626685147622,-0.13020145464801014,-0.27989143124729
5.15,0.4039511474511853,0.015664486243304188,0.2848039969132876,0.05492515830423317,-0.48332518914357747,-0.09603287486118717,-0.21684741470109126
5.2,0.3318734770925058,0.024091501667600212,0.3040354695192382,0.06752898651405381,-0.48158001711965603,-0.061098338975963395,-0.16596102207501406
5.25,0.2699901236293173,0.03700337331539849,0.31495778230745897,0.08656289781470372,-0.46862263167916973,-0.025538082947207386,-0.12822204986668195
5.300000000000001,0.219935933950397,0.055611329435697465,0.3200545588505077,0.11561591938609617,-0.4477583284706288,0.011414304106958095,-0.10477101867738092
5.3500000000000005,0.18342421090997263,0.08245708953175002,0.3217489146162167,0.16100520390190942,-0.4213984973842777,0.051796084481309235,-0.09795788316774523
5.4,0.1633779718871775,0.12274581449392419,0.3226506603444623,0.23462212457034504,-0.3908799560966769,0.09984065667687392,-0.11315709555785869
5.45,0.16621276580755795,0.18759002711448924,0.32623298510518484,0.3609277244953346,-0.356024587978474,0.16439794748014214,-0.16282190144380815
5.5,0.20782739973554676,0.30317623811426664,0.3387153127539644,0.5967208201401131,-0.3136727415158569,0.26591914919262216,-0.2776954381474295
5.550000000000001,0.3338663734163927,0.5424399062410035,0.37546257195120725,1.0993779470824894,-0.25208519956171016,0.46067808039130076,-0.5455404568135225
5.6000000000000005,0.7154453755810142,1.1754935234520625,0.49126432663452846,2.450740768358328,-0.12271737948643557,0.9556488482620645,-1.296049069324745
5.65,2.5062804389256863,4.0191073021119355,1.0532334307095481,8.561843313585388,0.4250865945686222,3.1364302345285577,-4.770927409022329
5.7,-45.79415580574076,-72.1687862341441,-14.556307629749487,-155.41194433611835,-15.300904205160059,-54.675901107448375,90.36119305924056
5.75,46.0212650464193,73.28585133211986,13.996585301275292,158.40649945928712,19.930740251012228,56.963610179064275,-95.08679126752173
5.800000000000001,-0.9456501968011044,-0.459624131897326,-0.2777236334922162,-3.624941059506277,-2.1555560984874282,-2.6329638403548294,4.545092400923196
5.8500000000000005,-1.0455633300046163,-2.2468990634436956,-0.03539071828103313,-4.475268466014586,-1.460487020560105,-1.5760253679534548,2.694873503584687
5.9,-1.2327376987672989,-2.2620226074797567,-0.013868481085948514,-4.507590856689863,-1.0736225060054083,-1.4887754704848668,2.675602197270579
5.95,-1.765416853816295,-2.7853479373061996,-0.04351798200260881,-5.926747295122818,-0.814965528071927,-1.9251369559906044,3.2026814464427633
6.0,-2.971759673296136,-4.414030852737363,-0.15265736825166742,-9.712956454371913,-0.6554409760106078,-3.324453211776479,4.799781844077244
6.050000000000001,-3.2766083101993195,-4.793323741934317,-0.13032533622749587,-10.70359195694183,-0.30855711757978577,-3.7720123242100576,4.889319789417266
6.1000000000000005,-0.6399372132844683,-0.8966245968291586,0.12227611103446501,-2.1863391592650916,0.28438124411216237,-0.7210198435449033,0.5789700074519399
6.15,0.12806851085912452,0.2448968740483548,0.11553075231418797,0.26053788539800227,0.3652256774629642,0.1844093051655471,-0.5059903799592835
6.2,0.151737498204908,0.2923258694161923,0.066820568359931,0.3521512512985203,0.32154703364487003,0.2170872770698984,-0.4465532666461114
6.25,0.13079151808508993,0.2731458940356579,0.03660257596142913,0.3182043910931376,0.2876823483064275,0.2039772112408822,-0.3567640132186001
6.300000000000001,0.10824935230891397,0.25110260394390904,0.018242864614324006,0.27503901657303986,0.26259308124206693,0.19299335175321897,-0.2838596472803745
6.3500000000000005,0.08984294315688202,0.2345433487124804,0.006341974867952183,0.24035045720592452,0.24244455449967686,0.18752056047773413,-0.22689247400566548
6.4,0.07575666566708661,0.22262677172194878,-0.001644882633125011,0.21552240712553905,0.22536555552851326,0.1855645280684448,-0.1813572846062017
6.45,0.06451661903078998,0.2147043608861554,-0.007255770008108842,0.19700970784694238,0.20981760333153804,0.18615406869253892,-0.1434905603324954
6.5,0.055795279228100236,0.2093230251747802,-0.011056282396740835,0.18409012526926505,0.19553262743253452,0.18810517941726834,-0.11142416816511069
6.550000000000001,0.04888757990457515,0.20570981778200825,-0.013454690569550953,0.17501301644754497,0.18216584406863848,0.19085449415939815,-0.08371319062215776
6.6000000000000005,0.043428524193230844,0.20331612913369157,-0.0146225859143706,0.1686742617063719,0.16964403762320585,0.19400846662217752,-0.05948911625201836
6.65,0.03899531926314259,0.2018068990381039,-0.015064032946127126,0.16448239215368643,0.1575076807139765,0.19742719908085515,-0.03801326447722575
6.7,0.035510365832666646,0.20084292850415908,-0.014666395219502526,0.1617859130638566,0.14598074264914315,0.20087776695689508,-0.0189321209210791
6.75,0.03274640355722502,0.2002796641715865,-0.013603964976022787,0.16025499470919358,0.1349244980854368,0.20431875522124887,-0.0018449181480861832
6.800000000000001,0.030716416604330554,0.19981548025131635,-0.011959647384789385,0.15967309080771708,0.12442645412949982,0.20739565789682057,0.013429701441973751
6.8500000000000005,0.02913074494420742,0.19959841240932974,-0.00987984023437638,0.15955415609841594,0.1142424280496572,0.21041204108231515,0.027258204721786194
6.9,0.02806509707057675,0.1993689233099072,-0.007405191572528169,0.1600381412857277,0.10449574508976045,0.21313444049011254,0.03972541611471203
6.95,0.027404553594579384,0.19911061069456837,-0.004620148716112382,0.16089035561940968,0.09512254183642377,0.21556964949532742,0.05101039674412222
7.0,0.027097027354260617,0.19878559691425823,-0.0015852184853520912,0.16200121790376443,0.08610657337373456,0.21770592067003158,0.06123942142156391
7.050000000000001,0.027077724438313855,0.19836102923892707,0.0016469345166003624,0.16334717984423097,0.07741434708251949,0.2196065850709794,0.07054035575382755
7.1000000000000005,0.027375159522073367,0.19779212320057304,0.005027165164853686,0.16475142465342762,0.06912029980328555,0.22101803264385045,0.0789303028380306
7.15,0.027858879681586513,0.1971520449746056,0.008510247972964846,0.16617988445694176,0.06108715302891449,0.22225970692926977,0.08659373054842545
7.2,0.028558154474540853,0.196332618633539,0.012066323102076781,0.16772376208644357,0.05339589298196501,0.2231754821283427,0.0935434922275602
7.25,0.029354080688639705,0.19554745430454545,0.015653584490847305,0.16900201972571027,0.04593236544581436,0.22386764916740742,0.09985359751567557
7.300000000000001,0.03050779717894997,0.19399287401404508,0.01927989750410919,0.17130487510761072,0.03905765786023696,0.22408847829768375,0.10557121237215084
7.3500000000000005,0.03151091521349042,0.19296620388221997,0.02282715284473158,0.17219083088265585,0.032149299402169096,0.22420962134129363,0.11072696727302933
7.4,0.032730784378226796,0.19159858864199908,0.026376570592648863,0.1736077833583427,0.025672537229242398,0.22403380675315887,0.11539667060200931
7.45,0.03401756655967647,0.19004931947949943,0.029861220314207904,0.17499214916948613,0.01949468343752564,0.22359804061804378,0.11960455197779107
7.5,0.03532855445433469,0.18836006496468993,0.033270415142427345,0.17628543944975705,0.013577222272025125,0.22299756905276524,0.12339394234291312
7.550000000000001,0.03671999564319073,0.18654370134576326,0.03657367065564354,0.17746159386334615,0.007997024677088849,0.22203120369688967,0.12674284185986595
7.6000000000000005,0.03809349159954678,0.18464593956854736,0.039776905009152874,0.178464737562829,0.0026412693593058645,0.22097347925271627,0.1297452144503186
7.65,0.039433350583108207,0.182704421061054,0.04286709706358416,0.1792937018395091,-0.00248255644382106,0.21977496895832727,0.13240166689006738
7.7,0.04091247806969761,0.18035741342661227,0.04582584672099016,0.18041082638249217,-0.007147648198239931,0.21821465033883491,0.13469866737830127
7.75,0.04219833318407473,0.17826541859586986,0.04863267209559152,0.1808652553293888,-0.011767433451793652,0.2166462759993215,0.13671129114101954
7.800000000000001,0.04352627603722514,0.17597248506458052,0.051313311766323644,0.18140877117439502,-0.016038269894705914,0.21488188794999807,0.13841697681557408
7.8500000000000005,0.04479406274618153,0.17361170597879783,0.05384359831264868,0.18179125414485964,-0.02007293125132592,0.21299798446960283,0.13984914471960708
7.9,0.046042567441301474,0.17112228178680966,0.056211204416143634,0.18213431504067623,-0.02380682272518697,0.21089836229036485,0.14100756383070845
7.95,0.047200197192019955,0.16862715307472742,0.05842051555528138,0.18221007620561558,-0.02734257834652698,0.20873375902459412,0.14191809070783157
8.0,0.04829010230613329,0.16608903139774533,0.06046972198286288,0.18212190511866178,-0.030642424532260903,0.20646282850422137,0.14258466009650472
8.05,0.04933325590738419,0.16342896939229468,0.06234835174831449,0.1820064341759542,-0.0336579323206207,0.20401936502613238,0.14301839806600603
8.1,0.05025439494441064,0.16092473295737153,0.0640649613083602,0.1814407551867192,-0.03653464123194505,0.20154793553491257,0.1432171395763837
8.15,0.05115779834192369,0.15792393935341376,0.06560405353844195,0.18133338466161608,-0.03900270881497192,0.19886525428472634,0.14323839057764076
8.200000000000001,0.05189652559442981,0.15534471594387145,0.06696659505494806,0.18038448718138977,-0.04144053066588743,0.19619188708581148,0.14300255482130653
8.25,0.0525587371508221,0.152660352285921,0.06817323693296906,0.17944835124098613,-0.043618373882006733,0.1934116976061817,0.14258179151987294
8.3,0.05319508498830616,0.1497170312012741,0.06919841649316333,0.17861267578217488,-0.045465040535653256,0.19046367126486163,0.14196280295637465
8.35,0.053644851635976376,0.14695402579560202,0.07004971967385643,0.177326354912265,-0.04722717914468488,0.18749840183263922,0.14115695901598502
8.4,0.05402148997833173,0.14413355999203625,0.07073573182962645,0.17590704916690625,-0.048751367744594015,0.1844400238296351,0.14015128612355598
8.450000000000001,0.054313918714483655,0.1411888833467917,0.07124487318195871,0.17444990803397287,-0.050025422150034166,0.1812540362847287,0.1389665653628669
8.5,0.054458556884479786,0.13835988021989543,0.07158705732746323,0.1726137901619662,-0.05117594000317943,0.17803288726273625,0.1375934190870004
8.55,0.05456073750343668,0.13528104313789424,0.07175203621828857,0.17086259719481467,-0.05201716516258087,0.1746600293239503,0.13604182841089885
8.6,0.05448592365336055,0.1323710839551498,0.07174892908844321,0.16867929899558265,-0.05277628564854281,0.1712524208393318,0.13431322401242146
8.65,0.054328857120528457,0.12939851609525183,0.07158270186609195,0.16635258453453705,-0.05331566557830986,0.16774458762858213,0.13239898193236316
8.700000000000001,0.0540672830520722,0.12631415954598754,0.07124580376170836,0.16395457723983542,-0.053636002632924396,0.16411243326987957,0.13031822536326648
8.75,0.05367867220172434,0.12328174725515187,0.07074533529860261,0.16122568864580522,-0.053818115002510075,0.16041691585855028,0.12805258640159967
8.8,0.05320319575661564,0.12009502000463496,0.07007561566726966,0.1584593312193433,-0.05376488771720658,0.15658163899782168,0.12561842263946188
8.85,0.05257854973580389,0.11701961398050284,0.0692484385548961,0.15529994721945883,-0.05361229246404392,0.1526836833370232,0.12300270413230452
8.9,0.05189463503992631,0.11367398432436712,0.06825168685546695,0.1522030750776726,-0.05317981055106315,0.1486219764502017,0.1202170177006548
8.950000000000001,0.05104750304416317,0.11058608092464992,0.06710436663473665,0.14854475725449734,-0.052713617311356056,0.14450557154398913,0.11724068411195165
9.0,0.050118258179016606,0.10700243495945588,0.06578556814279282,0.14520282061211254,-0.051916143360125205,0.1401948315657811,0.11412508553757306
9.05,0.04905979833600596,0.10373294217794295,0.06431506529438177,0.14117513370300372,-0.05109700717275463,0.13582257189736852,0.11078663387891569
9.1,0.04790466997984508,0.10031062692621655,0.06269460832088167,0.1370757682705792,-0.05007565901169575,0.1312968186506222,0.10728213757391677
9.15,0.04664737537156259,0.0967041636954935,0.06091447429607294,0.1329063554542198,-0.04885390722134696,0.12660310589856033,0.10360660962937862
9.200000000000001,0.04526233648383303,0.09312719331714574,0.05898491631036992,0.12836769151533894,-0.047531282410533775,0.12179591355096553,0.09973872783318558
9.25,0.04379113792547254,0.08933903771039506,0.05689904893418293,0.12377520770379374,-0.04600024674868839,0.11680158125735182,0.09569298813663196
9.3,0.042185284736330764,0.08559498872396813,0.054669836490203114,0.11878989923143651,-0.04438694301821717,0.11168169312546147,0.09145340400526794
