SilviaXuva/Vision-guided-robot-manipulator/Helpers/Outputs copy/2023-12-09_18h06m43s/green7/Align/Joint Comparison/q_dot_dot_Ref.csv
,q0,q1,q2,q3,q4,q5,q6
0.0,0.0,0.0,0.0,0.0,0.0,0.0,0.0
0.05,-0.001922950916784823,-0.001153116322917792,0.0022711906085552797,0.0089624533493367,-0.005048865002944452,-0.0029162484765702422,-0.008033922385606483
0.1,-0.003787923413968094,-0.002271465319516455,0.004473903108309897,0.0176546819745728,-0.00994550292037299,-0.005744569863394649,-0.01582561595556654
0.15000000000000002,-0.005595503132151849,-0.003355398174910323,0.006608829197332549,0.026079415418375978,-0.014691451399614062,-0.008485852312894894,-0.023377527465593774
0.2,-0.007346275711938121,-0.00440526607421373,0.008676660573691923,0.03423938322341391,-0.0192882480879961,-0.011140983977492651,-0.03069210367140178
0.25,-0.00904082679392895,-0.0054214202025410115,0.010678088935456718,0.04213731493235429,-0.023737430632847563,-0.0137108530096096,-0.03777179132870415
0.30000000000000004,-0.01067974201872637,-0.006404211745006505,0.012613805980695624,0.04977594008786481,-0.028040536681496885,-0.016196347561667414,-0.044619037193214514
0.35000000000000003,-0.012263607026932417,-0.007353991886724539,0.014484503407477336,0.05715798823261313,-0.03219910388127251,-0.01859835578608776,-0.05123628802064644
0.4,-0.013793007459149124,-0.008271111812809451,0.01629087291387055,0.06428618890926693,-0.03621466987950288,-0.020917765835292323,-0.05762599056671354
0.45,-0.015268528955978532,-0.009155922708375577,0.018033606197943954,0.07116327166049392,-0.040088772323516444,-0.02315546586170278,-0.06379059158712941
0.5,-0.016690757158022675,-0.010008775758537253,0.019713394957766247,0.07779196602896177,-0.04382294886064165,-0.0253123440177408,-0.06973253783760767
0.55,-0.01806027770588359,-0.010830022148408811,0.02133093089140612,0.08417500155733817,-0.047418737138206934,-0.02738928845582806,-0.0754542760738619
0.6000000000000001,-0.01937767624016331,-0.011620013063104586,0.022886905696932268,0.09031510778829079,-0.050877674803540746,-0.029387187328386234,-0.08095825305160571
0.65,-0.020643538401463872,-0.012379099687738909,0.02438201107241338,0.0962150142644873,-0.054201299503971505,-0.03130692878783699,-0.0862469155265527
0.7000000000000001,-0.021858449830387313,-0.013107633207426122,0.025816938715918156,0.10187745052859543,-0.05739114888682769,-0.033149400986602025,-0.09132271025441645
0.75,-0.023022996167535666,-0.013805964807280554,0.02719238032551528,0.10730514612328278,-0.06044876059943771,-0.03491549207710298,-0.09618808399091057
0.8,-0.024137763053510966,-0.01447444567241654,0.02850902759927346,0.11250083059121714,-0.06337567228913005,-0.03660609021176157,-0.10084548349174868
0.8500000000000001,-0.02520333612891526,-0.01511342698794842,0.029767572235261375,0.11746723347506612,-0.06617342160323311,-0.03822208354299944,-0.1052973555126444
0.9,-0.02622030103435057,-0.01572325993899052,0.030968705931547727,0.12220708431749742,-0.06884354618907536,-0.03976436022323828,-0.10954614680931124
0.9500000000000001,-0.027189243410418937,-0.016304295710657182,0.03211312038620121,0.12672311266117872,-0.07138758369398525,-0.04123380840489976,-0.11359430413746291
1.0,-0.0281107488977224,-0.01685688548806274,0.03320150729729052,0.1310180480487777,-0.0738070717652912,-0.04263131624040556,-0.11744427425281291
1.05,-0.028985403136862993,-0.017381380456321528,0.03423455836288434,0.13509462002296208,-0.07610354805032167,-0.043957771882177345,-0.12109850391107493
1.1,-0.029813791768442753,-0.01787813180054788,0.035212965281051375,0.1389555581263995,-0.07827855019640509,-0.0452140634826368,-0.12455943986796252
1.1500000000000001,-0.03059650043306371,-0.018347490705856125,0.03613741974986031,0.14260359190175767,-0.08033361585086991,-0.04640107919420559,-0.12782952887918927
1.2000000000000002,-0.03133411477132791,-0.018789808357360605,0.03700861346737983,0.14604145089170426,-0.0822702826610446,-0.0475197071693054,-0.13091121770046882
1.25,-0.03202722042383737,-0.01920543594017565,0.037827238131678646,0.1492718646389069,-0.08409008827425754,-0.04857083556035789,-0.13380695308751472
1.3,-0.032676403031194144,-0.019594724639415598,0.03859398544082546,0.15229756268603334,-0.08579457033783724,-0.049555352519784754,-0.1365191817960406
1.35,-0.03328224823400027,-0.019958025640194783,0.03930954709288893,0.1551212745757513,-0.08738526649911212,-0.05047414620000767,-0.1390503505817601
1.4000000000000001,-0.03384534167285777,-0.020295690127627542,0.039974614785937786,0.15774572985072838,-0.0888637144054106,-0.051328104753448296,-0.14140290620038676
1.4500000000000002,-0.03436626898836869,-0.020608069286828203,0.0405898802180407,0.1601736580536323,-0.09023145170406116,-0.0521181163325283,-0.14357929540763417
1.5,-0.03484561582113506,-0.020895514302911103,0.04115603508726637,0.16240778872713071,-0.09149001604239221,-0.05284506908966938,-0.145581964959216
1.55,-0.035283967811758916,-0.021158376360990584,0.04167377109168349,0.16445085141389132,-0.09264094506773221,-0.053509851177293205,-0.1474133616108458
1.6,-0.0356819106008423,-0.021397006646180973,0.04214377992936076,0.16630557565658186,-0.0936857764274096,-0.05411335074782145,-0.1490759321182372
1.6500000000000001,-0.03604002982898725,-0.021611756343596605,0.04256675329836687,0.16797469099786994,-0.09462604776875287,-0.054656455953675784,-0.15057212323710376
1.7000000000000002,-0.036358911136795784,-0.021802976638351814,0.04294338289677051,0.16946092698042325,-0.09546329673909038,-0.05514005494727789,-0.15190438172315912
1.75,-0.03663914016486995,-0.021971018715560942,0.04327436042264037,0.1707670131469095,-0.09619906098575064,-0.05556503588104943,-0.15307515433211683
1.8,-0.036881302553811786,-0.022116233760338316,0.043560377574045156,0.17189567903999634,-0.09683487815606202,-0.05593228690741209,-0.15408688781969054
1.85,-0.03708598394422333,-0.022238972957798274,0.043802126049053564,0.17284965420235154,-0.09737228589735308,-0.05624269617878754,-0.15494202894159384
1.9000000000000001,-0.03725376997670662,-0.022339587493055143,0.04400029754573425,0.17363166817664266,-0.09781282185695214,-0.05649715184759746,-0.1556430244535403
1.9500000000000002,-0.03738524629186366,-0.022418428551223273,0.044155583762155955,0.17424445050553747,-0.09815802368218772,-0.05669654206626352,-0.15619232111124356
2.0,-0.03748099853029653,-0.022475847317416985,0.04426867639638735,0.1746907307317036,-0.09840942902038824,-0.0568417549872074,-0.15659236567041718
2.0500000000000003,-0.03754161233260724,-0.022512194976750624,0.044340267146497137,0.1749732383978088,-0.09856857551888216,-0.05693367876285078,-0.15684560488677485
2.1,-0.037567673339397846,-0.02252782271433851,0.04437104771055401,0.1750947030465207,-0.09863700082499789,-0.05697320154561533,-0.15695448551603006
2.15,-0.03755976719127037,-0.022523081715294997,0.044361709786626645,0.17505785422050696,-0.0986162425860639,-0.056961211487922714,-0.15692145431389648
2.2,-0.03751847952882683,-0.022498323164734404,0.044312945072783744,0.17486542146243533,-0.09850783844940864,-0.05689859674219462,-0.15674895803608763
2.25,-0.03744439599266929,-0.022453898247771067,0.044225445267094,0.17452013431497346,-0.09831332606236051,-0.056786245460852716,-0.1564394434383172
2.3000000000000003,-0.037338102223399776,-0.02239015814951933,0.04409990206762613,0.174024722320789,-0.098034243072248,-0.05662504579631867,-0.15599535727629876
2.35,-0.03720018386162032,-0.022307454055093524,0.043937007172448785,0.17338191502254965,-0.09767212712639953,-0.05641588590101418,-0.15541914630574585
2.4000000000000004,-0.03703122654793298,-0.022206137149607983,0.043737452279630704,0.17259444196292317,-0.09722851587214358,-0.056159653927360914,-0.15471325728237223
2.45,-0.036831815922939756,-0.02208655861817704,0.04350192908724056,0.17166503268457717,-0.09670494695680855,-0.055857238027780545,-0.15388013696189135
2.5,-0.03660253762724271,-0.02194906964591502,0.04323112929334703,0.17059641673017933,-0.09610295802772288,-0.05550952635469473,-0.1529222321000168
2.5500000000000003,-0.03634397730144387,-0.021794021417936283,0.042925744596018826,0.16939132364239737,-0.09542408673221506,-0.05511740706052518,-0.15184198945246233
2.6,-0.036056720586145265,-0.021621765119355138,0.04258646669332463,0.16805248296389885,-0.09466987071761347,-0.054681768297693514,-0.15064185577494135
2.6500000000000004,-0.03574135312194894,-0.021432651935285933,0.04221398728333314,0.16658262423735162,-0.0938418476312466,-0.05420349821862147,-0.14932427782316762
2.7,-0.035398460549456924,-0.021227033050843,0.04180899806411308,0.16498447700542332,-0.09294155512044291,-0.053683484975730694,-0.14789170235285468
2.75,-0.03502862850927126,-0.02100525965114068,0.04137219073373311,0.1632607708107816,-0.09197053083253078,-0.05312261672144286,-0.1463465761197161
2.8000000000000003,-0.034632442641994,-0.020767682921293294,0.04090425699026192,0.1614142351960941,-0.09093031241483873,-0.05252178160817965,-0.1446913458794655
2.85,-0.03421048858822714,-0.02051465404641518,0.040405888531768214,0.1594475997040286,-0.0898224375146951,-0.05188186778836272,-0.1429284583878165
2.9000000000000004,-0.03376335198857274,-0.02024652421162068,0.03987777705632068,0.15736359387725277,-0.08864844377942845,-0.051203763414413773,-0.14106036040048267
2.95,-0.033291618483632844,-0.019963644602024138,0.039320614261988025,0.15516494725843424,-0.08740986885636716,-0.05048835663875448,-0.13908949867317769
3.0,-0.03279587371400945,-0.01966636640273986,0.038735091846838925,0.15285438939024068,-0.08610825039283966,-0.04973653561380648,-0.13701831996161504
3.0500000000000003,-0.03227670332030464,-0.0193550407988822,0.03812190150894209,0.1504346498153398,-0.08474512603617447,-0.0489491884919915,-0.13484927102150845
3.1,-0.03173469294312043,-0.019030018975565485,0.037481734946366196,0.14790845807639924,-0.08332203343369991,-0.04812720342573116,-0.13258479860857134
3.1500000000000004,-0.031170428223058856,-0.01869165211790406,0.03681528385717997,0.14527854371608687,-0.08184051023274452,-0.0472714685674472,-0.1302273494785175
3.2,-0.03058449480072197,-0.018340291411012257,0.03612323993945207,0.14254763627707018,-0.08030209408063677,-0.04638287206956125,-0.12777937038706047
3.25,-0.02997747831671176,-0.0179762880400044,0.03540629489125121,0.13971846530201681,-0.07870832262470497,-0.045462302084494984,-0.1252433080899137
3.3000000000000003,-0.02934996441163031,-0.01759999318999483,0.03466514041064606,0.1367937603335946,-0.07706073351227773,-0.04451064676467009,-0.1226216093427911
3.35,-0.02870253872607965,-0.017211758046097883,0.03390046819570533,0.13377625091447118,-0.07536086439068333,-0.043528794262508254,-0.11991672090140598
3.4000000000000004,-0.02803578690066179,-0.01681193379342789,0.03311296994449772,0.13066866658731427,-0.07361025290725035,-0.04251763273043114,-0.11713108952147204
3.45,-0.0273502945759788,-0.016400871617099202,0.03230333735509193,0.1274737368947915,-0.07181043670930716,-0.04147805032086043,-0.11426716195870296
3.5,-0.026646647392632693,-0.015978922702226138,0.031472262125556635,0.12419419137957059,-0.06996295344418221,-0.040410935186217765,-0.11132738496881225
3.5500000000000003,-0.025925430991225483,-0.01554643823392302,0.030620435953960513,0.12083275958431905,-0.06806934075920394,-0.03931717547892486,-0.1083142053075135
3.6,-0.025187231012359267,-0.015103769397304212,0.02974855053837229,0.11739217105170482,-0.06613113630170084,-0.03819765935140338,-0.10523006973052038
3.6500000000000004,-0.024432633096636014,-0.01465126737748402,0.02885729757686064,0.11387515532439542,-0.0641498777190013,-0.037053274956074966,-0.10207742499354637
3.7,-0.02366222288465782,-0.01418928335957681,0.02794736876749428,0.11028444194505864,-0.0621271026584338,-0.035884910445361386,-0.09885871785230525
3.75,-0.022876586017026676,-0.013718168528696877,0.02701945580834188,0.10662276045636204,-0.06006434876732676,-0.03469345397168421,-0.0955763950625105
3.8000000000000003,-0.02207630813434466,-0.013238274069958603,0.026074250397472153,0.10289284040097345,-0.05796315369300861,-0.033479793687465176,-0.09223290337987572
3.85,-0.02126197487721376,-0.012749951168476287,0.025112444232953765,0.09909741132156048,-0.05582505508280784,-0.03224481774512595,-0.08883068956011458
3.9000000000000004,-0.020434171886236027,-0.01225355100936426,0.024134729012855415,0.09523920276079068,-0.05365159058405282,-0.030989414297088128,-0.08537220035894055
3.95,-0.019593484802013506,-0.011749424777736876,0.023141796435245814,0.09132094426133182,-0.05144429784407205,-0.029714471495773505,-0.08185988253206734
4.0,-0.018740499265148237,-0.011237923658708484,0.022134338198193628,0.0873453653658518,-0.04920471451019403,-0.02842087749360369,-0.07829618283520856
4.05,-0.017875800916242288,-0.010719398837393401,0.021113045999767658,0.08331519561701815,-0.04693437822974715,-0.027109520443000412,-0.07468354802407785
4.1000000000000005,-0.01699997539589759,-0.010194201498905917,0.020078611538036414,0.0792331645574983,-0.04463482665005972,-0.025781288496385245,-0.07102442485438858
4.15,-0.01611360834471631,-0.00966268282836046,0.01903172651106875,0.07510200172996029,-0.042307597418460435,-0.02443706980617999,-0.06732126008185461
4.2,-0.01521728540330037,-0.009125194010871274,0.01797308261693325,0.07092443667707166,-0.03995422818227756,-0.023077752524806185,-0.06357650046218938
4.25,-0.014311592212251893,-0.008582086231552778,0.016903371553698702,0.06670319894150013,-0.037576256588839556,-0.021704224804685673,-0.05979259275110665
4.3,-0.013397114412172874,-0.008033710675519229,0.015823285019433725,0.062441018065913345,-0.03517522028547497,-0.020317374798239984,-0.05597198370431977
4.3500000000000005,-0.012474437643665301,-0.007480418527884985,0.014733514712206986,0.0581406235929788,-0.03275265691951201,-0.01891809065789078,-0.05211712007754249
4.4,-0.01154414754733133,-0.006922560973764412,0.013634752330087284,0.05380474506536463,-0.030310104138279507,-0.017507260536059884,-0.04823044862648849
4.45,-0.010606829763772878,-0.006360489198271836,0.012527689571143254,0.049436112025738305,-0.02784909958910553,-0.016085772585168884,-0.044314416106871285
4.5,-0.009663069933592078,-0.0057945543865215495,0.011413018133443585,0.04503745401676738,-0.0253711809193187,-0.014654514957639428,-0.04037146927440445
4.55,-0.008713453697390891,-0.0052251077236279385,0.010291429715057037,0.04061150058111969,-0.02287788577624755,-0.01321437580589324,-0.036404054884801605
4.6000000000000005,-0.007758566695771376,-0.004652500394705287,0.009163616014052134,0.036160981261462555,-0.020370751807220245,-0.011766243282351927,-0.03241461969377635
4.65,-0.006798994569335548,-0.0040770835848679835,0.00803026872849775,0.03168862560046413,-0.017851316659565443,-0.010311005539437266,-0.02840561045704236
4.7,-0.005835322958685497,-0.0034992084792303296,0.006892079556462517,0.027197163140792024,-0.015321117980611523,-0.008849550729570825,-0.02437947393031297
4.75,-0.0048681375044232564,-0.002919226262906676,0.005749740196015125,0.02268932342511379,-0.012781693417686944,-0.007382767005174402,-0.02033865686930222
4.800000000000001,-0.0038980238471508096,-0.0023374881210113437,0.004603942345224278,0.01816783599609717,-0.010234580618120225,-0.005911542518669606,-0.016285606029723423
4.8500000000000005,-0.002925567627470245,-0.0017543452386586825,0.003455377702158633,0.013635430396409758,-0.007681317229239676,-0.004436765422478031,-0.01222276816729013
4.9,-0.0019513544859835466,-0.0011701488009630142,0.002304737964886894,0.00909483616871929,-0.005123440898373811,-0.0029593238690214995,-0.00815259003771608
4.95,-0.0009759700632927824,-0.0005852499930386706,0.0011527148314777877,0.00454878285569362,-0.002562489272851094,-0.0014801060107216305,-0.0040775183967148975
5.0,3.552713678800501e-17,1.7763568394002505e-17,0.0,0.0,1.4210854715202004e-16,0.0,0.0
5.050000000000001,0.0009759700632928102,0.000585249993038698,-0.001152714831477843,-0.00454878285569356,0.0025624892728514067,0.0014801060107215646,0.0040775183967148585
5.1000000000000005,0.0019513544859835604,0.001170148800963019,-0.002304737964886904,-0.00909483616871919,0.005123440898374038,0.0029593238690214315,0.00815259003771599
5.15,0.002925567627470259,0.001754345238658705,-0.003455377702158643,-0.013635430396409656,0.007681317229239903,0.004436765422477964,0.01222276816729004
5.2,0.0038980238471508725,0.002337488121011406,-0.004603942345224332,-0.018167835996097254,0.01023458061812061,0.005911542518669576,0.016285606029723527
5.25,0.004868137504423292,0.0029192262629067116,-0.00574974019601516,-0.02268932342511379,0.012781693417687227,0.007382767005174366,0.02033865686930222
5.300000000000001,0.005835322958685583,0.0034992084792303878,-0.006892079556462598,-0.027197163140792204,0.01532111798061189,0.008849550729570898,0.024379473930313162
5.3500000000000005,0.006798994569335597,0.004077083584868023,-0.008030268728497795,-0.03168862560046417,0.01785131665956574,0.010311005539437196,0.028405610457042273
5.4,0.007758566695771404,0.004652500394705332,-0.009163616014052224,-0.03616098126146264,0.020370751807220557,0.011766243282351934,0.032414619693776306
5.45,0.008713453697390927,0.005225107723627974,-0.010291429715057037,-0.04061150058111955,0.022877885776247765,0.01321437580589324,0.036404054884801605
5.5,0.00966306993359209,0.005794554386521589,-0.011413018133443628,-0.04503745401676742,0.025371180919319,0.014654514957639395,0.040371469274404506
5.550000000000001,0.010606829763772927,0.006360489198271877,-0.0125276895711433,-0.049436112025738346,0.027849099589105898,0.016085772585168814,0.04431441610687134
5.6000000000000005,0.01154414754733136,0.00692256097376444,-0.01363475233008734,-0.05380474506536471,0.030310104138279746,0.017507260536059853,0.04823044862648844
5.65,0.012474437643665383,0.007480418527885047,-0.014733514712207076,-0.05814062359297902,0.032752656919512464,0.018918090657890855,0.052117120077542586
5.7,0.013397114412172924,0.008033710675519268,-0.015823285019433735,-0.06244101806591338,0.03517522028547534,0.020317374798239952,0.05597198370431983
5.75,0.014311592212251914,0.008582086231552792,-0.016903371553698657,-0.06670319894149994,0.037576256588839826,0.021704224804685562,0.05979259275110652
5.800000000000001,0.015217285403300432,0.009125194010871338,-0.017973082616933304,-0.07092443667707175,0.039954228182277944,0.023077752524806195,0.06357650046218949
5.8500000000000005,0.01611360834471639,0.009662682828360523,-0.019031726511068804,-0.07510200172996051,0.04230759741846082,0.02443706980618003,0.06732126008185486
5.9,0.016999975395897635,0.010194201498905963,-0.020078611538036473,-0.07923316455749824,0.04463482665006003,0.025781288496385214,0.07102442485438853
5.95,0.01787580091624231,0.010719398837393413,-0.021113045999767644,-0.08331519561701811,0.04693437822974742,0.02710952044300037,0.07468354802407773
6.0,0.018740499265148324,0.01123792365870852,-0.0221343381981937,-0.0873453653658518,0.04920471451019446,0.028420877493603728,0.07829618283520871
6.050000000000001,0.01959348480201357,0.011749424777736921,-0.023141796435245852,-0.09132094426133197,0.05144429784407243,0.029714471495773474,0.08185988253206737
6.1000000000000005,0.02043417188623609,0.012253551009364299,-0.024134729012855433,-0.09523920276079069,0.05365159058405313,0.030989414297088097,0.0853722003589406
6.15,0.021261974877213777,0.012749951168476305,-0.0251124442329538,-0.09909741132156048,0.05582505508280813,0.03224481774512588,0.08883068956011465
6.2,0.02207630813434475,0.013238274069958646,-0.026074250397472225,-0.10289284040097359,0.057963153693009035,0.033479793687465176,0.09223290337987587
6.25,0.02287658601702673,0.013718168528696912,-0.027019455808341933,-0.10662276045636204,0.060064348767326976,0.03469345397168418,0.09557639506251057
6.300000000000001,0.023662222884657882,0.014189283359576865,-0.027947368767494322,-0.11028444194505871,0.06212710265843411,0.03588491044536132,0.09885871785230536
6.3500000000000005,0.024432633096636045,0.014651267377484027,-0.028857297576860615,-0.11387515532439531,0.06414987771900149,0.03705327495607494,0.10207742499354629
6.4,0.025187231012359267,0.015103769397304229,-0.02974855053837231,-0.11739217105170476,0.06613113630170106,0.03819765935140331,0.10523006973052038
6.45,0.025925430991225514,0.015546438233923052,-0.03062043595396058,-0.1208327595843193,0.0680693407592042,0.03931717547892479,0.10831420530751348
6.5,0.026646647392632748,0.01597892270222619,-0.031472262125556705,-0.1241941913795708,0.06996295344418263,0.0404109351862178,0.11132738496881232
6.550000000000001,0.027350294575978883,0.016400871617099272,-0.032303337355092,-0.1274737368947916,0.07181043670930765,0.041478050320860396,0.11426716195870315
6.6000000000000005,0.028035786900661858,0.01681193379342795,-0.033112969944497805,-0.13066866658731438,0.07361025290725064,0.04251763273043114,0.11713108952147223
6.65,0.02870253872607966,0.01721175804609792,-0.03390046819570535,-0.13377625091447123,0.07536086439068362,0.043528794262508164,0.1199167209014058
6.7,0.0293499644116304,0.017599993189994886,-0.03466514041064616,-0.1367937603335948,0.07706073351227817,0.04451064676467011,0.12262160934279122
6.75,0.029977478316711808,0.01797628804000447,-0.03540629489125122,-0.13971846530201693,0.07870832262470541,0.04546230208449496,0.12524330808991377
6.800000000000001,0.030584494800722038,0.018340291411012323,-0.03612323993945219,-0.1425476362770702,0.08030209408063721,0.04638287206956122,0.12777937038706066
6.8500000000000005,0.0311704282230589,0.018691652117904113,-0.036815283857180005,-0.1452785437160868,0.08184051023274481,0.047271468567447156,0.13022734947851755
6.9,0.03173469294312046,0.019030018975565534,-0.03748173494636624,-0.14790845807639907,0.08332203343370011,0.04812720342573111,0.1325847986085713
6.95,0.03227670332030469,0.01935504079888225,-0.03812190150894213,-0.15043464981533966,0.08474512603617479,0.04894918849199151,0.13484927102150843
7.0,0.03279587371400951,0.019666366402739898,-0.03873509184683893,-0.15285438939024057,0.0861082503928401,0.049736535613806414,0.13701831996161512
7.050000000000001,0.03329161848363293,0.019963644602024183,-0.03932061426198808,-0.15516494725843447,0.08740986885636773,0.05048835663875446,0.13908949867317794
7.1000000000000005,0.03376335198857282,0.020246524211620723,-0.039877777056320736,-0.15736359387725288,0.08864844377942899,0.051203763414413704,0.14106036040048284
7.15,0.034210488588227256,0.020514654046415268,-0.04040588853176828,-0.15944759970402883,0.0898224375146956,0.0518818677883628,0.14292845838781676
7.2,0.03463244264199405,0.020767682921293322,-0.04090425699026199,-0.16141423519609405,0.09093031241483898,0.052521781608179635,0.1446913458794656
7.25,0.03502862850927136,0.02100525965114074,-0.041372190733733126,-0.1632607708107817,0.09197053083253116,0.05312261672144279,0.14634657611971624
7.300000000000001,0.03539846054945698,0.021227033050843048,-0.04180899806411312,-0.16498447700542318,0.09294155512044319,0.05368348497573063,0.14789170235285468
7.3500000000000005,0.03574135312194906,0.02143265193528602,-0.04221398728333317,-0.16658262423735168,0.09384184763124709,0.05420349821862147,0.14932427782316793
7.4,0.0360567205861453,0.021621765119355176,-0.04258646669332462,-0.16805248296389894,0.09466987071761375,0.054681768297693466,0.15064185577494146
7.45,0.03634397730144393,0.02179402141793634,-0.04292574459601888,-0.16939132364239728,0.09542408673221547,0.05511740706052517,0.15184198945246238
7.5,0.036602537627242755,0.021949069645915083,-0.04323112929334702,-0.1705964167301795,0.09610295802772313,0.055509526354694715,0.15292223210001665
7.550000000000001,0.036831815922939895,0.02208655861817712,-0.04350192908724062,-0.17166503268457725,0.096704946956809,0.05585723802778054,0.15388013696189157
7.6000000000000005,0.03703122654793294,0.02220613714960801,-0.04373745227963072,-0.1725944419629229,0.09722851587214384,0.05615965392736081,0.1547132572823723
7.65,0.03720018386162037,0.02230745405509354,-0.04393700717244874,-0.17338191502254938,0.0976721271263999,0.056415885901014054,0.15541914630574577
7.7,0.037338102223399755,0.02239015814951934,-0.04409990206762608,-0.17402472232078867,0.09803424307224827,0.056625045796318545,0.15599535727629854
7.75,0.03744439599266941,0.022453898247771126,-0.04422544526709405,-0.17452013431497349,0.09831332606236096,0.05678624546085269,0.15643944343831714
7.800000000000001,0.037518479528826934,0.022498323164734456,-0.0443129450727838,-0.17486542146243536,0.09850783844940908,0.05689859674219462,0.15674895803608802
7.8500000000000005,0.03755976719127037,0.02252308171529503,-0.04436170978662668,-0.1750578542205069,0.09861624258606425,0.05696121148792262,0.15692145431389654
7.9,0.03756767333939796,0.022527822714338605,-0.04437104771055408,-0.17509470304652106,0.09863700082499839,0.05697320154561532,0.15695448551603028
7.95,0.03754161233260723,0.022512194976750638,-0.04434026714649712,-0.17497323839780854,0.09856857551888243,0.056933678762850645,0.15684560488677468
8.0,0.03748099853029664,0.02247584731741703,-0.04426867639638747,-0.1746907307317037,0.09840942902038874,0.056841754987207366,0.15659236567041748
8.05,0.03738524629186366,0.022418428551223304,-0.04415558376215592,-0.17424445050553714,0.09815802368218791,0.056696542066263414,0.15619232111124337
8.1,0.037253769976706645,0.02233958749305518,-0.04400029754573424,-0.1736316681766424,0.09781282185695246,0.05649715184759732,0.15564302445354022
8.15,0.03708598394422342,0.022238972957798312,-0.04380212604905358,-0.1728496542023515,0.09737228589735338,0.05624269617878748,0.15494202894159387
8.200000000000001,0.03688130255381194,0.0221162337603384,-0.043560377574045225,-0.17189567903999653,0.09683487815606251,0.05593228690741199,0.15408688781969063
8.25,0.036639140164869945,0.021971018715560998,-0.043274360422640344,-0.17076701314690934,0.09619906098575103,0.05556503588104936,0.15307515433211652
8.3,0.03635891113679577,0.021802976638351828,-0.042943382896770424,-0.16946092698042312,0.09546329673909057,0.05514005494727764,0.1519043817231588
8.35,0.036040029828987394,0.02161175634359673,-0.04256675329836703,-0.16797469099787044,0.0946260477687536,0.054656455953675895,0.15057212323710417
8.4,0.03568191060084234,0.02139700664618104,-0.042143779929360775,-0.16630557565658177,0.09368577642740993,0.05411335074782141,0.1490759321182372
8.450000000000001,0.035283967811758965,0.02115837636099061,-0.04167377109168343,-0.16445085141389096,0.09264094506773263,0.0535098511772931,0.14741336161084556
8.5,0.03484561582113509,0.02089551430291113,-0.041156035087266375,-0.16240778872713066,0.09149001604239253,0.05284506908966923,0.1455819649592159
8.55,0.03436626898836869,0.020608069286828224,-0.04058988021804061,-0.160173658053632,0.09023145170406131,0.052118116332528185,0.14357929540763373
8.6,0.03384534167285776,0.02029569012762758,-0.03997461478593771,-0.15774572985072802,0.0888637144054111,0.0513281047534482,0.14140290620038637
8.65,0.03328224823400041,0.01995802564019488,-0.03930954709288908,-0.1551212745757518,0.08738526649911288,0.05047414620000763,0.1390503505817605
8.700000000000001,0.03267640303119424,0.019594724639415653,-0.038593985440825526,-0.1522975626860335,0.0857945703378376,0.049555352519784705,0.1365191817960407
8.75,0.03202722042383741,0.019205435940175705,-0.037827238131678646,-0.14927186463890693,0.08409008827425794,0.04857083556035775,0.13380695308751478
8.8,0.031334114771327866,0.018789808357360625,-0.0370086134673798,-0.14604145089170392,0.08227028266104482,0.0475197071693052,0.13091121770046857
8.85,0.030596500433063726,0.01834749070585618,-0.036137419749860344,-0.14260359190175773,0.08033361585087041,0.046401079194205525,0.12782952887918944
8.9,0.029813791768442757,0.01787813180054791,-0.035212965281051285,-0.1389555581263992,0.07827855019640538,0.045214063482636666,0.12455943986796232
8.950000000000001,0.028985403136862983,0.017381380456321552,-0.03423455836288434,-0.13509462002296188,0.07610354805032186,0.043957771882177185,0.12109850391107471
9.0,0.02811074889772243,0.01685688548806281,-0.03320150729729059,-0.1310180480487773,0.07380707176529162,0.04263131624040548,0.1174442742528129
9.05,0.02718924341041892,0.016304295710657227,-0.0321131203862012,-0.12672311266117817,0.07138758369398547,0.0412338084048995,0.11359430413746241
9.1,0.02622030103435065,0.015723259938990545,-0.03096870593154774,-0.12220708431749744,0.06884354618907589,0.039764360223238204,0.10954614680931134
9.15,0.025203336128915375,0.0151134269879485,-0.029767572235261386,-0.1174672334750664,0.06617342160323382,0.03822208354299947,0.10529735551264464
9.200000000000001,0.024137763053510928,0.014474445672416583,-0.028509027599273446,-0.11250083059121721,0.0633756722891305,0.036606090211761415,0.10084548349174847
9.25,0.02302299616753571,0.013805964807280613,-0.027192380325515318,-0.10730514612328268,0.060448760599438156,0.034915492077102886,0.09618808399091033
9.3,0.021858449830387414,0.013107633207426209,-0.02581693871591829,-0.10187745052859569,0.05739114888682814,0.03314940098660195,0.09132271025441635
