SilviaXuva/Vision-guided-robot-manipulator/Helpers/Outputs copy/2023-12-09_18h06m43s/green7/Align/Joint Comparison/q_Ref.csv
,q0,q1,q2,q3,q4,q5,q6
0.0,0.30429652177205657,-0.3266318905893706,-0.2218244332014523,-1.9103019245249566,1.272324467426654,-0.10789704734771277,0.22847322107946866
0.05,0.3042957144705536,-0.3266323746956119,-0.22182347970046806,-1.9102981618693444,1.27232234779049,-0.10789827165965833,0.2284698482437088
0.1,0.3042901118705961,-0.3266357343494675,-0.2218168624892351,-1.9102720493771763,1.2723076377057945,-0.10790676827465161,0.22844644106632156
0.15000000000000002,0.30427505141893263,-0.32664476549659255,-0.22179907464240026,-1.9102018559082345,1.2722680952574312,-0.10792960818119143,0.2283835198036412
0.2,0.3042460140442593,-0.326662178042289,-0.22176477870063724,-1.910066519060255,1.2721918552538587,-0.10797364477043331,0.2282622041671519
0.25,0.30419862269311815,-0.32669059672946865,-0.22170880494140136,-1.9098456383450704,1.2720674253830127,-0.10804551605657048,0.22806420720659837
0.30000000000000004,0.3041286408657958,-0.326732562016616,-0.22162614964968447,-1.9095194683647534,1.2718836823681878,-0.108151646897215,0.22777182919309658
0.35000000000000003,0.3040319711522217,-0.32679053095575067,-0.22151197338876966,-1.9090689119877606,1.2716298681239195,-0.10829825121377877,0.22736795150224448
0.4,0.3039046537678669,-0.32686687807039055,-0.22136159927098623,-1.9084755135250755,1.2712955859118649,-0.10849133421185458,0.2268360304972327
0.45,0.3037428650896425,-0.32696389623351446,-0.22117051122846446,-1.9077214519063517,1.2708707964966854,-0.10873669460159721,0.22616009141195534
0.5,0.3035429161917979,-0.3270837975455248,-0.22093435228389038,-1.9067895338560563,1.2703458143019277,-0.10903992681810443,0.22532472223412053
0.55,0.3033012513818195,-0.3272287142122106,-0.22064892282126067,-1.9056631870696137,1.2697113035659058,-0.1094064232417981,0.22431506758836134
0.6000000000000001,0.30301444673632927,-0.32740069942271016,-0.22031017885663745,-1.9043264533895479,1.2689582744975827,-0.10984137641880519,0.22311682261934637
0.65,0.30267920863698294,-0.3276017282274737,-0.2199142303089032,-1.902763981981627,1.2680780794324515,-0.11034978128133885,0.22171622687489045
0.7000000000000001,0.3022923723063689,-0.32783369841622634,-0.21945733927051536,-1.9009610225110058,1.2670624089884186,-0.11093643736807945,0.22010005818906547
0.75,0.3018509003439063,-0.3280984313959309,-0.2189359182782615,-1.8989034183183693,1.265903288221683,-0.11160595104455567,0.21825562656531097
0.8,0.30135188126174395,-0.3283976730687507,-0.2183465285840138,-1.8965775995960759,1.2645930727826202,-0.11236273772352552,0.21617076805954497
0.8500000000000001,0.30079252802065826,-0.32873309471001194,-0.21768587842548412,-1.8939705765643011,1.263124445071663,-0.11321102408535738,0.21383383866327457
0.9,0.3001701765659524,-0.32910629384616713,-0.21695082129697874,-1.8910699326471807,1.2614904103951827,-0.11415485029841113,0.21123370818670678
0.9500000000000001,0.2994822843633543,-0.32951879513275745,-0.21613835422015312,-1.8878638176489537,1.2596842931213716,-0.11519807223941911,0.20835975414185914
1.0,0.2987264289349153,-0.3299720512323756,-0.21524561601476694,-1.8843409409301062,1.2576997328361241,-0.11634436371386721,0.20520185562567053
1.05,0.29790030639490866,-0.3304674436926287,-0.21426988556943868,-1.8804905645835146,1.255530680498919,-0.11759721867637596,0.20175038720311178
1.1,0.29700172998572816,-0.3310062838241009,-0.21320858011240057,-1.8763024966105888,1.2531713945987002,-0.11895995345108155,0.19799621279029644
1.1500000000000001,0.29602862861378626,-0.33158981357831635,-0.21205925348225346,-1.8717670840974152,1.2506164373097597,-0.12043570895201688,0.19393067953759158
1.2000000000000002,0.2949790453854131,-0.3322192064257019,-0.21081959439872155,-1.8668752063909009,1.2478606706476176,-0.12202745290349264,0.18954561171272827
1.25,0.29385113614275443,-0.3328955682335499,-0.20948742473340728,-1.8616182682749163,1.2448992526249059,-0.1237379820604783,0.18483330458391264
1.3,0.2926431679996706,-0.3336199381439809,-0.20806069778054614,-1.8559881931464386,1.241727633407248,-0.1255699244289833,0.1797865183029362
1.35,0.29135351787763475,-0.3343932894519066,-0.2065374965277615,-1.849977416191695,1.2383415514691416,-0.1275257414864379,0.17439847178828694
1.4000000000000001,0.2899806710416314,-0.33521653048299255,-0.20491603192681943,-1.8435788775623072,1.2347370297498408,-0.12960773040207443,0.16866283660825976
1.4500000000000002,0.2885232196360549,-0.3360905054716208,-0.20319464116438352,-1.8367860155514324,1.2309103718092362,-0.13181802625730826,0.1625737308640673
1.5,0.28697986122060803,-0.33701599543885297,-0.2013717859327698,-1.8295927597699089,1.2268581579837383,-0.13415860426611884,0.1561257130729507
1.55,0.28534939730620046,-0.3379937190703929,-0.19944605070070143,-1.821993524322398,1.222577241542158,-0.1366312819954308,0.1493137760512902
1.6,0.28363073189084714,-0.3390243335945492,-0.19741614098406354,-1.8139832009835282,1.2180647448415887,-0.1392377215854949,0.14213334079771595
1.6500000000000001,0.28182286999556694,-0.34010843566019855,-0.19528088161665827,-1.8055571523740381,1.2133180554832879,-0.14197943197026927,0.13458025037621876
1.7000000000000002,0.279924916200281,-0.341246562214748,-0.19303921502095928,-1.7967112051369198,1.2083348224685593,-0.1448577710978003,0.12665076379926063
1.75,0.27793607317971136,-0.342439191382098,-0.19069019947886678,-1.7874416431135622,1.2031129523546338,-0.14787394815060367,0.11834154991088569
1.8,0.27585564023927933,-0.3436867433406051,-0.1882330074024624,-1.7777452005198942,1.1976506054105513,-0.15102902576604565,0.1096496812698307
1.85,0.27368301185100413,-0.34498958120104495,-0.18566692360476378,-1.7676190551225284,1.1919461917730432,-0.15432392225672387,0.100572628032636
1.9000000000000001,0.27141767618940127,-0.3463480118845746,-0.1829913435704797,-1.7570608214149042,1.1859983676024126,-0.15775941383084852,0.09110825183675605
1.9500000000000002,0.2690592136673811,-0.3477622870006959,-0.1802057717267647,-1.7460685437934311,1.179806031238418,-0.16133613681262338,0.08125479968367028
2.0,0.2666072954721473,-0.3492326037252177,-0.17730981971397386,-1.7346406897336324,1.1733683193561526,-0.1650545898626269,0.07101089782199352
2.0500000000000003,0.2640616821010952,-0.3507591056782191,-0.17430320465641796,-1.7227761429662878,1.1666846031219278,-0.16891513619819315,0.06037554563058717
2.1,0.2614222218977107,-0.35234188380201203,-0.17118574743311793,-1.7104741966535773,1.159754484349154,-0.172918005813793,0.04934810950166954
2.15,0.2586888495874683,-0.35398097723910404,-0.16795737094855984,-1.6977345465652243,1.1525777916542232,-0.1770632977014151,0.03792831672392674
2.2,0.2558615848137299,-0.355676374210161,-0.16461809840344968,-1.6845572842546392,1.1451545766123892,-0.18135098207094708,0.02611624936562315
2.25,0.2529405306736431,-0.3574280128919702,-0.16116805156546843,-1.6709428902350625,1.1374851099136505,-0.18578090257055624,0.013912338157712811
2.3000000000000003,0.24992587225403984,-0.35923578229540265,-0.15760744904002644,-1.656892227155708,1.1295698775186316,-0.19035277850707105,0.0013173563769491303
2.35,0.2468178751673349,-0.3610995231433764,-0.1539366045410187,-1.642406532977907,1.1214095768144645,-0.19506620706636188,-0.011667586271003394
2.4000000000000004,0.24361688408742416,-0.3630190287488189,-0.15015592516157933,-1.6274874141512492,1.1130051127706706,-0.19992066553372234,-0.025041049768459445
2.45,0.24032332128558348,-0.36499404589263007,-0.14626590964483663,-1.6121368387897301,1.1043575940950423,-0.20491551351424986,-0.03880126990260102
2.5,0.23693768516636687,-0.36702427570164475,-0.14226714665466783,-1.5963571298478905,1.095468329389525,-0.21004999515322736,-0.05294616438236788
2.5500000000000003,0.23346054880350503,-0.36910937452659603,-0.13816031304645382,-1.5801509582969615,1.086338823306098,-0.21532324135650394,-0.06747333895534624
2.6,0.22989255847580414,-0.3712489548200774,-0.13394617213783427,-1.5635213363010079,1.0769707727026572,-0.2207342720108758,-0.0823800935246577
2.6500000000000004,0.22623443220304384,-0.37344258601450603,-0.12962557197946206,-1.5464716103930711,1.0673660627988952,-0.2262819982044677,-0.0976634282658494
2.7,0.22248695828187626,-0.3756897954000853,-0.12519944362575847,-1.5290054546513128,1.0575267633321854,-0.23196522444711376,-0.11332004974378279
2.75,0.2186509938217241,-0.37799006900276766,-0.1206687994056677,-1.5111268638751583,1.0474551247134614,-0.23778265089073838,-0.12934637702952267
2.8000000000000003,0.21472746328067946,-0.3803428524622174,-0.11603473119341204,-1.4928401467614394,1.0371535741830997,-0.24373287554973766,-0.145738547817227
2.85,0.21071735700140198,-0.3827475519097735,-0.11129840867924634,-1.474149919080538,1.0266247119668015,-0.24981439652136017,-0.1624924245410359
2.9000000000000004,0.2066217297470177,-0.38520353484641234,-0.10646107764021308,-1.4550610968525295,1.0158713074314738,-0.25602561420608816,-0.17960360049196122
2.95,0.20244169923701721,-0.38771013102071045,-0.10152405821089712,-1.4355788895233264,1.0048962952411118,-0.26236483352801854,-0.19706740593477517
3.0,0.19817844468315454,-0.39026663330680744,-0.0964887431541806,-1.415708793140821,0.9937027715126798,-0.2688302661552437,-0.21487891422490007
3.0500000000000003,0.19383320532534506,-0.3928722985823687,-0.09135659613199743,-1.3954565835310282,0.9822939899719932,-0.2754200327202334,-0.23303294792529855
3.1,0.18940727896756482,-0.39552634860654806,-0.08612914997608881,-1.374828309474232,0.970673358109601,-0.28213216504021454,-0.2515240849233602
3.1500000000000004,0.18490202051374813,-0.3982279708979509,-0.08080800495875723,-1.3538302858811235,0.9588444333366657,-0.28896460833755344,-0.27034666454779427
3.2,0.1803188405036868,-0.40097631961259655,-0.07539482706362202,-1.33246908696895,0.9468109191408467,-0.29591522346013593,-0.2894947936855158
3.25,0.17565920364892823,-0.40377051642188133,-0.06989134625637378,-1.310751539437654,0.9345766612421813,-0.3029817891017491,-0.308962352898537
3.3000000000000003,0.1709246273686739,-0.4066096513905414,-0.06429935475552906,-1.288684715646018,0.9221456437489657,-0.3101620040224623,-0.3287430025408561
3.35,0.16611668032567806,-0.4094927838546152,-0.05862070530318572,-1.2662759267878085,0.909521985313638,-0.3174534892690074,-0.3488301888753459
3.4000000000000004,0.1612369809621462,-0.4124189432994066,-0.052857309435777405,-1.2435327160679188,0.896709935288659,-0.3248537903951608,-0.3692171501906435
3.45,0.15628719603563332,-0.4153871302374475,-0.047011135754828154,-1.2204628518785117,0.8837138698823939,-0.3323603796821244,-0.38989692291804035
3.5,0.15126903915494283,-0.4183963170864605,-0.04108420819770811,-1.1970743209751646,0.870538288314995,-0.3399706583589054,-0.4108623477483694
3.5500000000000003,0.14618426931602435,-0.42144544904732223,-0.035078604308386885,-1.1733753216530096,0.8571878089742808,-0.3476819588226996,-0.4321060757488979
3.6,0.14103468943787326,-0.4245334449820253,-0.028996453508190023,-1.149374256922881,0.8436671655716217,-0.3554915468592701,-0.4536205744802123
3.6500000000000004,0.13582214489842795,-0.42765919829164184,-0.022839935366552516,-1.1250797276874551,0.8299812032978174,-0.3633966238633301,-0.4753981341131118
3.7,0.13054852207046963,-0.43082157779428576,-0.016611277871774688,-1.1005005259173966,0.8161348749789823,-0.37139432905892267,-0.49743087354549365
3.75,0.1252157468575195,-0.43401942860307596,-0.010312755701775922,-1.0756456278274973,0.8021332372324239,-0.3794817417198032,-0.5197107465192466
3.8000000000000003,0.11982578322973822,-0.4372515730040988,-0.003946688494850331,-1.0505241870528255,0.7879814466225268,-0.38765588338981916,-0.5422295477371365
3.85,0.11438063175982419,-0.4405168113343709,0.0024845608795785457,-1.0251455278248645,0.7736847558166341,-0.3959137201032915,-0.5649789189796972
3.9000000000000004,0.10888232815891163,-0.4438139228598022,0.008978588050203185,-0.9995191381476585,0.7592485097409277,-0.4042521646053963,-0.5879503552221206
3.95,0.10333294181246958,-0.44714166665315846,0.015532948873077213,-0.9736546629739541,0.7446781417363115,-0.41266807857254534,-0.6111352107511443
4.0,0.09773457431620006,-0.45049878247202424,0.022145161160860377,-0.9475618973813453,0.7299791697142919,-0.421158274832767,-0.6345247052819423
4.05,0.09208935801193693,-0.4538839916367654,0.028812706412063516,-0.921250779748417,0.7151571923128611,-0.42971951958608745,-0.6581099300750122
4.1000000000000005,0.08639945452354394,-0.4572959979084924,0.035533031540294746,-0.8947313849308856,0.7002178850523765,-0.4383485346249121,-0.6818818540530678
4.15,0.08066705329281335,-0.46073348836702244,0.042303550603503326,-0.868013917437745,0.6851669964914441,-0.4470419995544062,-0.7058313299179259
4.2,0.07489437011536493,-0.46419513428884274,0.04912164653322537,-0.8411087046074106,0.6700103443827999,-0.45579655401287583,-0.7299491002673947
4.25,0.06908364567654349,-0.4676795920250732,0.05598467286382963,-0.8140261897838585,0.6547538118291911,-0.46460879989214937,-0.7542258037121671
4.3,0.06323714408731831,-0.47118550387942904,0.06288995546176168,-0.7867769254927739,0.6394033434392581,-0.4734753035579584,-0.7786519809927055
4.3500000000000005,0.057357151420180996,-0.47471149898618387,0.06983479425478978,-0.7593715666176899,0.6239649414834159,-0.48239259807031865,-0.8032180810961345
4.4,0.05144597424504466,-0.4782561941881319,0.07681646496124928,-0.7318208635761354,0.6084446620497367,-0.4913571854039106,-0.8279144673731265
4.45,0.045505938165141424,-0.4818181949145517,0.08383222081928887,-0.7041356554957741,0.5928486111998301,-0.5003655386684616,-0.8527314236547956
4.5,0.03953938635292181,-0.48539609605916784,0.09087929431611486,-0.6763268633905504,0.5771829411247259,-0.5094141043291263,-0.8776591603695834
4.55,0.03354867808595302,-0.4889884828581146,0.09795489891723669,-0.6484054833368327,0.5614538463007556,-0.5184993044268673,-0.902687820660149
4.6000000000000005,0.027536187282816482,-0.49259393176789845,0.10505623079571264,-0.6203825796495532,0.5456675596454327,-0.5276175387988377,-0.9278074865002606
4.65,0.021504301039008522,-0.49621101134336043,0.1121804705613933,-0.5922692780583592,0.5298303486733379,-0.5367651872987595,-0.9530081848116798
4.7,0.015455418162836243,-0.4998382831156397,0.11932478499016896,-0.5640767588837463,0.5139485116519964,-0.545938612017308,-0.9782798935810564
4.75,0.009391947711318072,-0.5034743024701356,0.1264863287532132,-0.5358162502132104,0.49802837375776243,-0.5551341595024897,-1.003612547976814
4.800000000000001,0.003316307526080975,-0.5071176195244711,0.1336622461462288,-0.5074990210773838,0.48207628323169993,-0.5643481629800258,-1.028996046466042
4.8500000000000005,-0.0027690772307399913,-0.5107667800064548,0.14084967281869232,-0.4791363746261872,0.4660986075354653,-0.5735769445737313,-1.05442025693138
4.9,-0.008861775540604189,-0.5144203261320444,0.14804573750309974,-0.4507396413049638,0.45010172950718697,-0.5828168175258978,-1.0798750227879141
4.95,-0.01495935199266657,-0.5180767974833093,0.155247563744212,-0.42232017203062755,0.4340920435173494,-0.5920640884176733,-1.1053501691000611
5.0,-0.021059368247878574,-0.5217347318863931,0.16245227162829912,-0.39388933136780757,0.4180759516246728,-0.6013150593894437,-1.1308355086984587
5.050000000000001,-0.02715938450309091,-0.5253926662894772,0.16965697951238662,-0.3654584907049858,0.40205985973199543,-0.6105660303612147,-1.1563208482968579
5.1000000000000005,-0.033256960955153125,-0.529049137640742,0.17685880575349866,-0.33703902143065023,0.3860501737421579,-0.6198133012529901,-1.1817959946090044
5.15,-0.03934965926501727,-0.5327026837663315,0.18405487043790603,-0.3086422881094273,0.37005329571388024,-0.6290531742051562,-1.2072507604655378
5.2,-0.045435044021838344,-0.5363518442483151,0.1912422971103695,-0.28027964165823027,0.3540756200176455,-0.6382819557988618,-1.2326749709308764
5.25,-0.051510684207075275,-0.5399951613026506,0.19841821450338504,-0.2519624125224049,0.3381235294915831,-0.6474959592763977,-1.2580584694201036
5.300000000000001,-0.057574154658593335,-0.5436311806571464,0.20557975826642916,-0.2237019038518686,0.32220339159734945,-0.6566915067615793,-1.2833911238158608
5.3500000000000005,-0.06362303753476561,-0.5472584524294257,0.21272407269520488,-0.19550938467725576,0.30632155457600774,-0.6658649314801279,-1.3086628325852379
5.4,-0.06965492377857385,-0.5508755320048877,0.21984831246088565,-0.16739608308606124,0.2904843436039125,-0.6750125799800499,-1.3338635308966573
5.45,-0.07566741458171006,-0.5544809809146716,0.22694964433936138,-0.1393731793987827,0.2746980569485903,-0.68413081435202,-1.358983196736768
5.5,-0.0816581228486793,-0.5580733677136185,0.2340252489404836,-0.11145179934506344,0.2589689621246192,-0.6932160144497614,-1.3840118570273354
5.550000000000001,-0.08762467466089874,-0.5616512688582347,0.24107232243730953,-0.08364300723983997,0.24330329204951529,-0.7022645801104261,-1.4089395937421227
5.6000000000000005,-0.09356471074080203,-0.5652132695846543,0.24808807829534918,-0.05595779915947885,0.2277072411996084,-0.7112729333749772,-1.4337565500237919
5.65,-0.09947588791593853,-0.5687579647866025,0.25506974900180884,-0.02840709611792347,0.21218696176592888,-0.7202375207085694,-1.4584529363007848
5.7,-0.10535588058307549,-0.5722839598933571,0.26201458779483644,-0.0010017372428410276,0.19674855981008754,-0.7291548152209291,-1.4830190364042122
5.75,-0.11120238217230072,-0.575789871747713,0.26891987039276866,0.02624752704824429,0.18139809142015428,-0.7380213188867383,-1.507445213684751
5.800000000000001,-0.11701310661112224,-0.5792743294839435,0.27578289672337297,0.05333004187179635,0.16614155886654558,-0.7468335647660118,-1.5317219171295233
5.8500000000000005,-0.12278578978857063,-0.5827359754057638,0.282600992653095,0.08023525470213078,0.15098490675790144,-0.7555881192244813,-1.5558396874789926
5.9,-0.12851819101930118,-0.5861734658642939,0.2893715117163036,0.10695272219527086,0.13593401819696882,-0.7642815841539756,-1.5797891633438501
5.95,-0.13420809450769405,-0.5895854721360207,0.29609183684453466,0.13347211701280237,0.12099471093648484,-0.7729105991927999,-1.6035610873219055
6.0,-0.13985331081195712,-0.5929706813007618,0.30275938209573783,0.1597832346457304,0.10617273353505396,-0.7814718439461203,-1.6271463121149754
6.050000000000001,-0.14545167830822703,-0.5963277971196279,0.30937159438352124,0.1858760002383404,0.09147376151303344,-0.7899620402063426,-1.650535806645775
6.1000000000000005,-0.15100106465466895,-0.599655540912984,0.315925955206395,0.21174047541204377,0.07690339350841757,-0.7983779541734912,-1.673720662174798
6.15,-0.15649936825558125,-0.6029526524384152,0.32241998237701974,0.2373668650892493,0.06246714743271187,-0.806716398675596,-1.696692098417221
6.2,-0.1619445197254955,-0.6062178907686875,0.3288512317514486,0.26274552431721077,0.04817045662681885,-0.8149742353890685,-1.7194414696597817
6.25,-0.16733448335327672,-0.6094500351697103,0.33521729895837427,0.28786696509188303,0.03401866601692194,-0.8231483770590842,-1.7419602708776714
6.300000000000001,-0.17266725856622678,-0.6126478859785005,0.34151582112837287,0.31272186318178186,0.020017028270363335,-0.8312357897199648,-1.764240143851424
6.3500000000000005,-0.17794088139418535,-0.6158102654811444,0.34774447862315083,0.33730106495184087,0.00617069995152808,-0.8392334949155577,-1.7862728832838064
6.4,-0.18315342593363082,-0.6189360187907611,0.3539009967647887,0.3615955941872677,-0.007515262322276728,-0.8471385719196178,-1.8080504429167066
6.45,-0.18830300581178167,-0.6220240147254639,0.3599831475649853,0.3855966589173949,-0.02103590572493519,-0.854948159956188,-1.82956494164802
6.5,-0.19338777565069987,-0.6250731466863255,0.3659887514543061,0.4092956582395484,-0.034386385065648506,-0.8626594604199818,-1.850808669648548
6.550000000000001,-0.19840593253139027,-0.6280823335353387,0.3719156790114263,0.4326841891428961,-0.04756196663304779,-0.8702697390967629,-1.8717740944788765
6.6000000000000005,-0.20335571745790337,-0.6310505204733796,0.3777618526923757,0.4557540533323041,-0.06055803203931309,-0.8777763283837269,-1.8924538672062745
6.65,-0.20823541682143543,-0.6339766799181712,0.3835252485597843,0.4784972640521947,-0.07337008206429263,-0.8851766295098803,-1.9128408285215732
6.7,-0.21304336386443123,-0.6368598123822449,0.3892038980121274,0.5009060529104037,-0.08599374049961961,-0.8924681147564254,-1.9329280148560617
6.75,-0.2177779401446852,-0.6396989473509049,0.39479588951297195,0.5229728767020387,-0.09842475799283545,-0.8996483296771386,-1.952708664498381
6.800000000000001,-0.22243757699944366,-0.6424931441601895,0.40029937032022,0.5446904242333344,-0.1106590158915004,-0.9067148953187515,-1.9721762237114016
6.8500000000000005,-0.22702075700950564,-0.6452414928748355,0.40571254821535563,0.5660516231455097,-0.12269253008731984,-0.9136655104413344,-1.9913243528491251
6.9,-0.2315260154633223,-0.6479431151662383,0.41103369323268757,0.5870496467386186,-0.13452145486025602,-0.9204979537386737,-2.01014693247356
6.95,-0.23595194182110268,-0.6505971651904177,0.4162611393885961,0.6076779207954153,-0.14614208672264817,-0.9272100860586544,-2.028638069471621
7.0,-0.24029718117891152,-0.6532028304659787,0.42139328641077844,0.6279301304052045,-0.15755086826333264,-0.9337998526236435,-2.046792103172016
7.050000000000001,-0.2445604357327742,-0.6557593327520757,0.42642860146749506,0.647800226787711,-0.16874439199176572,-0.9402652852508686,-2.064603611462142
7.1000000000000005,-0.2487404662427749,-0.6582659289263739,0.4313656208968115,0.6672824341169159,-0.1797194041821284,-0.9466045045728,-2.0820674169049576
7.15,-0.2528360934971592,-0.6607219118630128,0.4362029519358448,0.6863712563449242,-0.19047280871745564,-0.9528157222575275,-2.0991785928558833
7.2,-0.25684619977643686,-0.6631266113105687,0.4409392744500106,0.705061484025824,-0.2010016709337541,-0.95889724322915,-2.115932469579692
7.25,-0.2607697303174812,-0.6654793947700186,0.445573342662266,0.7233482011395438,-0.21130322146411484,-0.9648474678881491,-2.132324640367395
7.300000000000001,-0.26460569477763385,-0.6677796683727011,0.4501039868823573,0.7412267919156998,-0.22137486008284002,-0.9706648943317745,-2.148350967653138
7.3500000000000005,-0.2683531686988013,-0.6700268777582803,0.4545301152360608,0.7586929476574564,-0.23121415954954982,-0.97634812057442,-2.164007589131069
7.4,-0.2720112949715614,-0.6722205089527089,0.4588507153944327,0.7757426735653934,-0.24081886945331044,-0.9818958467680116,-2.1792909238722595
7.45,-0.27557928529926246,-0.6743600892461902,0.46306485630305216,0.7923722955613464,-0.2501869200567519,-0.9873068774223835,-2.1941976784415727
7.5,-0.27905642166212397,-0.6764451880711414,0.467171689911266,0.8085784671122749,-0.25931642614017836,-0.9925801236256602,-2.2087248530145502
7.550000000000001,-0.28244205778134124,-0.6784754178801564,0.4711704529014352,0.8243581760541172,-0.2682056908456978,-0.9977146052646382,-2.22286974749432
7.6000000000000005,-0.2857356205831818,-0.6804504350239675,0.4750604684181782,0.8397087514156363,-0.27685320952132564,-1.002709453245166,-2.236629967628462
7.65,-0.28893661166309215,-0.6823699406294098,0.47884114779761733,0.8546278702422927,-0.28525767356511844,-1.0075639117125261,-2.2500034311259154
7.7,-0.2920446087497971,-0.6842336814773837,0.482511992296625,0.8691135644200925,-0.29341797426928506,-1.0122773402718166,-2.262988373773867
7.75,-0.29505926716940056,-0.6860414508808161,0.486072594822067,0.883164227499448,-0.3013332066643044,-1.0168492162083318,-2.2755833555546325
7.800000000000001,-0.29798032130948693,-0.6877930895626251,0.489522641660048,0.8967786215190241,-0.30900267336304177,-1.0212791367079403,-2.2877872667625416
7.8500000000000005,-0.30080758608322555,-0.6894884865336821,0.4928619142051577,0.9099558838296087,-0.3164258884048765,-1.025566821077472,-2.299599334120844
7.9,-0.3035409583934674,-0.6911275799707741,0.4960902906897162,0.9226955339179606,-0.3236025810998069,-1.0297121129650941,-2.311019126898588
7.95,-0.30618041859685263,-0.6927103580945673,0.4992077479130168,0.9349974802306744,-0.3305326998725826,-1.0337149825806948,-2.322046563027507
8.0,-0.3087260319679048,-0.6942368600475688,0.502214362970573,0.9468620269980192,-0.33721641610680697,-1.0375755289162614,-2.332681915218913
8.05,-0.31117795016313854,-0.6957071767720907,0.5051103149833632,0.9582898810578189,-0.3436541279890717,-1.0412939819662652,-2.342925817080591
8.1,-0.3135364126851591,-0.697121451888212,0.5078958868270785,0.9692821586792908,-0.34984646435306677,-1.0448707049480397,-2.3527792692336758
8.15,-0.31580174834676067,-0.6984798825717411,0.5105714668613618,0.9798403923869103,-0.35579428852369555,-1.0483061965221636,-2.362243645429554
8.200000000000001,-0.31797437673503615,-0.6997827204321807,0.5131375506590603,0.9899665377842775,-0.36149870216120394,-1.0516010930128412,-2.3713206986667488
8.25,-0.32005480967546873,-0.7010302723906885,0.5155947427354657,0.9996629803779475,-0.36696104910528793,-1.0547561706282846,-2.3800125673078054
8.3,-0.3220436526960383,-0.7022229015580386,0.5179437582775581,1.0089325424013058,-0.37218291921921276,-1.0577723476810879,-2.3883217811961805
8.35,-0.32394160649132386,-0.7033610281125875,0.5201854248732565,1.0177784896384217,-0.37716615223394134,-1.060650686808618,-2.396251267773138
8.4,-0.3257494683866039,-0.7044451301782368,0.5223206842406617,1.0262045382479106,-0.38191284159224126,-1.0633923971933925,-2.403804358194633
8.450000000000001,-0.32746813380195827,-0.7054757447023939,0.5243505939573008,1.0342148615867863,-0.38642533829281356,-1.065998836783458,-2.410984793448212
8.5,-0.3290985977163656,-0.7064534683339336,0.5262763291893685,1.0418140970342948,-0.3907062547343916,-1.068471514512769,-2.4177967304698718
8.55,-0.3306419561318117,-0.7073789583011656,0.5280991844209822,1.0490073528158175,-0.3947584685598895,-1.070812092521579,-2.424244748260986
8.6,-0.33209940753738854,-0.7082529332897938,0.5298205751834175,1.055800214826693,-0.39858512650049405,-1.0730223883768129,-2.430333854005178
8.65,-0.33347225437339156,-0.7090761743208794,0.5314420397843589,1.062198753456078,-0.40218964821979375,-1.0751043772924493,-2.4360694891852037
8.700000000000001,-0.3347619044954282,-0.7098495256288054,0.5329652410371446,1.068209530410826,-0.4055757301579026,-1.0770601943499047,-2.4414575356998567
8.75,-0.33596987263851164,-0.7105738955392364,0.5343919679900057,1.0738396055393,-0.4087473493755598,-1.0788921367184092,-2.446504321980831
8.8,-0.3370977818811701,-0.7112502573470842,0.5357241376553203,1.0790965436552842,-0.4117087673982702,-1.0806026658753953,-2.451216629109647
8.85,-0.33814736510954346,-0.7118796501944697,0.5369637967388516,1.0839884213617972,-0.4144645340604116,-1.0821944098268712,-2.45560169693451
8.9,-0.3391204664814861,-0.7124631799486858,0.5381131233690001,1.0885238338749783,-0.417019491349355,-1.0836701653278078,-2.4596672301872204
8.950000000000001,-0.3400190428906663,-0.7130020200801578,0.5391744288260372,1.0927119018478995,-0.4193787772495734,-1.085032900102512,-2.463421404600031
9.0,-0.34084516543067334,-0.713497412540411,0.5401501592713661,1.0965622781944941,-0.4215478295867787,-1.0862857550650213,-2.466872873022592
9.05,-0.3416010208591118,-0.7139506686400292,0.5410428974767532,1.1000851549133444,-0.423532389872026,-1.0874320465394702,-2.470030771538785
9.1,-0.34228891306170905,-0.7143631699266189,0.541855364553577,1.1032912699115633,-0.4253385071458342,-1.0884752684804755,-2.472904725583624
9.15,-0.34291126451641596,-0.7147363690627745,0.5425904216820833,1.1061919138286873,-0.4269725418223156,-1.0894190946935312,-2.4755048560601964
9.200000000000001,-0.343470617757501,-0.7150717907040351,0.5432510718406117,1.1087989368604578,-0.4284411695332726,-1.0902673810553614,-2.477841785456463
9.25,-0.34396963683966353,-0.7153710323768553,0.5438404615348605,1.111124755582754,-0.42975138497233534,-1.0910241677343318,-2.479926643962231
9.3,-0.34441110880212555,-0.7156357653565597,0.5443618825271132,1.1131823597753896,-0.43091050573907075,-1.091693681410808,-2.481771075585983
