SilviaXuva/Vision-guided-robot-manipulator/Helpers/Outputs copy/2023-12-09_18h06m43s/blue2/Place/Joint Comparison/q_Real.csv
,q0,q1,q2,q3,q4,q5,q6
0.0,-0.636561063688558,-1.5795252584935797,-1.3041010171946317,-1.2971577175054476,1.7008710208485027,-1.9452552865698545,-0.2728986307673845
0.05,-0.6365416440539002,-1.579928956749653,-1.3040649750097706,-1.2972950859132801,1.7009757902337717,-1.9453742825786926,-0.2728378535725825
0.1,-0.6365169513076256,-1.5802392817410447,-1.3039921193981507,-1.2974171584031913,1.7009368999677257,-1.9454342864732346,-0.27276161001737154
0.15000000000000002,-0.6365048458579103,-1.5804186745325335,-1.3038897029613206,-1.2975124335920056,1.700836796276387,-1.9454720967143202,-0.2726875279493849
0.2,-0.6364681590872234,-1.5806314806154314,-1.3037475225934718,-1.2976010946557963,1.700678633958876,-1.9454734617045262,-0.27260181108208653
0.25,-0.6364127294193788,-1.5807369524470716,-1.3035678299951716,-1.2976969684260067,1.7004880382077205,-1.945444802406147,-0.2724985418956397
0.30000000000000004,-0.6363525357872437,-1.5807847246519067,-1.3033477706233652,-1.2977964567642064,1.7002619021103336,-1.9453677151301842,-0.2723718012316004
0.35000000000000003,-0.6362640608034842,-1.5808449832085736,-1.3030722429684785,-1.2979229923497158,1.6999760970368203,-1.9452326770476278,-0.27220544637740446
0.4,-0.6361801980360966,-1.58078446276812,-1.3027442302382435,-1.2980692215125724,1.6996512152635577,-1.9450285908947496,-0.2720009807080945
0.45,-0.636062075697225,-1.5806905117227146,-1.3023560370561051,-1.298231168542046,1.6992648603842024,-1.9447225012970042,-0.2717475427806745
0.5,-0.6359461702178772,-1.5804573869612477,-1.3019068217494199,-1.2984277432753493,1.6988325056635731,-1.9443337307704465,-0.27144393351067186
0.55,-0.6357731767255628,-1.580199715928775,-1.3013871878730052,-1.298677253564055,1.6983486731142972,-1.9438244454163907,-0.27106878651479493
0.6000000000000001,-0.6355622129604025,-1.5798415985448686,-1.3007956041795457,-1.2989858658059104,1.697819980793554,-1.9431897879168714,-0.2706146576620385
0.65,-0.6353140954992686,-1.5794232863199735,-1.3001207316057222,-1.2993422499327831,1.697207775606488,-1.9424164875111687,-0.270077587864955
0.7000000000000001,-0.6349919092433304,-1.578988412995813,-1.2993421813662684,-1.2997646505701677,1.6964757503100483,-1.9414954893093719,-0.2694442139211779
0.75,-0.6346580682217909,-1.578467660736598,-1.298453550909841,-1.3002357569758045,1.6956497044412713,-1.9404426441649774,-0.26871926505475396
0.8,-0.6342741528309295,-1.5778942178952857,-1.2974452229378146,-1.3007696384680372,1.6947188983487629,-1.9392379916203497,-0.26789358317035905
0.8500000000000001,-0.6338155915010365,-1.5772848106169708,-1.2963010039446798,-1.3013690990055933,1.693639062730275,-1.9378653072431382,-0.2669583595247142
0.9,-0.633290962469205,-1.576629080373916,-1.2950070218913508,-1.30202496344831,1.6924039594449911,-1.936330570535149,-0.26591019298439345
0.9500000000000001,-0.6326669955770459,-1.5759381019993672,-1.2935461644430488,-1.3027080097132075,1.6909584163661515,-1.9346041622235512,-0.2647481173159699
1.0,-0.6319850034664849,-1.5750614047647125,-1.2919289442433772,-1.3034535890931995,1.6894074989322023,-1.9327203157474773,-0.2634709963752693
1.05,-0.6312296962599969,-1.5739993111169732,-1.290163062854134,-1.3042918138259243,1.68776948948299,-1.9306700958749825,-0.26206862621779486
1.1,-0.6304024965828445,-1.5727701931435274,-1.2882529570973507,-1.30521033974174,1.6860339886449778,-1.9284284072328335,-0.26053673497438773
1.1500000000000001,-0.6294993209245718,-1.5713806343654386,-1.286199514149946,-1.306208856882041,1.684193632701494,-1.9259836150573855,-0.25887142938894636
1.2000000000000002,-0.6285220526303065,-1.569837024738845,-1.2840030254219237,-1.307286166387603,1.6822436225868813,-1.9233197438700775,-0.25707009428577804
1.25,-0.6274652318560899,-1.5681353366282436,-1.2816611233172026,-1.308440412781813,1.6801763957299154,-1.9204337086070173,-0.25513014249966876
1.3,-0.6263297756398222,-1.5662830442838158,-1.2791711488555402,-1.3096754494514713,1.6779851350425048,-1.9173123738751683,-0.25304885569288865
1.35,-0.6251116974931431,-1.5642686446307834,-1.2765304149454193,-1.3109876213456173,1.675668043863034,-1.913954383982896,-0.2508241906769788
1.4000000000000001,-0.6238094493602561,-1.5620969076369242,-1.2737362771084515,-1.3123848841859014,1.673224797476459,-1.910352698193919,-0.24845240326901363
1.4500000000000002,-0.6224211335606353,-1.5597633769134478,-1.2707853057655791,-1.3138649005850795,1.6706489763710837,-1.906504422158701,-0.24593126625572492
1.5,-0.6209463321548615,-1.5572663706529601,-1.2676755128106756,-1.3154276432588685,1.6679393591455631,-1.9024006173132335,-0.24325891449279197
1.55,-0.6193799244071225,-1.55459920020143,-1.2644030212578388,-1.317074574316875,1.665090477917803,-1.8980447677964123,-0.2404330792326146
1.6,-0.6177234267823205,-1.5517682305972786,-1.2609652249859071,-1.3188093300993189,1.6621035434505351,-1.893430088576417,-0.23745118140990806
1.6500000000000001,-0.6159749992644823,-1.5487661881695136,-1.257360496781566,-1.3206302679733173,1.6589769131530334,-1.888551866291716,-0.234311684183624
1.7000000000000002,-0.6141323397778299,-1.545592193337772,-1.253585388526901,-1.3225367462519917,1.6557031019130644,-1.8834110949899412,-0.23101342105122943
1.75,-0.6121953495987069,-1.5422480045188793,-1.2496387585402926,-1.3245328161540855,1.6522861857988944,-1.8780002568964873,-0.2275543572907812
1.8,-0.6101579978981094,-1.538730199187504,-1.2455170954620312,-1.3266207292839876,1.648722461642514,-1.8723267661117948,-0.22393199826736268
1.85,-0.6080240384031965,-1.5350407721278234,-1.24121859363408,-1.3287974923936234,1.64500846851522,-1.8663823360614875,-0.22014599175272184
1.9000000000000001,-0.6057905372724552,-1.531173016535188,-1.2367417682455442,-1.3310643955715835,1.6411423816662247,-1.8601659787687184,-0.2161956470096832
1.9500000000000002,-0.6034595193567955,-1.527132876159167,-1.2320867334916625,-1.3334221752220456,1.6371311103487587,-1.8536743477077564,-0.21207985289588846
2.0,-0.6010260559306665,-1.5229094037900477,-1.22725086495284,-1.3358655972257618,1.6329614869639604,-1.8469117013379215,-0.20779926195782428
2.0500000000000003,-0.5984917341718696,-1.5185149330444083,-1.222232656551684,-1.3384006806480704,1.628638943025765,-1.8398761737880711,-0.2033525788785727
2.1,-0.5958534209641447,-1.5139445233179005,-1.217030585609658,-1.341027411519103,1.6241598302920297,-1.8325679933464187,-0.1987391502956417
2.15,-0.593109831228445,-1.5092001379417805,-1.2116427897274593,-1.3437444304303965,1.61952155882014,-1.8249888440913704,-0.19395881476367524
2.2,-0.5902643931977832,-1.5042825936081687,-1.206070167082412,-1.346552128921857,1.6147303532137383,-1.8171339913819584,-0.18901169281394326
2.25,-0.5873112100696743,-1.4991877815632637,-1.2003108991781954,-1.3494488424269948,1.609777153121234,-1.80900940675218,-0.18389818841153727
2.3000000000000003,-0.5842546769288782,-1.4939234223144555,-1.1943651314728467,-1.3524366365684457,1.6046694970727222,-1.800614386451594,-0.1786183725117119
2.35,-0.5810902472397421,-1.4884813518220004,-1.1882321970476186,-1.3555119029842928,1.5993989446376167,-1.7919496028301811,-0.17317339934885145
2.4000000000000004,-0.5778182180852804,-1.4828745619692798,-1.1819106279800649,-1.3586760986541355,1.593968148526234,-1.7830212108410985,-0.16756348157291445
2.45,-0.5744402425758391,-1.477095982924987,-1.1754012101825662,-1.3619275605770609,1.5883769358937467,-1.773825573235645,-0.16179004389968368
2.5,-0.5709533894378924,-1.4711488094076959,-1.1687041990668887,-1.3652664275290047,1.5826268738446854,-1.764367296261692,-0.15585372132315622
2.5500000000000003,-0.5673584495125286,-1.4650379251886458,-1.1618190656474963,-1.3686911302187228,1.5767136965231103,-1.7546489324089645,-0.14975604696240047
2.6,-0.5636528351116048,-1.458759906067855,-1.1547444179535884,-1.372197815104991,1.570633117547076,-1.7446778879999965,-0.1434991600106613
2.6500000000000004,-0.5598388881566544,-1.4523274198820475,-1.147482206203184,-1.3757929090423564,1.5643958612482713,-1.7344493734009083,-0.1370832776059887
2.7,-0.5559155935384763,-1.4457303751668253,-1.1400333446559794,-1.379469704994117,1.5579966634315412,-1.7239693480690514,-0.13051092777079168
2.75,-0.5518798696440593,-1.4389803649730135,-1.132396967845094,-1.3832291579121834,1.5514338834695878,-1.713246057724717,-0.12378366916003299
2.8000000000000003,-0.547732644717915,-1.432073764357971,-1.1245745624824757,-1.3870699120548793,1.5447093041554867,-1.702277977084474,-0.11690366395114657
2.85,-0.5434732034652764,-1.4250169861303112,-1.1165680634497168,-1.3909923550213432,1.5378268169521667,-1.6910681579160698,-0.10987258435425357
2.9000000000000004,-0.5391009682855815,-1.4178090735339324,-1.1083773276882212,-1.3949904334745884,1.530779333652195,-1.679625676742311,-0.10269394005431676
2.95,-0.5346160406464535,-1.4104589172752615,-1.1000043208134307,-1.3990670337309115,1.5235766145828433,-1.6679534303830037,-0.09536956514201199
3.0,-0.5300178851881888,-1.402963379166826,-1.0914497738132152,-1.4032169056610764,1.5162098515803386,-1.6560557533221139,-0.08790326106317757
3.0500000000000003,-0.5253039832619529,-1.3953321540440031,-1.0827150542617225,-1.4074423126565776,1.5086846854224885,-1.6439387380406236,-0.08029726914472105
3.1,-0.5204745815548222,-1.3875654751097433,-1.0738023775097356,-1.4117408045062343,1.5010013161589462,-1.6316048292064644,-0.07255473382056349
3.1500000000000004,-0.5155288787370021,-1.3796624688281294,-1.0647143395541425,-1.4161099304061482,1.4931643835202015,-1.6190618014755263,-0.0646789145328911
3.2,-0.5104664984744995,-1.3716306260531832,-1.0554516602286388,-1.4205453025990826,1.4851674426719406,-1.6063174271901979,-0.05667439184529541
3.25,-0.5052841311801153,-1.3634786328827608,-1.0460152933231335,-1.4250475131306835,1.4770111956140213,-1.5933782590108687,-0.04854487100398905
3.3000000000000003,-0.49998196375110343,-1.3552037760536306,-1.036409448673012,-1.429617808965904,1.4687058748764794,-1.5802459323284945,-0.040293321166930594
3.35,-0.49455880472192587,-1.346813433909622,-1.0266371431456172,-1.43425261588021,1.460249112195815,-1.5669265681261069,-0.031923960816830015
3.4000000000000004,-0.48901237789157465,-1.3383046814546444,-1.0167003950685172,-1.438947140680129,1.4516391364006478,-1.5534309965559447,-0.023441924974763384
3.45,-0.4833420360289921,-1.32968962729292,-1.0066019885338326,-1.4437000659080879,1.4428805357597914,-1.539765386881252,-0.014852038783870277
3.5,-0.4775456231741572,-1.3209683829084071,-0.9963450391482255,-1.4485116292673403,1.4339743200077506,-1.52593644561163,-0.006159028237296145
3.5500000000000003,-0.4716211265828745,-1.3121458536203743,-0.985932601908161,-1.4533761693763054,1.4249211543376916,-1.5119519625978992,0.0026313756537915955
3.6,-0.4655666678481805,-1.3032275979408923,-0.9753690501096096,-1.458294653848253,1.4157243184125883,-1.4978146485215904,0.011514035643061893
3.6500000000000004,-0.45937869941661746,-1.2942133999319145,-0.9646571278704231,-1.4632626737104557,1.4063855926070885,-1.4835413532818742,0.02048291537426454
3.7,-0.4530575217749024,-1.2851141800058345,-0.9538021398946537,-1.4682801620191965,1.396910627101983,-1.4691308660696292,0.02953223826642666
3.75,-0.44659833661118237,-1.27592837333243,-0.9428087304572585,-1.4733454246630293,1.387302007434998,-1.45459478512901,0.03865608988415147
3.8000000000000003,-0.4399965453899148,-1.2666612080028075,-0.9316809891681977,-1.478455732672213,1.3775592797124678,-1.439942289999379,0.04784779132854427
3.85,-0.4332524565834316,-1.257318108808643,-0.920422877726983,-1.4836040672336113,1.3676848013010485,-1.425183893639032,0.05709899463928274
3.9000000000000004,-0.42636091947576893,-1.2479054224174209,-0.9090410820346101,-1.488794648518765,1.357688014637636,-1.4103218876661832,0.06640356138887915
3.95,-0.41931996627046403,-1.238424016228254,-0.897540320616263,-1.4940200210255465,1.347566926471077,-1.3953695774893171,0.07575276787514974
4.0,-0.4121243583873142,-1.228876596968736,-0.885926456887888,-1.499280767078041,1.3373283525920503,-1.3803359129150465,0.08513883970758597
4.05,-0.4047675106514545,-1.2192713747423647,-0.8742069930887014,-1.5045776727389966,1.326979723739786,-1.365225443179829,0.09455464882112319
4.1000000000000005,-0.39724875203499777,-1.2096099526569342,-0.8623885338884361,-1.5099042955896909,1.3165240484303455,-1.3500496422273822,0.10399078674986398
4.15,-0.3895622293620571,-1.1998958516435791,-0.8504777290449994,-1.5152578239133165,1.3059646970117544,-1.3348180926572266,0.11343752760466154
4.2,-0.38170592161155126,-1.1901323259025138,-0.8384822031717112,-1.520634439822301,1.2953099014708318,-1.3195391571598107,0.1228847332098159
4.25,-0.37367204999790476,-1.1803272130235936,-0.8264095046956592,-1.5260330560141524,1.284563468934844,-1.3042223042517542,0.13232210192776842
4.3,-0.3654553898343913,-1.1704814042374045,-0.8142688159228866,-1.531455987569494,1.273738892888797,-1.2888778784707888,0.14174049593500568
4.3500000000000005,-0.3570505134295971,-1.1605994699195625,-0.8020707777617786,-1.5368990574507004,1.2628414815119693,-1.2735054167355395,0.15112973108413474
4.4,-0.348452995485615,-1.1506728632959524,-0.7898230210310268,-1.5423564739834164,1.2518727917562318,-1.258125845967373,0.1604771232310027
4.45,-0.33965583831569535,-1.1407254570876402,-0.7775374463910235,-1.5478272123177141,1.2408523672073881,-1.242737369035315,0.16977187854257164
4.5,-0.33065356880708,-1.1307385798276512,-0.765224126597309,-1.5533132260401792,1.2297828231720673,-1.2273559694016944,0.1790023908794863
4.55,-0.32144023064343996,-1.1207290943667825,-0.7528954859599626,-1.558807477259932,1.2186795163311863,-1.2119827468596105,0.18815646763740937
4.6000000000000005,-0.31201259135760684,-1.1106912674385128,-0.740562173024106,-1.5643082645169968,1.2075502264313978,-1.1966347796459122,0.19722054324772356
4.65,-0.30236530053266286,-1.1006349102316937,-0.7282381218926325,-1.569813367106496,1.1964110429772585,-1.1813083610602542,0.20618212862213756
4.7,-0.2924908430825883,-1.090549518074561,-0.7159367719502816,-1.5753242889718104,1.185273252032733,-1.1660162606953504,0.21502902665583826
4.75,-0.2823850485029044,-1.0804464499724842,-0.7036719006214565,-1.5808349549020302,1.1741514951228103,-1.150764527857718,0.2237474367101664
4.800000000000001,-0.27204596085990795,-1.0703262786505443,-0.6914581988877908,-1.5863438063271649,1.1630624567999075,-1.1355581475237237,0.2323238525122675
4.8500000000000005,-0.26146535774975826,-1.0601818669955987,-0.6793107511463394,-1.591851494001809,1.1520170321603898,-1.1204026533924165,0.24074511669321816
4.9,-0.2506416890397688,-1.0500221586163754,-0.6672464036290813,-1.5973535884726546,1.1410403748158824,-1.1053000710778333,0.24899868686911522
4.95,-0.2395721042647039,-1.0398402989699522,-0.6552813598943149,-1.6028517101364554,1.130145667045967,-1.09025758883277,0.25707178410092646
5.0,-0.22825368299140936,-1.0296390718435586,-0.6434326014393813,-1.6083407164967518,1.1193514070610249,-1.0752757872677507,0.2649513005359335
5.050000000000001,-0.21668671271417966,-1.019416604275563,-0.6317173235618944,-1.6138191801528365,1.1086789572617342,-1.0603598322293875,0.27262475716382545
5.1000000000000005,-0.20487232183227344,-1.009173722937264,-0.6201533256506868,-1.6192842896479893,1.0981503872360454,-1.04551022666827,0.2800802610078256
5.15,-0.19281072630042922,-0.9989074808047717,-0.6087588773053962,-1.6247363147613143,1.0877849565926558,-1.0307254753312343,0.2873070011091771
5.2,-0.1805062064595033,-0.9886174504192807,-0.597552371071185,-1.6301720635422412,1.077606342061015,-1.0160049337352814,0.2942948344631023
5.25,-0.16796174260037042,-0.9783004392120509,-0.5865516574188403,-1.6355922779484249,1.0676345042625168,-1.0013509814412147,0.30103427721062703
5.300000000000001,-0.1551845225729685,-0.9679568736729949,-0.5757747034496842,-1.6409925166207737,1.057894669219385,-0.9867610977107344,0.3075167349802723
5.3500000000000005,-0.14218232190656252,-0.9575824232828075,-0.5652391069475902,-1.6463717866798042,1.0484071895047284,-0.9722319174650946,0.3137347631599205
5.4,-0.1289661731583713,-0.9471805676201549,-0.5549622482484607,-1.6517281278754492,1.039198831884155,-0.9577594596829632,0.31968253121785833
5.45,-0.11554303951035094,-0.9367420040159103,-0.5449611027789449,-1.6570656495425753,1.0302869394450571,-0.9433395834992975,0.3253565530952042
5.5,-0.10192902679915405,-0.9262693460691548,-0.5352512848743194,-1.6623771701976966,1.021697123248995,-0.9289696104749415,0.33075324957707125
5.550000000000001,-0.08813828941930071,-0.9157602575900884,-0.5258474073946107,-1.6676621600624888,1.0134484717836316,-0.9146437287152955,0.3358705917937098
5.6000000000000005,-0.07418739557905471,-0.9052143968804142,-0.5167629243548137,-1.6729203526659557,1.0055618623142621,-0.9003575767178212,0.34070828214095933
5.65,-0.060095771588567014,-0.8946314613298272,-0.5080098731861007,-1.6781490845334994,0.9980565751435175,-0.8861045749936858,0.345267302832119
5.7,-0.04588183401508034,-0.8840088922562943,-0.4995987319951455,-1.6833474610197332,0.990949136725075,-0.8718806205195121,0.34955007410607447
5.75,-0.03157000385044083,-0.8733514481950463,-0.4915380200556547,-1.6885124798460023,0.9842582819877758,-0.8576809502958571,0.35355976741669365
5.800000000000001,-0.017178188309343003,-0.862655181519309,-0.4838349829890934,-1.6936481068550617,0.977994593988027,-0.84349936463561,0.3573021835214525
5.8500000000000005,-0.002734380878954442,-0.8519250795392621,-0.47649457219452407,-1.6987468721035686,0.9721755698670519,-0.8293302759486284,0.360783173788354
5.9,0.011740622043940885,-0.8411591417116955,-0.4695199318701005,-1.703813181610902,0.966806952115326,-0.8151694750433586,0.3640104450658218
5.95,0.026218008512133073,-0.830361641408635,-0.4629118681119352,-1.7088419082904178,0.9619007955233643,-0.8010129867911785,0.36699191804253484
6.0,0.04067258393955471,-0.8195344306525015,-0.45666904620910403,-1.713831578843733,0.9574623329749531,-0.7868574977093421,0.3697360109395598
6.050000000000001,0.05507922285164158,-0.8086808603617575,-0.4507882662998967,-1.7187828120562094,0.9534960713043625,-0.7726981844599055,0.3722525161553498
6.1000000000000005,0.06940838591702742,-0.7978057912337234,-0.4452639131762969,-1.723693032324607,0.9500057449256073,-0.7585352856250556,0.37455088042375234
6.15,0.08363718690094175,-0.786912840070479,-0.44008849571664943,-1.7285629728980816,0.9469885830771816,-0.7443672099937224,0.3766406630186639
6.2,0.09773777236973517,-0.7760070750579764,-0.4352524905695301,-1.7333897309158988,0.9444447380605354,-0.7301953711836497,0.3785311529347547
6.25,0.11168386292006843,-0.7650947827750406,-0.43074460788735786,-1.7381717944449047,0.9423720527181575,-0.7160140909834581,0.3802326005132955
6.300000000000001,0.1254521036055577,-0.7541794127067445,-0.42655184806974145,-1.7429102221453532,0.9407624516012197,-0.7018298928815023,0.38175430009861777
6.3500000000000005,0.13901565794770407,-0.7432692231696479,-0.42265943283143936,-1.747600136458013,0.9396119636958481,-0.6876422553366285,0.3831047358408754
6.4,0.1523524212879181,-0.7323707560656961,-0.41905129018759063,-1.7522448451834638,0.9389095850292702,-0.6734559051150352,0.3842922573466689
6.45,0.16544189014894756,-0.7214886480037002,-0.4157102189063174,-1.7568412345243256,0.9386465143710551,-0.6592737480322391,0.38532460143808017
6.5,0.1782612010677988,-0.7106300909829051,-0.41261768902181195,-1.7613881208044821,0.9388111250571812,-0.6451001844611199,0.3862086452136155
6.550000000000001,0.1907898853442177,-0.6998026305280585,-0.4097543564612914,-1.7658826241677916,0.9393935473546204,-0.63094164720936,0.3869499890218429
6.6000000000000005,0.20300959959584333,-0.6890137205025437,-0.4071000736738754,-1.7703240211411442,0.9403806493322303,-0.6168028143316499,0.38755362200639093
6.65,0.21490137424700073,-0.6782705204232573,-0.4046342723752817,-1.7747129887362827,0.941759390584248,-0.6026924931632583,0.3880241486232669
6.7,0.2264498531670349,-0.6675815682741559,-0.40233587769842966,-1.7790445272731663,0.9435171214224235,-0.588617801218142,0.3883636889990166
6.75,0.23764147329227892,-0.6569552347921623,-0.4001836462301766,-1.7833198273789697,0.9456398523577565,-0.5745847929178859,0.38857440793051495
6.800000000000001,0.2484604611400694,-0.6463964256993536,-0.39815655478498924,-1.787541556768139,0.9481129290157124,-0.5606045867206289,0.38865943479755966
6.8500000000000005,0.2588948603320364,-0.635914691266813,-0.39623349301459493,-1.7917025673997247,0.9509239787471913,-0.5466877613555152,0.3886178246576255
6.9,0.26893297766895813,-0.6255176097228073,-0.3943933002673394,-1.7958041355174588,0.9540586705324251,-0.532839447551419,0.38844977357163496
6.95,0.2785658173604625,-0.6152129181623898,-0.39261552511672,-1.7998450412887816,0.9575036630837764,-0.5190725353511726,0.3881538290134802
7.0,0.2877844588296627,-0.6050073675513201,-0.3908800975707452,-1.8038239058216243,0.9612471762698716,-0.505394788658345,0.3877286314295396
7.050000000000001,0.296580582882812,-0.5949103159845123,-0.38916774884129746,-1.8077397791868852,0.9652758364693763,-0.49182070301326264,0.3871708126354199
7.1000000000000005,0.30494462772009606,-0.5849272027918812,-0.38745933461301685,-1.8115904889391279,0.9695784811895198,-0.47835562078277183,0.38647832159464673
7.15,0.3128735204776976,-0.5750669013350824,-0.38573702247850816,-1.815375696937104,0.9741435200887003,-0.465013798537372,0.38564700067209934
7.2,0.32036117880853054,-0.565335499110059,-0.38398339380676766,-1.8190941515328982,0.9789599076280209,-0.45180266306865957,0.38467345120931057
7.25,0.32740367115001506,-0.5557412270738312,-0.3821817990731211,-1.8227463972730764,0.9840167281239767,-0.4387312822118571,0.38355409611568314
7.300000000000001,0.33399616777689795,-0.5462889248874121,-0.38031703837832803,-1.826327994515862,0.9893051980478782,-0.4258147163393808,0.38228399579588124
7.3500000000000005,0.34014107805715865,-0.5369887249144619,-0.37837489155779747,-1.8298421992496576,0.9948155556113741,-0.41306149277783777,0.3808580070588654
7.4,0.34582972128615785,-0.5278436257002329,-0.3763417786525045,-1.833284046097725,1.0005402236473788,-0.40048004843177365,0.37927247363028554
7.45,0.3510668582017836,-0.5188615861498546,-0.3742052255728157,-1.8366538545812479,1.0064701913317495,-0.3880807679686186,0.377522017133367
7.5,0.3558477173264792,-0.5100476896641137,-0.3719540901565456,-1.8399510768271732,1.0125978976782057,-0.3758731827292011,0.37560321710283007
7.550000000000001,0.3601753482994513,-0.5014077351952237,-0.36957793800498207,-1.8431752859796737,1.0189156167208155,-0.363863725934926,0.3735125919451976
7.6000000000000005,0.36405113270786404,-0.49294772625117994,-0.3670675297713033,-1.8463247830756462,1.0254157652084739,-0.352063082015402,0.3712458345715483
7.65,0.36747582066455586,-0.48467236815733306,-0.3644151497584516,-1.8493981086845064,1.0320920797909356,-0.3404809041995831,0.3687993540411265
7.7,0.3704552998188691,-0.4765855046005921,-0.3616137710072923,-1.8523948212681751,1.038938306163923,-0.3291208629800599,0.3661706726932614
7.75,0.3729876411665961,-0.468692344586079,-0.3586581656736345,-1.8553157518265333,1.045945028414046,-0.317993431724608,0.36335925885366394
7.800000000000001,0.37508030669252146,-0.4609986333518538,-0.3555437161506642,-1.8581600187447884,1.053106025223124,-0.3071037125343534,0.36036359703670423
7.8500000000000005,0.3767392489625642,-0.4535088121321212,-0.3522671664262813,-1.860927595912644,1.0604141188253582,-0.2964582146356261,0.3571830073988949
7.9,0.37797118724070683,-0.4462251251424003,-0.34882692938160403,-1.8636173759697683,1.0678613324444992,-0.2860644259936443,0.35381799876058356
7.95,0.3787803565821151,-0.43915051894433,-0.345222695974647,-1.8662259709232454,1.0754402260088434,-0.27592964332039926,0.3502693609887044
8.0,0.37917436901385176,-0.43228775627233396,-0.3414553869110326,-1.86875534558997,1.0831409643688705,-0.266054702261169,0.34654155243557455
8.05,0.3791656964418884,-0.42564080459173037,-0.3375268317476908,-1.8712053327164715,1.0909538326380555,-0.2564447476560342,0.3426382098507628
8.1,0.3787630146430146,-0.41920880036762487,-0.33344126085294395,-1.8735748904547762,1.0988669065425636,-0.2471050040704833,0.33856641501573737
8.15,0.3779805525727586,-0.41299894897398015,-0.3292032262445374,-1.8758644445678554,1.1068702743735632,-0.2380402791008423,0.33433070070157156
8.200000000000001,0.3768282480037891,-0.4070073923225062,-0.3248200314463688,-1.8780734318314216,1.1149486354780003,-0.22925132223444025,0.3299424411097738
8.25,0.37532523428132714,-0.4012404596258162,-0.32029937191495356,-1.88020255108061,1.1230902170412789,-0.2207432777339481,0.3254095172213503
8.3,0.37348644897970384,-0.39569609297466085,-0.31565157667091126,-1.8822520104632674,1.131277399848033,-0.2125180606979738,0.32074500441024384
8.35,0.37132698612200554,-0.3903762377654155,-0.3108886136198014,-1.884219941553961,1.1394943818047187,-0.20458109481322345,0.3159617842590223
8.4,0.3688694172279681,-0.38528234031504666,-0.3060223974691956,-1.8861082285660093,1.1477226572035604,-0.1969282661173984,0.31107470947263877
8.450000000000001,0.36613765548926674,-0.38041195942447625,-0.30106872861786216,-1.8879176621898968,1.15594051951257,-0.18956628434982858,0.30610177836214886
8.5,0.36315479742014595,-0.3757645933442702,-0.29604385562262525,-1.8896465854232543,1.1641264278874663,-0.1824960403045143,0.3010612242377109
8.55,0.3599469148752819,-0.37134078574144663,-0.2909661170279576,-1.8912961451208419,1.1722587817305696,-0.17572004894657073,0.2959725505058396
8.6,0.35654140539096946,-0.3671373999624264,-0.2858563480564259,-1.8928671103879324,1.1803104387732541,-0.16923887044294095,0.2908595257875921
8.65,0.3529689156711037,-0.36315507891384313,-0.28073621446787156,-1.8943608248330905,1.1882548770683574,-0.1630553129547836,0.2857454038429508
8.700000000000001,0.3492615994550286,-0.35939250219976204,-0.2756288989189427,-1.8957792943495155,1.1960635931802157,-0.15716958451180024,0.28065562067727795
8.75,0.34545237563527764,-0.3558464755098871,-0.2705579931986931,-1.8971205469955024,1.203708449548059,-0.15158451114171959,0.27561465635986426
8.8,0.3415741383535041,-0.35251199498817304,-0.26555057257814985,-1.8983858490949377,1.211158345759812,-0.14629995766798237,0.2706521898273418
8.85,0.33766362994051763,-0.34939461246298315,-0.260628897851886,-1.8995776545511085,1.218389175020907,-0.14131581822677505,0.2657893087479588
8.9,0.33375586754928727,-0.34648296030927683,-0.25582295248959996,-1.9006973700907432,1.2253644287901664,-0.13663339763135846,0.2610590952464722
8.950000000000001,0.32988920978730035,-0.3437753155934886,-0.2511591407155703,-1.9017439236588476,1.2320560006854469,-0.13225565698352146,0.2564871721852152
9.0,0.32609908595716697,-0.3412687149790093,-0.2466633479920603,-1.9027210168771616,1.238433516738989,-0.12817758755981562,0.25210109492750665
9.05,0.32242241267740435,-0.3389562266757235,-0.2423630302420372,-1.9036300869285339,1.2444660674511883,-0.12440121567207846,0.24792948103347648
9.1,0.3188925782858342,-0.3368363561717603,-0.23828092481147398,-1.9044715157085377,1.2501332960367135,-0.1209270830667409,0.24399233229464337
9.15,0.31553926206592864,-0.33490321290297936,-0.2344384530053596,-1.9052470467862965,1.2554132743040989,-0.11774998468460521,0.24030990601524282
9.200000000000001,0.31239341191722314,-0.33314781009226724,-0.2308573742829236,-1.9059590173071976,1.2602821954229655,-0.11486658675721356,0.23690426836741596
9.25,0.3094783964189401,-0.33156593738630913,-0.2275534181004807,-1.906608575894569,1.2647277157057542,-0.11227120592185565,0.2337896609773686
9.3,0.30681573748234414,-0.33015016721111834,-0.22453957800175123,-1.907197812164852,1.2687379733770607,-0.10995985457528927,0.2309771866500197
9.35,0.30442051386394886,-0.3288952042849283,-0.2218244332082614,-1.90773036760165,1.272309624203048,-0.10792355508655285,0.22847322110812607
