SilviaXuva/Vision-guided-robot-manipulator/Helpers/Outputs copy/2023-12-09_18h06m43s/red3/Place/Joint Comparison/q_dot_Real.csv
,q0,q1,q2,q3,q4,q5,q6
0.0,-2.2737854558510376e-15,5.833848435658333e-16,4.3391880368832895e-16,-3.784675649807297e-15,2.0680266179073887e-16,-5.930713220650712e-16,1.5619780727364354e-15
0.05,0.0002250899273224415,-0.0009825436979363908,-0.00041232009062216936,-0.00065227412305161,8.797642972990127e-05,-0.0001042717729011107,-0.00046420438226302946
0.1,0.0003770840218489628,-0.0013813126782812562,-0.0003963789907609482,-0.001144822224477692,0.00011232616468037529,-0.0004608365258090207,-0.00048045753206973777
0.15000000000000002,0.0006778848410698053,-0.0013620083974465952,9.970023348912515e-05,-0.001445018413075096,0.00023366965555729146,-0.0009802547165872508,-0.00029630599421357276
0.2,0.001212736051825315,-0.0012149309317475922,0.001009635901156141,-0.0016634187204576881,0.000571016558917216,-0.0016381626839513204,-6.806465856081401e-05
0.25,0.0019554569468969076,-0.0008818903098973244,0.002405782631429524,-0.0017324993029537187,0.001177663862500409,-0.0024356232323229027,0.0002824183183734426
0.30000000000000004,0.003079677304064395,-0.00031290382596965596,0.004245183515803527,-0.0017739287711176156,0.0018712875513492268,-0.003465227026509839,0.0007130559747636697
0.35000000000000003,0.004461678386258152,0.0004761866145810978,0.006579629691338274,-0.0016496444050660246,0.002817847611976373,-0.00463720163837752,0.0012965860636149767
0.4,0.00609103906564465,0.0017054572096360469,0.009365928057110128,-0.0013737758132532471,0.0037620545115282585,-0.006029913942228854,0.002084791097209623
0.45,0.008027394212530755,0.003417471278083419,0.012716999247379748,-0.0010873598183453329,0.004894953491055569,-0.007467553358684044,0.0029888773488121016
0.5,0.010327389983862748,0.005774477015033306,0.016562417567365744,-0.0006781224109777958,0.005892747671002248,-0.00914239990518551,0.004101641745270532
0.55,0.013079084085346634,0.008523967879802792,0.021019907689437692,-0.00014863864231340947,0.007139696863279396,-0.010906896327493986,0.00529862015065264
0.6000000000000001,0.016238776976905997,0.011213553975554912,0.025943763776017204,0.0005657953321663144,0.008862171578825444,-0.01269760462035425,0.006519049803432028
0.65,0.019383195353169364,0.014407178740268247,0.031208987115061884,0.001560611765277527,0.010616535683799787,-0.014531036663381791,0.008065655430315906
0.7000000000000001,0.022683359069905693,0.018200999740735115,0.03676601526624401,0.0026009092545250835,0.01203244506501982,-0.01666250989359336,0.009789254295151983
0.75,0.026071064037950085,0.02107078878587489,0.0421871359448125,0.0037693447117319832,0.013771545513072404,-0.019018785791455134,0.011274956452646943
0.8,0.02999782485092935,0.02338086980802401,0.04799598101381704,0.004893449713037436,0.015999136865487075,-0.021718343836205804,0.012636910885494575
0.8500000000000001,0.03412889351541397,0.02600595488826145,0.05415860315367543,0.005961628115174851,0.0185686513873092,-0.024200300370828667,0.01421065047522363
0.9,0.0373063856456511,0.029673219090401864,0.06025687825180477,0.0075314115737215165,0.02045622100846798,-0.02685573183000506,0.016532178873087
0.9500000000000001,0.04104657730270327,0.033291360319847974,0.06672149082261924,0.009087577030068728,0.022543719003130982,-0.029651632985081805,0.01855960678093227
1.0,0.04502176618470645,0.037193467761386836,0.07353300276228392,0.010659548604420099,0.024737919305981234,-0.03251917768094933,0.02064878642552915
1.05,0.04714483806725622,0.041619182265893166,0.08014018169558976,0.013167423830821336,0.0267076153987876,-0.035394389014812476,0.023510799649145903
1.1,0.049400333854281546,0.04486992890366469,0.08703695322262846,0.015820778690247065,0.029577157660348352,-0.038460766461740695,0.025803487617027575
1.1500000000000001,0.052885887434047506,0.047450801207710246,0.09420531770064569,0.01798243126855559,0.03291029079953067,-0.04167283931883877,0.027591824633793706
1.2000000000000002,0.05705998159583231,0.04968225162719114,0.10139404680041103,0.01976911459638972,0.036335242437885426,-0.04511293187913541,0.029393621193525524
1.25,0.06176015747896804,0.05192156256922593,0.10870189516255468,0.021311112656878878,0.039774072099264694,-0.04875664302190667,0.03139396918963397
1.3,0.06676434401872869,0.054051390996387484,0.11611893529661235,0.022736620293722247,0.04329254032992153,-0.05265847393348608,0.03360102739160502
1.35,0.0720435896479713,0.05623493006848491,0.12365701315595914,0.02409081082216174,0.04686158287639226,-0.05672252665564273,0.03601014507911848
1.4000000000000001,0.07757814663807593,0.05845228386891778,0.13129361870143497,0.025404944834055712,0.05046597163182781,-0.0609590080779457,0.03858312708386433
1.4500000000000002,0.08331698046103113,0.060721418800428396,0.13902125868241222,0.026716112748576284,0.05412380969375932,-0.06532863151716643,0.0413123775458558
1.5,0.08929477532938389,0.06308277214489225,0.1468599367665072,0.02805357193093979,0.05784181130753257,-0.06981342597109465,0.04418548236598127
1.55,0.09544069273134728,0.06542624262738557,0.15473348551040103,0.02936634375072532,0.06155842896388643,-0.07451314855200938,0.04717492313828982
1.6,0.10179298513799857,0.06787928428643861,0.16268209764436092,0.03070642414467483,0.06531454530855185,-0.07931502900601414,0.05030110166356143
1.6500000000000001,0.10829306748102337,0.07038685196064491,0.1706927315099673,0.03210836549322022,0.06909181906800053,-0.08430195854915604,0.053574357662985544
1.7000000000000002,0.11503839914577485,0.0729303697551458,0.178714681528932,0.0334833774381011,0.07291082875095578,-0.08938016600587405,0.05692459264441824
1.75,0.12198742876728622,0.07560152901904708,0.18675467765119255,0.03486332185197458,0.07670349221810985,-0.09459897526853733,0.06041423445530322
1.8,0.1291144702347458,0.07828761091369967,0.19474929137179534,0.036248523402682725,0.08049700345785035,-0.09995324094663106,0.06401046581432301
1.85,0.13644468098959855,0.08116958329102275,0.20275335152201018,0.037642536772059115,0.08421777928683616,-0.10546906098916509,0.06775977634324076
1.9000000000000001,0.1439292702579744,0.08400218167503853,0.21071477654939175,0.0390802599482237,0.0879795934367195,-0.11116631978194733,0.07161630376775854
1.9500000000000002,0.15159677786034917,0.0869725829343093,0.2186277916138995,0.04051259725740096,0.09170552862014092,-0.11697927196895137,0.07560302370615188
2.0,0.1594874207446438,0.09002852791199528,0.22644948127729592,0.04196272380595725,0.09535132819327194,-0.12297880639865102,0.07970695734548636
2.0500000000000003,0.16756402188433103,0.09318862554126492,0.23416512865361022,0.043403132375784664,0.09895516215964796,-0.12909014248320688,0.08392580726810148
2.1,0.17580113075364978,0.0964739581091909,0.2417641486672637,0.04484310716347531,0.10245475536962033,-0.13539308631539276,0.08828122203938513
2.15,0.18419802783374065,0.0998199632961165,0.24924002056326922,0.046312959371111184,0.10593564006325475,-0.14183339320851288,0.09275516685777327
2.2,0.19278706122082018,0.1033105832306215,0.2565938023236375,0.047798800268786495,0.10933229106621149,-0.1484482020535558,0.0973614410613067
2.25,0.2015664174435148,0.10693509371323501,0.26373087491331554,0.04925757938045719,0.11258242140585988,-0.1552208128121713,0.1020720071860905
2.3000000000000003,0.21050802173153216,0.1106557433418035,0.2706791301741167,0.050737420169173236,0.11572901578117935,-0.1621928997227947,0.1069063412730453
2.35,0.21957669178908612,0.11455013801399103,0.2774367500436079,0.052258874664460275,0.11875701056989914,-0.16932984420095482,0.11188432303804849
2.4000000000000004,0.22881409035653377,0.1185659654070185,0.28395997263046924,0.053768586310118466,0.12167328070185089,-0.1766228892168533,0.11695916509725857
2.45,0.23822808593902675,0.1226832258264468,0.2902027211689511,0.055223802440773656,0.12443293731543104,-0.18411852512247895,0.12212166028374072
2.5,0.24775649685832307,0.12701505170600288,0.29618666535344773,0.05671301340653839,0.12702870448041625,-0.1917787310478889,0.1274294232374631
2.5500000000000003,0.25742650946464807,0.13149109765135397,0.3018994392527548,0.058209626874756254,0.1295270250093794,-0.1995663498043626,0.13284058485437544
2.6,0.26720235125500935,0.13607194045562765,0.3072774401078215,0.059672236937999695,0.1318305968888293,-0.20760266726272972,0.13835441777275104
2.6500000000000004,0.2770746993470583,0.14090586174475128,0.3123332268948443,0.0611578669122268,0.13393909247062047,-0.21578465235804986,0.14399688010227923
2.7,0.2870464727186099,0.14589735203177562,0.3170392262193693,0.06267150077749764,0.13590133338680577,-0.22410742228421707,0.14974021474563765
2.75,0.29712575546294684,0.15102213962577088,0.32132157768047737,0.06414780948380275,0.13762067210286627,-0.23266594107407884,0.15556067095478032
2.8000000000000003,0.3072487346540847,0.1563792022032201,0.32526727905290487,0.06566558421489352,0.1391688341615446,-0.24139980170535805,0.16151955714342242
2.85,0.31746381987188044,0.161905899424721,0.328770125211556,0.06716722352445098,0.14054151828598466,-0.250238070396911,0.16754818415936923
2.9000000000000004,0.32773371155042297,0.167589454202009,0.3318224357838312,0.06863824101443938,0.1417028140897081,-0.25926891824440623,0.1736671131988788
2.95,0.3379905740373889,0.17358717956476843,0.3344132217722682,0.07013650125861798,0.14262253711786768,-0.2683850860925962,0.17990877716848352
3.0,0.3483039308652558,0.1796586621924819,0.33651252206062926,0.07160428895986998,0.14335646084057457,-0.2777208805680872,0.18621664907273278
3.0500000000000003,0.3585866064688016,0.1859822722725934,0.33814941033919427,0.07310397514046751,0.14387215441694806,-0.28721876131087265,0.19265822103638358
3.1,0.36886256081103586,0.19250192148370865,0.3392262856531127,0.07460184272441589,0.14416666676781684,-0.29681268420461315,0.19917570831197623
3.1500000000000004,0.3790956302193046,0.19921248210595266,0.33977563652444154,0.07609867322671499,0.14427430571069635,-0.306521464946055,0.20579596576839304
3.2,0.38932634484281725,0.20612706238658174,0.3397615240413641,0.0775440577511759,0.14418902608374137,-0.3163271164696533,0.21249487436645514
3.25,0.3994786938963966,0.21319429674673024,0.33916872309782337,0.078992869000517,0.14391548649588415,-0.3262741981274815,0.21931489557094042
3.3000000000000003,0.4095079056522942,0.22049775918262493,0.33796150301159966,0.08046219394375898,0.14340459711617784,-0.33633405651910975,0.22626215503340485
3.35,0.4193915938081549,0.22798907132106294,0.33614720294568334,0.08196714148101703,0.14272025584672807,-0.3464720294337874,0.23334153610195282
3.4000000000000004,0.42915779918209773,0.23565918450452383,0.33367060165127355,0.08344704147066606,0.14185923343875304,-0.3566576512752091,0.24051812423466945
3.45,0.4387464222936396,0.24352482797613595,0.33054210425290914,0.08493472768065535,0.14082651330742885,-0.36691588117051466,0.24783990335870523
3.5,0.4481471935015362,0.2515351247828141,0.32674346019507877,0.08644363245018238,0.13966147119885408,-0.3772353307715357,0.25531420322913284
3.5500000000000003,0.45737973773206086,0.259708959136283,0.3222434475701142,0.08789799818563332,0.13836319899024904,-0.38760338800443195,0.26292162967779176
3.6,0.4663622706596283,0.2680119227550394,0.3170352944766008,0.08939614920085359,0.13697328817405507,-0.39800121311486286,0.27072642713257933
3.6500000000000004,0.47509934704270707,0.2765108075403098,0.3110950595074152,0.09088870036049512,0.1354973437786396,-0.4083644070890659,0.2787115566512055
3.7,0.48357152010782545,0.2850995929841681,0.3043966376960986,0.09235345902132786,0.13395971429341785,-0.41877661327201043,0.28689804095831684
3.75,0.49170252359911915,0.29383590959402833,0.29693722604186434,0.09383151054824512,0.13238523645765582,-0.42917073484029467,0.2953317208239868
3.8000000000000003,0.4994947638826139,0.30269476616845764,0.28869763888904587,0.09531188760562226,0.13081439303343873,-0.4395386852092594,0.30401954012489113
3.85,0.5069440511380499,0.3116419904911391,0.2796607004927293,0.09676646552581825,0.1292963045781143,-0.4498737987536542,0.3129756353946919
3.9000000000000004,0.5139670750417085,0.3207180515797689,0.26981722987242757,0.09818546281262552,0.12784687846416884,-0.46015694903892995,0.32224750494826265
3.95,0.5206333811587902,0.3298284215109951,0.25916303794764867,0.09954297085874697,0.12655236406452214,-0.47044521147217755,0.331846303508307
4.0,0.5267334927299983,0.3391046757160994,0.24767172829804224,0.10095430997642574,0.1253860226051218,-0.48068065319467457,0.34187995101996477
4.05,0.5323203645182379,0.3484859530695234,0.23532730318558515,0.1023141460995507,0.12445246023266654,-0.4907946046659215,0.35230310854930763
4.1000000000000005,0.5372808477935566,0.35797415095381546,0.22210466621856084,0.10366214233253146,0.1237840110790267,-0.5007998907208061,0.36319073224362264
4.15,0.5415410269662362,0.3675612830487796,0.20801025548549298,0.10504248504325175,0.12342054489138626,-0.5107990924618712,0.3746181105015884
4.2,0.5450831291301028,0.37727283415402824,0.19304692817513552,0.10635598317958617,0.12348836915834699,-0.5206157145070207,0.38656163572137714
4.25,0.5477956672446131,0.3871136687472868,0.17721852661520088,0.107671851659077,0.12403939451422094,-0.5303598250795736,0.3991360323290678
4.3,0.549653190515462,0.397110487517885,0.16052925924604924,0.1088982058258301,0.12517808357727508,-0.539973815476097,0.4123292674246604
4.3500000000000005,0.5504579222151411,0.4072832388322492,0.1429676432065834,0.11013931090717843,0.1269692397684912,-0.5495147314438553,0.42627075807312137
4.4,0.5501569033221481,0.4176784633728914,0.1245737908812384,0.11130683803261943,0.12955046297850106,-0.5589072483014359,0.4409456638014897
4.45,0.5485733130671706,0.42831748109883166,0.10536636330204427,0.11249070434343666,0.13303835491871258,-0.5682019092333381,0.45646374690219654
4.5,0.5455673533180152,0.43926592574999823,0.0853956345171677,0.11360189965884882,0.13759409995033534,-0.5772604716210454,0.4728079010280155
4.55,0.54096264250601,0.45057003561626285,0.06474425063079764,0.1146761319589803,0.14336458954303377,-0.5862034991165328,0.4900650765762671
4.6000000000000005,0.534534137516854,0.4623353823705231,0.043496555104536726,0.11568414435910912,0.15053686082325274,-0.5948833717987271,0.5082285017742255
4.65,0.5259885176306717,0.4746012891899968,0.021765914639304856,0.11671128481975968,0.15931107747165982,-0.6033331099314365,0.527369144002434
4.7,0.5150921851743562,0.4874350102451489,-0.00023123095536077554,0.11762538074546969,0.16991503173930567,-0.6115165623309479,0.5474055777331411
4.75,0.5014403700035853,0.5009459661648796,-0.022276916731485435,0.11858524795719155,0.1826231492436921,-0.6193087134081573,0.5683812253957599
4.800000000000001,0.48468297724166365,0.5152130815874655,-0.04399673147813582,0.11942709943095031,0.19769139926852117,-0.6266343265290425,0.5901269750200195
4.8500000000000005,0.46430275329782095,0.5303021164774595,-0.06496142751804096,0.12026828991061955,0.21543928962651732,-0.633359763608221,0.6125984592281161
4.9,0.43973441659642615,0.5462650640127035,-0.08455200173082869,0.1210470795821002,0.23615752281480246,-0.6392641652343654,0.6355584570785323
4.95,0.41027283548288446,0.563103426766933,-0.1019455261505347,0.12179060244522111,0.26013859560942654,-0.6441485680142123,0.658783650404205
5.0,0.3750416498996549,0.5807546121188848,-0.11604172574736851,0.122569616044161,0.287625574162489,-0.6477858286096244,0.6819818562945975
5.050000000000001,0.3329980591940501,0.5991250407885805,-0.12529357059192392,0.12324478484381596,0.3187568384662008,-0.649693990132213,0.704689847442336
5.1000000000000005,0.28263752741324666,0.6179700333809526,-0.12770802916219243,0.12390444738268597,0.3535321805664039,-0.649495212781913,0.7265489053914168
5.15,0.22196961153677597,0.6369362965917729,-0.12047533222977229,0.12455128039698626,0.3917217793279456,-0.6466699222235113,0.7471311685002135
5.2,0.14804730615239714,0.6555541816638781,-0.0996798842068897,0.12511755362633264,0.4327730926446562,-0.6406669648859203,0.7660649522603503
5.25,0.05625844657615464,0.6731614649362809,-0.0597325089532887,0.1256790640800714,0.4758857490039731,-0.6309644934118928,0.7832024473752213
5.300000000000001,-0.060841617950375015,0.6890468393538367,0.007849147831914382,0.12613072454855245,0.5200211492940874,-0.6170277803477262,0.7984021848543559
5.3500000000000005,-0.21601518812751463,0.7022713998782536,0.11652104463115108,0.12650255932520924,0.56454806101909,-0.5986189187637907,0.8113796178564563
5.4,-0.4317946308156876,0.7116948920190519,0.2892764969653767,0.12671983179704985,0.6107154432574925,-0.5757009442489613,0.8199992448504522
5.45,-0.7493973711256291,0.7154166133298554,0.5679406762870124,0.12668867040928303,0.6667235865293432,-0.5482365648678054,0.815097599340967
5.5,-1.2450640035346678,0.709109645867004,1.031966776162629,0.12625831509998553,0.7639883832614449,-0.5156618198994786,0.7616070504740522
5.550000000000001,-2.0438339096331317,0.6800841140199259,1.82413847309362,0.12518956430902742,1.0130451680895294,-0.4741258627104741,0.5311078144608067
5.6000000000000005,-3.1962625827932714,0.5922293967181764,3.070988903764368,0.1230018234333048,1.7498800174376967,-0.40772011723506785,-0.288212569011824
5.65,-3.969655917566678,0.40161805791352856,4.197138482748777,0.12021771222462581,3.356726277859991,-0.30040010052633,-2.2376981117363957
5.7,-3.3187972631383973,0.22240051237027894,4.002268799807305,0.12056863101617482,4.669878421419925,-0.25235109114781157,-4.005247455396331
5.75,-2.0782849955148,0.16264743183134492,3.045292754674096,0.12388283908048184,4.671971592773908,-0.335781333597558,-4.296598659567855
5.800000000000001,-0.8190279137461702,0.16925859409660188,1.9652561976617793,0.1259790244567338,3.7664844977568084,-0.46549187488528176,-3.5822828930760746
5.8500000000000005,0.04059766869661016,0.19838735071915892,1.1989456136200987,0.12747113940029525,2.585394034875173,-0.5712569014728287,-2.510655420615172
5.9,0.43279018429136595,0.2269861301179273,0.8340306602229943,0.12931158510176172,1.6887473381099887,-0.6299570360864748,-1.6594835849970522
5.95,0.5795108367025016,0.2497133391996915,0.6843423359805397,0.1310313539868652,1.1400550731434007,-0.6576478183063905,-1.1270077265228586
6.0,0.6327471333427933,0.26747912547184316,0.6175115858402094,0.13197780937141707,0.8024066600696911,-0.670087854924144,-0.7953306169838856
6.050000000000001,0.6517906648505074,0.2817652393707847,0.581243783742799,0.13208865304765902,0.5805444136534429,-0.674741499249151,-0.5758666189383702
6.1000000000000005,0.6581356297410388,0.29355957326139365,0.55625469110247,0.13163106149004933,0.426021549780411,-0.6748435295681939,-0.42224269684388105
6.15,0.659870668215934,0.30343741285888837,0.5350519073513443,0.13080685411892268,0.31396161935774813,-0.6719619530614147,-0.31014773605380885
6.2,0.6600345104874248,0.3117313441827642,0.5146054360851875,0.12983038201264077,0.2305480595897883,-0.666912962423952,-0.2256941775395439
6.25,0.6596579686035651,0.318661723640653,0.49373208591964335,0.12879980228405064,0.1675332236878,-0.6602078075376957,-0.16048910731164434
6.300000000000001,0.6589460070375105,0.3242657308242108,0.47208275912666964,0.12774893302487433,0.11958858809947878,-0.6520551797211496,-0.10899003279158548
6.3500000000000005,0.6577874322390125,0.3286001403092877,0.44968858893047214,0.12668574316070053,0.08321754164556297,-0.6427463069476452,-0.06757858322099985
6.4,0.6559387088202379,0.3316869934417327,0.4267596916925741,0.12565187591487115,0.05592254909653316,-0.6323773600247027,-0.03370218619764409
6.45,0.6532003156503345,0.33354007887925463,0.4036075521100463,0.12457206565179625,0.035882376545033595,-0.6210760423910753,-0.005633964086517618
6.5,0.6493764877836785,0.334227340329166,0.38053648421664604,0.12351696664636372,0.021699111479512062,-0.6090508627572514,0.017905210466410693
6.550000000000001,0.6443697338666989,0.33379206334207623,0.35787610910846235,0.12241792988329185,0.01238119187111486,-0.5964118731550201,0.037760691238795996
6.6000000000000005,0.638119573090624,0.3323655574572307,0.33589467588372224,0.12127352027065134,0.007014584829001275,-0.5832989233952082,0.054575905218154475
6.65,0.6306351817751645,0.3299645055558088,0.3148148091756018,0.12007936411113439,0.004750259174668592,-0.5698622142509432,0.0689288789764495
6.7,0.6219686750250836,0.32676766261043094,0.2948235042325299,0.11883431724142193,0.0050897397612746365,-0.5562032855575173,0.08108784105123923
6.75,0.612216198530305,0.3228299441228148,0.276040877727289,0.11751352703443793,0.0074045633121119225,-0.542427384240247,0.09140624545253329
6.800000000000001,0.6014739492663872,0.31829052302198274,0.25853229236104885,0.11616992794014368,0.011266560572303491,-0.5286341462649744,0.10009703385937263
6.8500000000000005,0.5898876445789638,0.31319672511019686,0.24232113232894847,0.11475089114994061,0.016202997403358066,-0.5149010609749611,0.1073805409717965
6.9,0.5775741195679323,0.3076621165345037,0.2274033405106805,0.11326955039284672,0.021925286742180583,-0.5012438395611107,0.11339063273793792
6.95,0.5646629411020402,0.3017918352126512,0.21373937732989723,0.11176724551395248,0.028175000757937912,-0.4877529286893368,0.11826413182658635
7.0,0.5512891388319391,0.29559331185326365,0.20128022763327869,0.11018874698055553,0.03468688089250915,-0.4744317810017217,0.12215167775361746
7.050000000000001,0.5375491115647479,0.2891455707499272,0.18992212417529308,0.10860719336351514,0.04121999807235757,-0.4613156686695107,0.12517336262054507
7.1000000000000005,0.5235471378001972,0.2825410930968215,0.17962070466733077,0.10696118878376408,0.04775562814253094,-0.4483994237218313,0.12735713351677597
7.15,0.5093902131007148,0.2757549264648743,0.17027162855417988,0.10526364091237014,0.0540600401503582,-0.43570865929222735,0.1288668913159528
7.2,0.4951367821393755,0.26884924082636974,0.16177589507111234,0.10355028265396869,0.06005065300283419,-0.4232339491409854,0.12976116090701345
7.25,0.48085853051453864,0.26185217658922755,0.154050255005891,0.10182149096562969,0.06566630447843312,-0.4109828686493978,0.1301056828370568
7.300000000000001,0.4666010534082611,0.2547755071491774,0.14700778743170323,0.10006978989231043,0.07084855124741246,-0.39893956865352154,0.1299672629798614
7.3500000000000005,0.45240709235788723,0.24765596022279585,0.1405822529167277,0.09831152631744978,0.07559526566262585,-0.3870901050467469,0.12939155696450577
7.4,0.43832500849044975,0.24046992286569724,0.13468903157959664,0.09649634501757862,0.07983078222481005,-0.3754283397681758,0.12844916773439696
7.45,0.42438474296417605,0.23323374846101458,0.1292507509459891,0.09469250531940711,0.0835384188028058,-0.36398171396752665,0.12718904190860508
7.5,0.41058927455928135,0.22600776130748285,0.12424464683807314,0.09287749177954811,0.08681356637750223,-0.3526905788536262,0.12560699112594115
7.550000000000001,0.3969711369458814,0.21877592547556163,0.11959504612837833,0.09102956570768861,0.0896048730717798,-0.34158631322920074,0.12376580676818572
7.6000000000000005,0.38354691938337243,0.21151633704340633,0.11523927677380089,0.08918344269434561,0.09187964505962248,-0.3306686524334733,0.12172213737671891
7.65,0.3703244961525268,0.2042252108790854,0.11114527440333379,0.08729235057359468,0.09365310631892146,-0.3198786605633508,0.11949541774266353
7.7,0.35728639876946927,0.19699052392038813,0.10728290136269218,0.0854616245374047,0.09503403983236976,-0.30926992922627095,0.11706816841619946
7.75,0.3444804797400129,0.1896987485165192,0.10359414869661754,0.08357271570545365,0.09590018677890477,-0.29880751084440116,0.11453192297892978
7.800000000000001,0.33186173512955575,0.1824522524857935,0.10005279767225704,0.08170025559754908,0.09635778746677195,-0.2884891554613275,0.1118484832030095
7.8500000000000005,0.31946208989434755,0.17518598759544665,0.09665646084939898,0.07979614594696219,0.0964071275690429,-0.2782909598376561,0.10906916393073252
7.9,0.307265244837588,0.16796590092478866,0.09337699014775634,0.07788422047952435,0.09610316091026821,-0.2682244711611515,0.1061779667590293
7.95,0.29529580137570743,0.16073800028816915,0.0901754152820631,0.07598336847079175,0.09540689137763118,-0.2583257741440647,0.10322818980816847
8.0,0.28352283442498905,0.1535501112759278,0.08704631690556203,0.07411227295108219,0.09439078125274294,-0.24857701220239892,0.10020156549803408
8.05,0.27193776802548686,0.14638700432447196,0.08398722492210467,0.0722175173938866,0.09306366394012115,-0.23891436130414823,0.09712189018282036
8.1,0.26057840340107785,0.13927507401156047,0.08097893222844915,0.07031964093591159,0.09146342476667878,-0.22943923948881728,0.09398389545814034
8.15,0.24941197646264654,0.1321828084377305,0.0779977290502542,0.06841823495638535,0.08955455685573697,-0.22006869280224506,0.09083154206150068
8.200000000000001,0.23843351815952873,0.12515808603680395,0.0750536899684075,0.06655128340009836,0.08742482141332489,-0.21084553762609093,0.08763771808841
8.25,0.2276759035737364,0.11814863428749964,0.07213476604704085,0.06466742732186467,0.08504636296306058,-0.20177787790441198,0.08443881887073737
8.3,0.2170978788587274,0.11119855184232211,0.06923998794345537,0.06278083683902459,0.08245544492168866,-0.1928009676382818,0.08122625245717441
8.35,0.2067287067207358,0.10429887225690859,0.06637716869495595,0.06091324402626669,0.07968778343687433,-0.18396820286523374,0.07800769744914399
8.4,0.19655319320882353,0.09747670296763253,0.06352059520914848,0.0590907963224568,0.07675259063344915,-0.17530671252507268,0.07478339329326017
8.450000000000001,0.18657851231179526,0.09072475371546518,0.06068796326603108,0.057265537719754345,0.07367926824490659,-0.16679648843934783,0.0715609467352883
8.5,0.17678477652535526,0.0840501154190087,0.05785891919676027,0.05546926411468579,0.0704488139643027,-0.15840212358532982,0.06836184824563268
8.55,0.1672100606120712,0.0774317610402551,0.05506709611276619,0.053654674661778305,0.06711567781018057,-0.15015923709801693,0.06517951643989058
8.6,0.15782243043413935,0.07095487193561452,0.05228504373387713,0.051925459395474875,0.06371501643919347,-0.14211205070111158,0.061997312964718304
8.65,0.14866661009401763,0.06451971300714378,0.04954625279541744,0.050123721209612546,0.06021071723176911,-0.13416773130462456,0.058866279114128534
8.700000000000001,0.13970827365043215,0.05823345601871978,0.04681581058859474,0.04843640971492892,0.056674770572972606,-0.12646750671333196,0.055742940289541396
8.75,0.13096446163744857,0.05203101465737538,0.044128159915590076,0.04671699997765045,0.053076162268525365,-0.11887059115084152,0.05267315684967519
8.8,0.12241714564284881,0.0459770456682148,0.04145719657386259,0.04511388557352765,0.04946548351716837,-0.11149885916589058,0.049632627652827374
8.85,0.11409362898237865,0.0400437708681501,0.038849366482697385,0.0434799465715904,0.045861365241551606,-0.10426765088186324,0.04663318616900006
8.9,0.1059977439830368,0.03421061912372793,0.03625050722218075,0.04189847208639379,0.04219586833221908,-0.09721504272775613,0.04371320960555569
8.950000000000001,0.09813321632457851,0.028519329409590656,0.0337185738987127,0.04036510129018416,0.03858299381803463,-0.0903629088661442,0.040830614173548385
9.0,0.09050502874526774,0.022993848016511463,0.03126721326052927,0.03886412659861759,0.035048480862783525,-0.0837021370306394,0.037988018059676214
9.05,0.08310477981547951,0.017645559171446962,0.028836820654762764,0.03744298728330171,0.03152960616280109,-0.0772636897447725,0.03521478078673923
9.1,0.07598732353039778,0.012388601206326007,0.026495945621767894,0.035990201605768726,0.028049124638993967,-0.07098677091370499,0.032536135736680155
9.15,0.0690913055434136,0.007370503958801889,0.024186198170799856,0.03470557622034156,0.024655319006298596,-0.0649897976410907,0.029903355750012107
9.200000000000001,0.06247105493111637,0.0024864761569322776,0.021959190898110027,0.03340269804951117,0.02131664820622651,-0.059159312056431296,0.027369632386800166
9.25,0.05609233737495584,-0.002161676425870102,0.019842902062818905,0.03220991630082039,0.018155234433371685,-0.053569518238523045,0.02488444043172787
9.3,0.05000296912754328,-0.006614579805192287,0.017791076554659897,0.03106580529325996,0.015079425398610843,-0.0482393172431662,0.022495732945727064
9.35,0.04422488920959476,-0.010909008029431493,0.01584827153430967,0.02993379887455868,0.01211562530997921,-0.04312994923203453,0.020216293348829406
9.4,0.03871903938155559,-0.014958273162965843,0.013973655575392104,0.028912817241756546,0.009278296048518653,-0.03829635695006645,0.018022601766786918
