SilviaXuva/Vision-guided-robot-manipulator/Helpers/Outputs copy/2023-12-09_18h06m43s/red3/Place/Joint Comparison/q_Real.csv
,q0,q1,q2,q3,q4,q5,q6
0.0,-0.9674057704985942,-1.2894484205234855,-1.715245340199055,-1.322380023109199,-1.25913056819787,1.5043631647677307,-0.7109927518795888
0.05,-0.9674040366579594,-1.2893401847035164,-1.7152659562035861,-1.3223037375922235,-1.2590624712249199,1.5043540211829207,-0.7110159620987015
0.1,-0.9673950660726168,-1.2892711041636822,-1.7152857751531232,-1.3222577211666118,-1.2589972155615068,1.5043329790867332,-0.7110399849753053
0.15000000000000002,-0.9673808265752055,-1.2892279240231261,-1.715280790141449,-1.3222342788964696,-1.2589339413938434,1.5042898797760995,-0.7110548002750164
0.2,-0.9673505610414017,-1.2891806563463415,-1.7152303083463905,-1.3222122210517526,-1.258857050405442,1.5042151852332613,-0.7110582035079444
0.25,-0.9672913064319111,-1.2891336761288228,-1.7151100192148188,-1.322194462141499,-1.258768057888238,1.5041020944307013,-0.7110440825920256
0.30000000000000004,-0.9672032376331433,-1.2890831661355322,-1.714897760039029,-1.3221719415711173,-1.258647243455906,1.5039450408435437,-0.7110084297932882
0.35000000000000003,-0.9670654753576522,-1.289029512484061,-1.7145687785544637,-1.3221488591166326,-1.2585017917303762,1.5037349558330497,-0.7109436004901079
0.4,-0.9668661382854438,-1.2889822181033497,-1.7141004821516088,-1.3221290214327202,-1.2583141664018933,1.5034643378995758,-0.7108393609352481
0.45,-0.9665985014641115,-1.288953559767252,-1.7134646321892413,-1.322094379299882,-1.2581032986228413,1.5031279336092733,-0.7106899170678019
0.5,-0.9662581025324074,-1.2889494770602874,-1.7126365113108688,-1.3220610658861607,-1.257848758700049,1.5027249497077821,-0.7104848349805176
0.55,-0.9658415466355744,-1.2889649009560245,-1.7115855159263536,-1.322015332108468,-1.2575777682002482,1.5022574304745322,-0.7102199039729296
0.6000000000000001,-0.965330059913308,-1.2889618260128368,-1.7102883277374825,-1.321945204625976,-1.2572823388197676,1.5017204857699156,-0.7098939514825987
0.65,-0.9646806364882419,-1.288968827881518,-1.7087278783816489,-1.321870415648182,-1.2569370396335522,1.5010956147930403,-0.7094906687108092
0.7000000000000001,-0.963897139992486,-1.2889836178523864,-1.7068895776179636,-1.3217804254846242,-1.2565127957066997,1.5003846983711107,-0.7090012059955462
0.75,-0.9629468871198734,-1.288860183461613,-1.7047802208202683,-1.3216338717564204,-1.2559585604148944,1.4995684767576458,-0.7084374581716166
0.8,-0.961867980142708,-1.2886510127362307,-1.7023804217687737,-1.321429160253405,-1.2553215190698153,1.4986617569651353,-0.7078056126248137
0.8500000000000001,-0.9606197388272572,-1.2884178739301404,-1.6996724916100159,-1.321170736912398,-1.2546104567321625,1.497623652594263,-0.7070950800975769
0.9,-0.959103522966743,-1.2881707575251056,-1.6966596476952802,-1.3209275415376023,-1.2537396472730575,1.4964250906230732,-0.7062684711486102
0.9500000000000001,-0.9574284351847798,-1.28785875742948,-1.6933235731501273,-1.320632082035618,-1.2527593626228435,1.4950943861126362,-0.7053404908017692
1.0,-0.9555602355069744,-1.2875056949860353,-1.689646923006831,-1.3202903987825838,-1.2516717388629928,1.4936211628729534,-0.7043080514692105
1.05,-0.9533202873715771,-1.287081584330868,-1.6856399139144973,-1.3199684268164482,-1.2504080358218193,1.4919533998026107,-0.7031325114704767
1.1,-0.9508546048090296,-1.2864951194041194,-1.6812880662384575,-1.3195675515767016,-1.2490207334966767,1.4901409224955349,-0.7018423370660585
1.1500000000000001,-0.9482354121097013,-1.2857804051299984,-1.6765778003358707,-1.3190522867972434,-1.2474954331228727,1.4881762978933177,-0.7004627458021601
1.2000000000000002,-0.9454088476605444,-1.2849375976456867,-1.6715080979747787,-1.3184376792591588,-1.2457928026940026,1.4860385823245077,-0.6989930646988772
1.25,-0.9423566822422702,-1.2839923266806699,-1.6660730031898885,-1.3177417877502287,-1.2439173512544406,1.4837160499213746,-0.6974233661838629
1.3,-0.9390532240226561,-1.2829317902146646,-1.6602670563910475,-1.3169703379234488,-1.2418651246160648,1.4812039780280475,-0.6957433147446122
1.35,-0.9354865948777729,-1.2817653082774911,-1.6540842056901464,-1.3161277925708819,-1.2396364279726453,1.47848927747248,-0.6939428074047211
1.4000000000000001,-0.9316456522167161,-1.2804869161304258,-1.6475195247009344,-1.3152149439557552,-1.2372259651651512,1.475564853861874,-0.6920136509443506
1.4500000000000002,-0.9275166539320051,-1.2790946721822618,-1.6405684616992118,-1.3142326719530546,-1.2346329628061423,1.4724216287069007,-0.6899480319368655
1.5,-0.9230934116778317,-1.277590651455831,-1.6332254647772542,-1.313183144917128,-1.2318600317109079,1.469053209793735,-0.6877387576602259
1.55,-0.9183603242442304,-1.2759586947831416,-1.6254887903993336,-1.3120598642680261,-1.2288945088189145,1.4654560572855404,-0.6853800113096803
1.6,-0.9133109417297891,-1.2742081826649174,-1.6173546853927996,-1.3108670081857126,-1.2257448377336517,1.4616185416831349,-0.6828649559946658
1.6500000000000001,-0.9079322150183307,-1.272332100001327,-1.608820048666553,-1.30960643582706,-1.222409433560029,1.4575387334614598,-0.6801862378329964
1.7000000000000002,-0.9022196484399142,-1.2703235273294518,-1.5998843144099937,-1.3082674345470588,-1.2188862249182781,1.4532051281817107,-0.6773400078703051
1.75,-0.8961620073909664,-1.268186026115268,-1.5905465803128083,-1.3068554636968954,-1.2151756811364305,1.448612180572889,-0.6743192957559649
1.8,-0.8897462983698994,-1.2659039209957281,-1.5808091154911676,-1.3053655125678965,-1.211273158562358,1.4437514556610354,-0.6711187720027665
1.85,-0.8829674003211236,-1.263490104685791,-1.5706714476166752,-1.3038039199516698,-1.2071857544034312,1.4386173483796467,-0.6677307826463109
1.9000000000000001,-0.8758107414807768,-1.260921358960706,-1.5601357084403078,-1.30216487715338,-1.2029141567896577,1.4332057722841536,-0.6641499668275669
1.9500000000000002,-0.868268985913089,-1.258207038952179,-1.5492043184533504,-1.3004480717467795,-1.1984620795905285,1.4275046372811353,-0.6603698149145006
2.0,-0.8603364549505652,-1.2553361228411914,-1.5378818439196666,-1.2986549232574913,-1.1938260360761992,1.421508566525338,-0.656384466205762
2.0500000000000003,-0.8520000814790708,-1.252304841669364,-1.5261735869460558,-1.2967808926210476,-1.1890120633133685,1.415206328758188,-0.652188174876494
2.1,-0.843250283828686,-1.2491088818758727,-1.514085378892367,-1.2948287499308804,-1.1840213278213607,1.4085930550620216,-0.6477741126672011
2.15,-0.8340773610187958,-1.2457392313514224,-1.5016233771555543,-1.292796791492468,-1.178862864266304,1.4016599303996253,-0.6431363530647549
2.2,-0.8244763742966563,-1.2421972793515652,-1.4887936862334277,-1.2906874882591401,-1.173542177076265,1.3944007297694558,-0.6382682795787535
2.25,-0.8144375007647768,-1.238469914671943,-1.4756071415761418,-1.2884955227448045,-1.1680542728056154,1.3868030345506446,-0.6331646776030686
2.3000000000000003,-0.8039517816737681,-1.2345501461790933,-1.4620731840398227,-1.2862242497699643,-1.16240948188692,1.3788619416902281,-0.6278193587098256
2.35,-0.7930087397772664,-1.2304379349433576,-1.4482013453817197,-1.2838763515880418,-1.1566178039991017,1.3705672491599405,-0.6222251405051025
2.4000000000000004,-0.7816036247066602,-1.2261205821536527,-1.434003345455766,-1.2814455655344252,-1.1506833046720684,1.361910557150884,-0.6163771799515729
2.45,-0.7697306291672993,-1.2215859521987773,-1.4194932079558091,-1.2789286465656964,-1.1446068481854423,1.3528841192300805,-0.6102710943602396
2.5,-0.7573789487347193,-1.2168365375434123,-1.4046838730843192,-1.2763347433905758,-1.1384024200073952,1.3434766615567597,-0.6038996203352669
2.5500000000000003,-0.744543827834045,-1.2118602343054115,-1.3895888993454204,-1.2736587004703455,-1.1320817138458885,1.333680539831372,-0.5972575879102466
2.6,-0.7312182104393299,-1.206641655771176,-1.3742250253799322,-1.270898421461698,-1.1256433309639258,1.323491057490647,-0.5903398634882044
2.6500000000000004,-0.7173962205028279,-1.2011843994608882,-1.3586083618757758,-1.2680606635178848,-1.1191027080144889,1.312893646256373,-0.5831400155905151
2.7,-0.703073156288697,-1.195472196430127,-1.3427563981985509,-1.265142479230962,-1.1124695953176371,1.301881302596426,-0.5756530005512858
2.75,-0.6882476051714936,-1.189488361373566,-1.3266903167271453,-1.2621401427958356,-1.1057410646895127,1.2904471778743132,-0.5678749622666909
2.8000000000000003,-0.6729115045357151,-1.183238428216693,-1.3104269499552839,-1.2590623286066542,-1.0989444601695322,1.2785835861817376,-0.5597989792139257
2.85,-0.6570649734376046,-1.1767021255742394,-1.2939884406323992,-1.2559001501596925,-1.092080806536798,1.2662778903551306,-0.5514215643190574
2.9000000000000004,-0.6407052779996693,-1.1698682818959107,-1.277397315530091,-1.2526545972576235,-1.0851582418382844,1.2535262438624926,-0.5427382024293894
2.95,-0.6238259670669901,-1.1627380390571156,-1.2606766508624583,-1.249332482273476,-1.0781911312510937,1.2403134764671584,-0.5337427567925681
3.0,-0.6064339269916714,-1.1552829350919163,-1.2438510209159572,-1.2459258117030303,-1.0711840859701227,1.2266422640891168,-0.5244319169241878
3.0500000000000003,-0.5885232429250383,-1.1475092327394285,-1.2269435462717408,-1.2424443306404696,-1.0641570110128984,1.2125023287813403,-0.5147989978417731
3.1,-0.5700972381512025,-1.1393965540940558,-1.2099822275805194,-1.2388815286231734,-1.0571109668322063,1.1978822113017003,-0.5048402037105918
3.1500000000000004,-0.5511563183665853,-1.1309376463579017,-1.1929934410577863,-1.2352389584024663,-1.0500624412378612,1.182778963520756,-0.4945503959767991
3.2,-0.5317084294183091,-1.1221218854399917,-1.1760053598706568,-1.2315136646675424,-1.0430180889210992,1.1671860417964464,-0.48392564205354394
3.25,-0.5117523630870668,-1.1129359420298455,-1.1590469184484689,-1.2277094465249443,-1.0359889059318383,1.151100866630619,-0.4729598862413313
3.3000000000000003,-0.49129142792043606,-1.1033741368063505,-1.1421488377345546,-1.2238302358294155,-1.0289820037012745,1.1345146551125649,-0.46164676662832693
3.35,-0.47032975371634217,-1.0934254648410366,-1.1253414717428563,-1.2198758701061891,-1.0220117756806573,1.1174242450176701,-0.44997967706218295
3.4000000000000004,-0.4488788850886767,-1.083076632544627,-1.1086579355378157,-1.2158415443241,-1.015079835476576,1.0998237714199657,-0.4379537571482107
3.45,-0.42694376026484476,-1.0723217047978562,-1.0921308239385639,-1.211732219617579,-1.0081975843691093,1.0817117588790346,-0.4255617472890986
3.5,-0.4045336168775696,-1.0611485958526625,-1.0757936442908795,-1.207548083230341,-1.0013729764541053,1.0630866648555672,-0.4127960214023796
3.5500000000000003,-0.38166351997788167,-1.0495489838560241,-1.0596814650380315,-1.2032853111273791,-0.994607564684824,1.043945918048519,-0.39964992313459086
3.6,-0.35833843450761504,-1.0375134787839886,-1.043829693224962,-1.1989505036143897,-0.9879117201749842,1.0242880787841744,-0.38611358386329686
3.6500000000000004,-0.33457457825668757,-1.025038409142032,-1.0282749329683387,-1.1945424116736807,-0.9812872546166135,1.0041088099733233,-0.37217798697546134
3.7,-0.3103873994867074,-1.0121082918150452,-1.0130550936419105,-1.1900594276051295,-0.9747329716181444,0.9834130549115014,-0.3578330646508614
3.75,-0.2857877553366554,-0.998721271531567,-0.9982082247548502,-1.1855064889175915,-0.9682548267516763,0.9621977938689638,-0.3430664571180993
3.8000000000000003,-0.2607958630096839,-0.9848688287101509,-0.9837733351226746,-1.1808837889258015,-0.9618509443649897,0.9404643616493227,-0.32786545735040196
3.85,-0.2354332072732469,-0.9705420858037649,-0.9697902923453295,-1.1761899600873016,-0.9555175348300582,0.9182151957720556,-0.31221665151779976
3.9000000000000004,-0.20971663056063125,-0.9557383727619837,-0.9562994230759294,-1.1714270887370326,-0.9492525609895021,0.8954513206174931,-0.2961042508910966
3.95,-0.18367820779564903,-0.9404462901649406,-0.9433412634165932,-1.1665943534489323,-0.9430469804783908,0.8721809460981226,-0.2795119089645691
4.0,-0.15732821552061726,-0.9246687348922269,-0.930957669299132,-1.1617045375687587,-0.9368994103063433,0.8484002475792922,-0.2624178833513034
4.05,-0.1307026995491631,-0.9083942832255509,-0.9191912965448295,-1.156748865955606,-0.9307935353056076,0.8241126232269748,-0.2448026984728372
4.1000000000000005,-0.10382713905739521,-0.891615290817979,-0.9080860557942798,-1.151732510520503,-0.9247150747184704,0.7993208936868185,-0.2266431310144901
4.15,-0.07673442197775529,-0.8743256630503905,-0.8976855357816375,-1.146664046549316,-0.9186481227048936,0.7740329520672772,-0.20791219326308327
4.2,-0.04946448732768355,-0.8565188291465148,-0.8880331823877672,-1.1415351942081293,-0.9125714727997809,0.7482487574294869,-0.18858407787879855
4.25,-0.02205516018172413,-0.8381877492954654,-0.8791722493839761,-1.1363564913566369,-0.906463854070724,0.7219773975406961,-0.16862724131034748
4.3,0.005441683371451223,-0.8193235009240334,-0.8711457801064854,-1.1311234333438365,-0.9002912050819901,0.6952235376859235,-0.14801074164378514
4.3500000000000005,0.03298432681788652,-0.7999144177732077,-0.8639973920400522,-1.125847445674238,-0.8940238789180003,0.6679929118801844,-0.12669716615435025
4.4,0.06051007885131923,-0.7799500444349667,-0.8577686970483178,-1.1205247472319277,-0.8876194709209718,0.6402911385001044,-0.10464984411607609
4.45,0.0879597201026375,-0.7594146798044025,-0.8525003739394755,-1.1151658147109356,-0.8810360015248702,0.6121261522644313,-0.08182661672711875
4.5,0.115259988974886,-0.7382916830912593,-0.8482305878171978,-1.1097650573319544,-0.8742178424195136,0.5835021931061017,-0.05818618050893723
4.55,0.14232902869480296,-0.7165630287186123,-0.844993371481956,-1.1043320067423612,-0.8671063432819398,0.5544339503836648,-0.03368288441232392
4.6000000000000005,0.1690754022551703,-0.6942067158059011,-0.8428185405500485,-1.0988660307073457,-0.8596297573754609,0.5249266138613676,-0.008271416105314927
4.65,0.19539873435167113,-0.6711926281560353,-0.8417302423021714,-1.0933770997107621,-0.8517108709035481,0.4949932260127132,0.018097085169661343
4.7,0.2211738383687774,-0.6474911960522008,-0.8417418020257852,-1.0878596831657252,-0.8432529729409299,0.4646530920210054,0.04546740893033869
4.75,0.24627024976519463,-0.6230673347719973,-0.8428556467543755,-1.0823276786579963,-0.834159037261784,0.43391881677866095,0.07388651563970161
4.800000000000001,0.2705246985837031,-0.5978843975350926,-0.8450554829598312,-1.0767735580844007,-0.82430340600122,0.40281904995372964,0.1033929103642248
4.8500000000000005,0.2937606456786095,-0.5718986340619191,-0.8483035547251865,-1.0712082018816216,-0.8135599182524819,0.3713818566696724,0.13402287954077835
4.9,0.31576624580082246,-0.5450649260629422,-0.8525311559715684,-1.0656292443189166,-0.801775746945554,0.3396454537468525,0.16580084877524076
4.95,0.33629791809311266,-0.517337134853903,-0.85762843421892,-1.0600417091238201,-0.7887901315703953,0.30766131328706864,0.19874007757017678
5.0,0.35506845994892555,-0.48866954048926575,-0.8634305232278359,-1.0544544140293788,-0.7744293181119802,0.2754946083843205,0.2328392163079699
5.050000000000001,0.37173320234928453,-0.4590297455366154,-0.8696952052448784,-1.0488583872404704,-0.758509899058686,0.24323061911004545,0.2680737540975228
5.1000000000000005,0.385880300313788,-0.42838689013479014,-0.8760806109240965,-1.0432625550816266,-0.7408508696998111,0.2109738603948969,0.30440124389480056
5.15,0.3969926594051789,-0.39673242542329656,-0.8821043824052521,-1.0376697752820097,-0.7212829908470786,0.17885593541209363,0.34175784571246887
5.2,0.4044064415258395,-0.36408425649119225,-0.8870883819755697,-1.032078177304779,-0.6996613367134462,0.1470383983734396,0.3800611353261577
5.25,0.40722962074006136,-0.33048329111755137,-0.8900750129983079,-1.026495564933965,-0.6758870564843347,0.11570462337607773,0.41922129794204765
5.300000000000001,0.40419451176837556,-0.2960187597548925,-0.889682560919535,-1.0209181699266785,-0.6499080555904456,0.08506425905623267,0.45914144543707713
5.3500000000000005,0.39339973126848937,-0.26081250542879775,-0.8838565129745098,-1.0153532931417641,-0.6217084911590006,0.055339635933469716,0.4997104622876599
5.4,0.37181623741694125,-0.22504973528764297,-0.8693926901768353,-1.009805274117595,-0.5912025713968502,0.02675993288803119,0.5407104579999988
5.45,0.33435093391795856,-0.18900707524509297,-0.8409956543105588,-1.0042804124997775,-0.557901647995975,-0.00044991556668759827,0.581465368739825
5.5,0.2721029539530605,-0.15317755184655696,-0.7893973064576986,-0.9987928825317791,-0.5197423560754065,-0.026037988495698314,0.6195457491670293
5.550000000000001,0.1699215536828858,-0.11867792543284614,-0.6981903622280575,-0.9933715328911575,-0.4691381316792768,-0.049553897968222474,0.646101164767675
5.6000000000000005,0.010132253179806067,-0.0884369560901109,-0.5446408774909164,-0.9880534793434408,-0.38169751477167446,-0.06975707209757982,0.6316905577475713
5.65,-0.1883023934690897,-0.0675270531299984,-0.334783882213026,-0.9829035606675554,-0.21392618443231848,-0.08459275342334704,0.5198056689292903
5.7,-0.35421780178259865,-0.05525780940909724,-0.13467033417074048,-0.9778830367448965,0.019485441878971804,-0.09699717456249937,0.31954330296838734
5.75,-0.4581740098657912,-0.0457601454840549,0.017594388571525177,-0.9727799944982316,0.2530049296779673,-0.11355269218040365,0.10471335164054446
5.800000000000001,-0.49915387855883,-0.036026048664164034,0.11585723450904814,-0.9674682341430971,0.4412693123981687,-0.1366157187941378,-0.07440083788436161
5.8500000000000005,-0.4971449708237076,-0.024894148376999947,0.17580453081228917,-0.96203821029755,0.5704985616575736,-0.16498491603535353,-0.19993365816460035
5.9,-0.475527157543484,-0.012344412515515565,0.2175060741016806,-0.9565066770442738,0.6549111117085105,-0.1963050602876376,-0.28290787800645645
5.95,-0.4465645533632193,0.0013543748798838014,0.2517231988350305,-0.9508993145774174,0.711902727146555,-0.22901869797993335,-0.3392582922167066
6.0,-0.4149335997808153,0.015961958640482655,0.2825987846211985,-0.9452593846847467,0.7520243667115893,-0.2623654333893731,-0.379024839435077
6.050000000000001,-0.3823467403683641,0.03130084401547855,0.31166097973407153,-0.9396263871079077,0.7810645226999061,-0.2959496891603673,-0.4078181792852459
6.1000000000000005,-0.34944006333957367,0.04724883233670612,0.3394737201475128,-0.9340319269511567,0.8023897832020872,-0.32954507048122517,-0.428930318895093
6.15,-0.31644621681382556,0.06371452775492067,0.36622632150751844,-0.9284895659619993,0.818127087066601,-0.3630015143708165,-0.4444377082819015
6.2,-0.2834445371406256,0.08062136832785073,0.39195659949816486,-0.9230103442238538,0.8297063971585317,-0.3962114837827045,-0.4557224186055244
6.25,-0.2504595091180289,0.0978973047159975,0.41664321014693334,-0.9175958138008165,0.8381487268561568,-0.429088294725984,-0.46374687483032756
6.300000000000001,-0.21751040220229656,0.11547909893856387,0.44024735459106595,-0.9122455405070959,0.844207250264027,-0.46156344712112907,-0.4691963770239185
6.3500000000000005,-0.18461854261065888,0.13330222141614811,0.4627317905916435,-0.9069578598312366,0.8484592541699479,-0.49357224864784066,-0.47257530657778757
6.4,-0.15181614417349656,0.15130460907137552,0.4840697817405009,-0.9017351832196951,0.8513573649985817,-0.5250657605487613,-0.4742604161844559
6.45,-0.11915095229071263,0.16942530128156827,0.5042501658520684,-0.8965734778884404,0.8532681457828291,-0.5559981504795716,-0.47454211461367657
6.5,-0.0866728815173106,0.1876062781682431,0.5232769964486491,-0.8914786376863473,0.8544844974201422,-0.5863307600934173,-0.47364685424430597
6.550000000000001,-0.05444399829960554,0.20579282154410586,0.5411708081199301,-0.8864478559531273,0.855245565551173,-0.6160332038240625,-0.4717588197536247
6.6000000000000005,-0.022524069531376485,0.22393057559824803,0.5579655479107382,-0.8814829589808725,0.8557499325775014,-0.6450827397679063,-0.46903002446350317
6.65,0.009023141920358982,0.2419792111286746,0.5737062941109915,-0.8765871518520246,0.8561561956956262,-0.6734607547589636,-0.4655835803658083
6.7,0.04014032646011331,0.25989162447468833,0.5884474747832905,-0.8717617328504772,0.8565895515236247,-0.7011580699967199,-0.4615291880264243
6.75,0.07077058735928723,0.27763485251222547,0.6022495238318983,-0.8670084850757734,0.8571510569798199,-0.7281680278426511,-0.45695887531330776
6.800000000000001,0.10086801731941455,0.2951760795420273,0.6151761433041829,-0.8623322180130372,0.8579147600097424,-0.7544904837364117,-0.451954023014423
6.8500000000000005,0.13038721864339964,0.312491207259044,0.6272922044655599,-0.8577327110172346,0.8589394946265637,-0.7801258043011189,-0.44658499518755396
6.9,0.15929334761508043,0.32955569972139476,0.6386623757350519,-0.8532126190264057,0.8602631324604486,-0.8050817907985663,-0.44091546259501246
6.95,0.18755827809390088,0.3463499581809519,0.6493493485493321,-0.848775406145218,0.8619089344599257,-0.8293645516391069,-0.4350022548750331
7.0,0.21515486086956195,0.36286170060310374,0.659413363598556,-0.8444203875300585,0.8638907326247204,-0.8529826240664818,-0.42889466968939216
7.050000000000001,0.24206900258885677,0.3790781702942825,0.6689094732075358,-0.8401529139507935,0.8662131416698902,-0.8759464461883131,-0.422636000102496
7.1000000000000005,0.26828635028828685,0.39498429433840365,0.677890511590747,-0.8359699352027753,0.8688685923542291,-0.8982670727194912,-0.4162681418257583
7.15,0.2937961061463498,0.41057688287016597,0.6864040959345507,-0.8318743872650981,0.8718490769278605,-0.9199535315269493,-0.40982479552846174
7.2,0.3185963919596446,0.4258475598305562,0.6944928933855804,-0.8278687422972473,0.8751390255946014,-0.94101807887103,-0.4033367356419132
7.25,0.3426853206606535,0.4407906263279635,0.7021954086314308,-0.8239537053538095,0.8787193487094415,-0.9614707598649984,-0.39683144956504807
7.300000000000001,0.36606483159873054,0.45540220582691054,0.7095458003116233,-0.8201294483274125,0.8825689394656234,-0.9813223792018818,-0.390333084407638
7.3500000000000005,0.388738370296846,0.46967733944296725,0.7165749150935472,-0.8163973280616145,0.88666303297978,-1.000583941327675,-0.38386350449712753
7.4,0.41070948701987575,0.4836149138694262,0.7233093686478789,-0.8127557105558123,0.8909799662964234,-1.0192637119215457,-0.37744104401668155
7.45,0.43198668551735314,0.49721363218091297,0.729771908021941,-0.8092080283661509,0.8954940160532692,-1.0373701874039474,-0.37108158981313716
7.5,0.45257765126222416,0.5104668640852379,0.7359841420527938,-0.8057532672950649,0.9001762608333783,-1.0549156866522558,-0.36480123815302967
7.550000000000001,0.4724902399242991,0.5233748457045594,0.7419638959198567,-0.8023903665733658,0.9050038202096308,-1.0719061020517207,-0.35861294573236824
7.6000000000000005,0.49173406937672204,0.5359391093350829,0.7477258611994733,-0.7991216415738199,0.9099529614816301,-1.0883494380529843,-0.35252683681957453
7.65,0.5103171048187326,0.5481578562116062,0.7532831262501151,-0.7959460919791768,0.915000303270795,-1.1042555628134831,-0.3465520639368862
7.7,0.5282543790566373,0.5600268847192222,0.7586472725446077,-0.7928663771453007,0.9201170317488715,-1.1196319484404882,-0.3406986535852987
7.75,0.5455497598202542,0.5715517125670929,0.7638269811085979,-0.7898795923239075,0.9252881427164477,-1.134483962477168,-0.33497205557538684
7.800000000000001,0.5622199850313948,0.5827262553945182,0.7688296220303407,-0.78698728659037,0.9304886849969476,-1.148821156515664,-0.32937962963673917
7.8500000000000005,0.5782700540890364,0.5935543988020461,0.7736624460259789,-0.7841889674203675,0.9356982163220118,-1.1626502994865477,-0.3239261697480107
7.9,0.5937129479004469,0.6040322860786626,0.7783312964062038,-0.7814844822589367,0.940896298302946,-1.1759786182575238,-0.31861726981251737
7.95,0.6085577123582285,0.6141651489039104,0.7828400679676721,-0.7788750478409584,0.9460667931359472,-1.1888102842628423,-0.3134558588210301
8.0,0.6228174289993268,0.623950662315684,0.7871923845400051,-0.7763604262366478,0.951190403862441,-1.2011539181615456,-0.3084457791434438
8.05,0.6365004829838167,0.6333896683017246,0.791391746447271,-0.7739393640380235,0.9562519702422916,-1.2130188879544355,-0.30358968333116654
8.1,0.6496156740091236,0.6424824761513916,0.7954406936576979,-0.7716108592662185,0.9612359629767027,-1.22440633023463,-0.2988904873548478
8.15,0.6621746626469663,0.6512325343129491,0.7993405806513357,-0.7693763434815843,0.9661313975023512,-1.23532737890855,-0.2943489091453866
8.200000000000001,0.6741887300855548,0.659639248684773,0.8030932656369398,-0.7672354042275492,0.9709218940914528,-1.2457875155108225,-0.28996702223130505
8.25,0.6856637820615723,0.6677076344866877,0.8067000043762794,-0.7651864343162789,0.9755984101490893,-1.2557915335167955,-0.28574508036950497
8.3,0.6966125232504662,0.6754367592826342,0.8101620041636806,-0.7632298372435584,0.9801499785190976,-1.265350837795435,-0.2816837669173108
8.35,0.7070425507943142,0.6828307723121247,0.8134808629456799,-0.761365608054841,0.9845651354710002,-1.274469617604462,-0.27778338129954877
8.4,0.7169667909981567,0.6898915483571818,0.8166568930134995,-0.759592748647894,0.9888364533757747,-1.2831541109560896,-0.2740442109690663
8.450000000000001,0.7263927576386042,0.6966221134974627,0.8196912914475664,-0.7579087869191639,0.9929558744771741,-1.291412041144505,-0.27046616304196064
8.5,0.7353326038521241,0.7030258073360868,0.8225842376446523,-0.7563150283287808,0.9969192098332745,-1.299253319596217,-0.26704807010853504
8.55,0.7437915492709566,0.7091078253166551,0.8253375926572394,-0.7548081854009233,1.0007179899890453,-1.3066827391067706,-0.26378909382900284
8.6,0.7517861299853579,0.7148684688867019,0.8279518450230741,-0.7533890125571918,1.0043470803209165,-1.31370787037181,-0.2606892277832365
8.65,0.7593170655555418,0.7203164580958774,0.8304291578171147,-0.7520537023391719,1.007805006370339,-1.320338866292991,-0.2577459134831371
8.700000000000001,0.7664046717255417,0.7254534999052842,0.8327699484784779,-0.7508034614386592,1.0110856303975317,-1.3265797395852914,-0.2549587661733966
8.75,0.7730522572975941,0.7302863038231531,0.8349763565862833,-0.7496350683793177,1.0141895527130742,-1.332444379143813,-0.25232510807905467
8.8,0.7792776917656324,0.7348195210032161,0.8370492165094346,-0.7485491955326963,1.0171131815243462,-1.3379374091248601,-0.24984347648354607
8.85,0.7850847157447703,0.739058644868137,0.838991684912535,-0.7475400297165795,1.019855830914934,-1.343070424252335,-0.247511816996885
8.9,0.790487726056162,0.7430129807661074,0.8408042103390696,-0.746609738162169,1.0224228596477123,-1.3478512540792167,-0.24532615636821664
8.950000000000001,0.7954970820376643,0.7466870913917877,0.8424901390877845,-0.7457543075074552,1.024808702920622,-1.3522889116602759,-0.24328462553735686
9.0,0.8001235203005692,0.7500867648129562,0.8440534997945147,-0.7449706357612066,1.0270137132852384,-1.3563941481608304,-0.24138522453511665
9.05,0.8043834660099833,0.7532197218310323,0.845495340862344,-0.7442577536020605,1.0290463111514487,-1.3601759553859851,-0.2396244854158381
9.1,0.8082796249404363,0.7560983636630693,0.84682013817138,-0.7436122241069419,1.0309071749815857,-1.3636462149592585,-0.23799767856511359
9.15,0.8118382359797531,0.7587246690727033,0.8480294481018431,-0.743033951969922,1.0325999524022624,-1.3668132448318604,-0.23650251072756887
9.200000000000001,0.8150617132425,0.7611116044838949,0.8491274076636991,-0.7425172737248898,1.0341312295338299,-1.3696912509434642,-0.23513402906935066
9.25,0.8179695544469391,0.7632646157490588,0.8501195527797936,-0.742060671195928,1.0354979569964504,-1.3722912304337374,-0.23388980701811532
9.3,0.8205727409640751,0.7651954471999152,0.8510091066171858,-0.7416596708274267,1.0367134358811423,-1.3746224058609202,-0.23276502034864374
9.35,0.8228814835702168,0.7669164980757691,0.851801520201027,-0.7413117550967331,1.0377815557974073,-1.3766990482756236,-0.23175420566486649
9.4,0.8249189446445597,0.7684342602126026,0.8525002029849247,-0.7410145773426099,1.0387106969593856,-1.3785332525771037,-0.23085307556476678
