SilviaXuva/Vision-guided-robot-manipulator/Helpers/Outputs copy/2023-12-09_18h06m43s/green5/Align/Joint Comparison/q_Real.csv
,q0,q1,q2,q3,q4,q5,q6
0.0,-0.4598862942678555,-1.091219703679239,-2.0269367995878573,-1.3240413549641596,2.4395601738037884,-1.289387946065478,-0.4399852034471401
0.05,-0.45999547227831344,-1.0915359238839057,-2.026886202555293,-1.3242230125603265,2.4395034116483023,-1.2894384020163803,-0.43992919363058275
0.1,-0.46010175791230484,-1.0918052167627874,-2.0267927739593934,-1.3244062020321032,2.4393667156121257,-1.2894364338802806,-0.4398356587706671
0.15000000000000002,-0.46018588992011583,-1.0920487725898254,-2.026665014004798,-1.3245735333115534,2.4391791568647947,-1.2894118967305237,-0.43970781994045816
0.2,-0.4602383995601374,-1.0922701635207137,-2.0265110643663427,-1.324713486702815,2.438956643757341,-1.2893765153245949,-0.439543980023097
0.25,-0.46025617543008474,-1.0924628933915097,-2.02633808031189,-1.3248152163166953,2.438707139033157,-1.289335227739077,-0.43934178303661753
0.30000000000000004,-0.46023774071245993,-1.092617353632524,-2.0261521287039543,-1.3248685166230927,2.4384342690499956,-1.2892900268673546,-0.439098958409315
0.35000000000000003,-0.4601810065701874,-1.0927268371974301,-2.025957850426522,-1.3248665550208143,2.4381383227233235,-1.289241207363307,-0.43881231404617926
0.4,-0.46008518267152015,-1.0927764783573057,-2.025759352959661,-1.3247910584962364,2.4378193020614023,-1.2891911661341855,-0.43848060821515134
0.45,-0.45994777301443496,-1.092766564010707,-2.0255595325413545,-1.3246372969506541,2.4374756764933654,-1.2891373579115415,-0.4381001454257773
0.5,-0.4597566314303083,-1.0927032439429676,-2.0253607072762168,-1.3244101716813714,2.437105447366699,-1.289072720904203,-0.4376629528407447
0.55,-0.4595121213919784,-1.092577759011217,-2.025164259138316,-1.3240986336794218,2.4367039710540785,-1.2889940812210852,-0.4371638148136557
0.6000000000000001,-0.4592022093446904,-1.0924009440347122,-2.024971083288846,-1.3237062355312885,2.4362688382131106,-1.2888938828104972,-0.436593598789378
0.65,-0.45881991270476163,-1.0921608024656153,-2.0247824651628363,-1.323225450956591,2.4357973573547373,-1.2887694894609534,-0.43594551345598875
0.7000000000000001,-0.45836168366712543,-1.0918569318487619,-2.0245988725422674,-1.3226501329444105,2.4352856634416455,-1.2886176082865726,-0.43521301349843783
0.75,-0.4578181613775302,-1.0914924412904643,-2.024420767947827,-1.3219814349076688,2.434732017623255,-1.2884335619600307,-0.43438775164843557
0.8,-0.4571898615626806,-1.0910584204271767,-2.024247919940024,-1.321210672824331,2.4341314636600697,-1.288216489763597,-0.43346396710420837
0.8500000000000001,-0.45647189807363825,-1.0905518354791088,-2.024080317262771,-1.3203298078753074,2.43348157446233,-1.2879646206312123,-0.4324360273862838
0.9,-0.45565535738510565,-1.0899635656129487,-2.023918619894025,-1.319331712039086,2.432779311039602,-1.287676359939928,-0.43129846246520703
0.9500000000000001,-0.454740187724521,-1.0893029675898054,-2.023762449417468,-1.318217516350839,2.4320241589147367,-1.287349672854421,-0.43004403699736576
1.0,-0.4537270477953194,-1.0885827701680204,-2.0236088216409307,-1.3169891749248959,2.431206663968099,-1.286979878365617,-0.4286636635798213
1.05,-0.45260840843732014,-1.08778470541041,-2.023456977565875,-1.315638689970733,2.4303249623970977,-1.2865667794547273,-0.4271510645405666
1.1,-0.45138265748271367,-1.0869082404222046,-2.023305932819083,-1.3141606345776367,2.4293757984431195,-1.2861090776602313,-0.42550007205164625
1.1500000000000001,-0.45005238035910633,-1.0859550829452709,-2.023153610214244,-1.312553077209356,2.4283551534525945,-1.2856078300628702,-0.4237041355454506
1.2000000000000002,-0.44861060986659046,-1.0849245457843042,-2.0229986936165103,-1.3108097853958613,2.427259408517686,-1.2850598506705495,-0.4217563518579677
1.25,-0.4470511683277771,-1.0837796075466508,-2.022843291201955,-1.3088737369194041,2.426084566306884,-1.2844708071978725,-0.41966029569142116
1.3,-0.44536778124954385,-1.0825024179175755,-2.022694810811578,-1.306765155078798,2.42485856559895,-1.283851290478888,-0.4174145486494329
1.35,-0.44355955050404006,-1.081107473776011,-2.0225578134598554,-1.304488194564751,2.4235796549333393,-1.2831929463183769,-0.41501413417934346
1.4000000000000001,-0.4416261722459726,-1.0796043832139905,-2.0224350218323637,-1.3020448352451799,2.4222445951319935,-1.2824865342433749,-0.41245268879038577
1.4500000000000002,-0.43956683956902004,-1.077990947092277,-2.0223286849438744,-1.2994328968162336,2.4208530340807792,-1.2817294769893002,-0.4097244469605316
1.5,-0.4373814896934843,-1.0762631101079638,-2.022240959153736,-1.2966499444975728,2.4194057186571767,-1.2809206584626962,-0.4068241863762749
1.55,-0.43507052664883444,-1.0744222768272085,-2.0221737124684105,-1.2936925238083392,2.4179020319385915,-1.2800559112129706,-0.40374661136474227
1.6,-0.43263451928204344,-1.0724697660046056,-2.022128437894631,-1.2905597861055154,2.416341728710138,-1.2791326777435197,-0.4004859069591978
1.6500000000000001,-0.43007334127321006,-1.0704048238326802,-2.022106854230012,-1.287248567596684,2.4147254127715567,-1.2781483342193798,-0.39703641757913616
1.7000000000000002,-0.42738759328517356,-1.068227768919926,-2.02211053796922,-1.2837583824705088,2.4130537439694315,-1.277101313786652,-0.3933921004396814
1.75,-0.4245795749308268,-1.0659374723297141,-2.0221408677462147,-1.2800876201573963,2.4113271921848902,-1.275991026469565,-0.3895471121907791
1.8,-0.4216497058161748,-1.0635340502525095,-2.022199581468522,-1.2762333011363138,2.409546977471909,-1.2748152913363804,-0.38549560838682095
1.85,-0.4186000682216615,-1.0610184798837674,-2.022288355124861,-1.272195172094956,2.407714181978028,-1.2735723524881302,-0.38123145972457523
1.9000000000000001,-0.4154329465876436,-1.0583908775136688,-2.0224089430576715,-1.2679715802844702,2.4058301637145805,-1.2722609823448239,-0.37674864340290054
1.9500000000000002,-0.41214915558843473,-1.0556526306077618,-2.0225633488975987,-1.2635623803030025,2.403897037382141,-1.2708796482145848,-0.3720407002838007
2.0,-0.4087522516480093,-1.052803398564029,-2.0227534442763937,-1.2589653908946838,2.4019160463249056,-1.269428074994946,-0.36710164013552166
2.0500000000000003,-0.4052449765247192,-1.0498457023112036,-2.0229812798573956,-1.2541794927752805,2.3998890925799836,-1.2679041002651195,-0.3619252725971102
2.1,-0.4016311651600001,-1.046780375740662,-2.023248749146507,-1.2492042409495427,2.3978181307823583,-1.2663082585005625,-0.3565053886987969
2.15,-0.39791378833059454,-1.0436086889464031,-2.0235580556144797,-1.2440385157942802,2.3957058432615854,-1.264639936628622,-0.35083578973271606
2.2,-0.3940955159409293,-1.0403341245885627,-2.0239116452810832,-1.2386836616591892,2.3935552847710855,-1.26289747031606,-0.34490977978074566
2.25,-0.39017936422145943,-1.0369575664382435,-2.02431178712865,-1.233139698157466,2.391368431438696,-1.2610818398124644,-0.3387207326651935
2.3000000000000003,-0.3861752014972868,-1.0334781685001364,-2.0247602283611386,-1.2274025276341298,2.389146997143515,-1.25919582999993,-0.33226359638741865
2.35,-0.3820773154810543,-1.0299072310616946,-2.0252598842249228,-1.2214786566914024,2.386895444763445,-1.2572342945678618,-0.32552990106852275
2.4000000000000004,-0.3779012750980473,-1.0262326651818146,-2.0258134925019116,-1.2153634104251532,2.3846199771347387,-1.25520720918446,-0.31851565907288665
2.45,-0.37364276632455495,-1.022474555665128,-2.0264232088099488,-1.2090555990994984,2.3823162501789525,-1.2531030944796135,-0.3112133274200971
2.5,-0.36930570358293996,-1.01863786001122,-2.0270905451995196,-1.2025588504939722,2.3799868406942353,-1.250926090276994,-0.30361503644933807
2.5500000000000003,-0.36490105016331237,-1.0147149066737948,-2.0278184205257963,-1.1958733239349744,2.377640647718771,-1.2486826088444956,-0.29571574519684934
2.6,-0.3604336996037526,-1.0107102231154161,-2.0286094390177247,-1.1890004134687602,2.3752807684704815,-1.2463755210552085,-0.287509759770992
2.6500000000000004,-0.35590740602242615,-1.0066363463129873,-2.029465671759238,-1.1819454583444957,2.3729092184413525,-1.2440033547645015,-0.27898972549410106
2.7,-0.3513266091382408,-1.0024906362758639,-2.030390306646345,-1.1747025858341296,2.3705299628123346,-1.241568861177809,-0.27015060354409637
2.75,-0.34669639373523,-0.9982774258910132,-2.0313863745703933,-1.1672717973719153,2.3681472515709237,-1.2390767799008213,-0.26098728569569973
2.8000000000000003,-0.34202238044950883,-0.9940070730056748,-2.032456303780278,-1.1596591880554366,2.3657648290553746,-1.23652954556373,-0.2514934364831597
2.85,-0.33730987764579895,-0.9896840842839743,-2.033602612470686,-1.1518656182361138,2.3633861571323314,-1.2339307966557564,-0.2416633885886429
2.9000000000000004,-0.3325643220078751,-0.9853136463249149,-2.0348278960841344,-1.1438922777989,2.361015036514596,-1.231284703601028,-0.23149190921991208
2.95,-0.32779060991329806,-0.9809020563118565,-2.0361347456443912,-1.1357407192978581,2.358655340257425,-1.2285960510845038,-0.22097393174480484
3.0,-0.3229944008796731,-0.9764555115500737,-2.0375256823077628,-1.1274127184808205,2.356310790780835,-1.225869915200436,-0.21010475054366298
3.0500000000000003,-0.3181803890785699,-0.971980778913185,-2.039003357046229,-1.1189100715972793,2.3539854910668474,-1.2231114771597207,-0.19887988894478564
3.1,-0.3133537598402725,-0.9674848277398699,-2.040570203969101,-1.1102347505712826,2.3516831409775274,-1.2203273746465488,-0.18729518114617744
3.1500000000000004,-0.3085199564984758,-0.9629749385711757,-2.0422286776244216,-1.101389014291572,2.349407560210093,-1.2175233797256944,-0.17534687526279177
3.2,-0.3036833714437426,-0.9584583359185777,-2.043981215403454,-1.0923747436393576,2.347162578873703,-1.2147066711770655,-0.16303156109212386
3.25,-0.298849140117474,-0.9539431325915942,-2.0458299895824656,-1.083194557408081,2.344951752894971,-1.2118849883015115,-0.15034617138427578
3.3000000000000003,-0.29402184315741614,-0.9494368471603346,-2.0477773421717904,-1.0738505069501973,2.342778801065178,-1.2090651829503014,-0.1372882135128657
3.35,-0.2892060039309584,-0.9449480122861785,-2.0498253407065232,-1.0643453958519056,2.340647216203036,-1.2062559865097358,-0.1238555243375119
3.4000000000000004,-0.2844061004254189,-0.9404851456432475,-2.051975896458694,-1.054681891473721,2.3385603276934934,-1.2034660596207136,-0.11004643668209499
3.45,-0.2796261880004603,-0.9360564369349413,-2.0542309499394578,-1.044862396773051,2.336521436640995,-1.2007039140283768,-0.09585990004883664
3.5,-0.27487029165483134,-0.931671707213688,-2.0565921541696057,-1.03489068414827,2.334533760364171,-1.197978932838026,-0.08129515027827003
3.5500000000000003,-0.27014244388548364,-0.9273378697144603,-2.0590610582467046,-1.0247673934050445,2.332599907579051,-1.1953016110853112,-0.06635260318824439
3.6,-0.26544581440265214,-0.9230662322985318,-2.0616390145867087,-1.0144976702658888,2.330723109373888,-1.1926813066549367,-0.051032530605359075
3.6500000000000004,-0.2607839423301682,-0.9188660091187292,-2.0643271535243146,-1.0040847542289353,2.3289058631558257,-1.1901281914740487,-0.03533598810877837
3.7,-0.25616014350911576,-0.9147444817577906,-2.067126437282378,-0.9935294659767425,2.3271502274898084,-1.1876538560337704,-0.019265282102733764
3.75,-0.2515768822417601,-0.910713447970473,-2.0700375779703752,-0.9828372523179285,2.325458872613642,-1.1852685104180467,-0.0028226039806102214
3.8000000000000003,-0.2470369839215543,-0.9067817741834086,-2.0730610312814157,-0.9720108860342676,2.3238335873362,-1.182983422758472,0.013988844001392716
3.85,-0.24254279942447,-0.9029591436986892,-2.076197013906561,-0.9610536626908012,2.3222761288157363,-1.1808098224357713,0.03116514124643659
3.9000000000000004,-0.23809633487329415,-0.8992549637575848,-2.079445434869116,-0.9499690087746425,2.3207880280175686,-1.1787596403535956,0.04870165595491956
3.95,-0.23369941121803606,-0.8956792410697557,-2.082805935100251,-0.9387606454771162,2.319370606421793,-1.1768442015100646,0.06659307567782816
4.0,-0.22935357843140508,-0.8922416753401973,-2.086277857363475,-0.9274321231883411,2.318024852273149,-1.1750750271065087,0.08483331289219187
4.05,-0.22506000863175743,-0.8889515639119597,-2.089860212855637,-0.9159871798029355,2.3167516332528364,-1.173464280236099,0.10341553996077561
4.1000000000000005,-0.22081971193880356,-0.8858187822958534,-2.0935516919631043,-0.9044297817546684,2.3155514634847627,-1.1720232798417924,0.12233221631025791
4.15,-0.2166334154374313,-0.8828527680126823,-2.0973506483572493,-0.8927637006883851,2.314424535076449,-1.1707634438504844,0.14157500344488524
4.2,-0.2125014244219965,-0.8800622907802652,-2.101255113884073,-0.8809927945133383,2.3133710205237867,-1.1696967753746235,0.1611347921763783
4.25,-0.2084239537736646,-0.8774569735538609,-2.1052627394555583,-0.8691213859300837,2.3123906143147352,-1.1688341289123505,0.18100180868776583
4.3,-0.20440092932422563,-0.8750457744958439,-2.1093708245643437,-0.8571536127818856,2.3114827465937595,-1.168186304684262,0.20116551402790125
4.3500000000000005,-0.2004317919463099,-0.872836182398803,-2.113576380454161,-0.8450928965755721,2.31064673426519,-1.167764798245988,0.22161445932173682
4.4,-0.1965159995777888,-0.8708377633018485,-2.1178759937834,-0.8329444327115401,2.3098816639658177,-1.1675794468740377,0.2423367940189049
4.45,-0.19265269507945407,-0.8690587405989348,-2.1222659260767482,-0.8207129974078704,2.3091862772659795,-1.1676397971545383,0.26331998652329625
4.5,-0.1888407091367199,-0.8675041092519633,-2.1267421317136246,-0.808400241752937,2.308558561329357,-1.1679566568194186,0.2845501042081977
4.55,-0.1850785069824956,-0.8661840773680797,-2.131300223123548,-0.7960134979729548,2.307997644561836,-1.168538212309272,0.3060136252057645
4.6000000000000005,-0.18136468228842048,-0.8651042813546325,-2.1359354944461875,-0.7835564908361581,2.307501129422775,-1.1693928281418098,0.32769591253613956
4.65,-0.17769744959320208,-0.8642709352494657,-2.140642906701483,-0.7710333237687756,2.3070665860887147,-1.1705283020388304,0.34958167548274016
4.7,-0.17407465077862516,-0.8636896420967652,-2.1454172507028426,-0.7584489997799524,2.3066921878981397,-1.1719524343289298,0.37165525156217694
4.75,-0.17049421830448833,-0.8633660326802838,-2.1502529727424426,-0.7458082756849096,2.306375040796,-1.173671213673237,0.39390046104677573
4.800000000000001,-0.16695385347378006,-0.8633048966195143,-2.1551442561560146,-0.7331157828435534,2.3061121674579184,-1.1756901946951508,0.41630063554507585
4.8500000000000005,-0.1634507599389889,-0.8635092482424475,-2.160085221267937,-0.7203756979575676,2.3059009104589143,-1.1780152396445533,0.43883859096477956
4.9,-0.15998250589497637,-0.8639839369124608,-2.1650696879326827,-0.7075938767714615,2.3057381482401937,-1.1806498216562396,0.4614970991090428
4.95,-0.15654626756743176,-0.8647312586684025,-2.1700913659902965,-0.6947748741851973,2.305620452073513,-1.183597295351812,0.48425844066675516
5.0,-0.15313914305155482,-0.8657534030572716,-2.17514378144584,-0.6819232299329987,2.305544044709434,-1.1868600398535756,0.5071045763371639
5.050000000000001,-0.14975804769060747,-0.8670518034604524,-2.1802205320365466,-0.669044461755496,2.305506076380399,-1.1904401762334933,0.5300174760607664
5.1000000000000005,-0.14639998644781665,-0.8686275305861568,-2.1853150609441836,-0.656143581193129,2.3055024668986794,-1.1943378755899932,0.5529788907725278
5.15,-0.14306185801152246,-0.8704807787987995,-2.1904207228903947,-0.6432253553447816,2.3055290753162105,-1.1985527705669727,0.5759704116545814
5.2,-0.1397402582524411,-0.8726104162541465,-2.1955311171751366,-0.6302949693239717,2.3055827536611,-1.2030844402806247,0.5989736940016741
5.25,-0.13643220640771145,-0.8750160054545725,-2.2006397020870656,-0.6173579669719791,2.3056591703772567,-1.207930192170562,0.6219704827742201
5.300000000000001,-0.13313455014410766,-0.8776957876085911,-2.2057400006328534,-0.604419660283884,2.305754152522797,-1.213086750565586,0.6449425892793846
5.3500000000000005,-0.12984366377484755,-0.8806453864361622,-2.2108258231428617,-0.5914837418173,2.3058637362307652,-1.2185514377778945,0.6678715956235755
5.4,-0.126556740970069,-0.883863623482465,-2.215891001402205,-0.5785572836098181,2.305984225016372,-1.2243186141772386,0.6907399120892069
5.45,-0.12327060112561339,-0.8873457381900323,-2.220929558886367,-0.5656450371471191,2.3061112481375714,-1.2303826780785592,0.7135298399762438
5.5,-0.11998214323434242,-0.8910871116611393,-2.2259356235971803,-0.5527517820063306,2.3062403178698636,-1.2367371545401267,0.7362238652072209
5.550000000000001,-0.11668836246889422,-0.8950823732241197,-2.230903780434287,-0.5398833275262882,2.306368334701737,-1.2433753519379454,0.7588050382334558
5.6000000000000005,-0.11338645415058099,-0.8993259578978802,-2.235828698018718,-0.5270449536628156,2.3064908365472405,-1.2502887456812335,0.781256675783192
5.65,-0.11007365539833963,-0.9038114519890007,-2.240705213932004,-0.5142415338438274,2.3066034777440376,-1.257468505189358,0.8035623888895185
5.7,-0.10674721935447426,-0.908531396361484,-2.245528745038047,-0.501478585987285,2.3067034055179394,-1.2649058588859343,0.8257063904313053
5.75,-0.10340489086105936,-0.9134789527136921,-2.2502947666500925,-0.48876164287892854,2.3067864048279056,-1.2725901182165602,0.8476733507204885
5.800000000000001,-0.1000443978672173,-0.9186460618596042,-2.25499902466741,-0.4760956398574666,2.3068486210348547,-1.2805105230813048,0.8694483185375751
5.8500000000000005,-0.09666326387143687,-0.9240235032782584,-2.2596378281561527,-0.4634856029284365,2.3068871760761156,-1.2886564711960249,0.8910169121768619
5.9,-0.09326004613192838,-0.9296034002680632,-2.264207583445223,-0.45093723164510446,2.306898570167966,-1.297015687538772,0.9123653868382309
5.95,-0.08983304088263443,-0.9353763613914057,-2.2687050476018538,-0.4384554874083031,2.306879591719401,-1.3055758714509471,0.9334804522901011
6.0,-0.08638015594615946,-0.9413318754848773,-2.2731274302471824,-0.42604500096174974,2.306827355905539,-1.3143250219846319,0.9543493599806512
6.050000000000001,-0.0829008936934471,-0.9474611644395835,-2.2774721269640894,-0.4137114158041459,2.3067393191863577,-1.3232497337157614,0.9749600836241119
6.1000000000000005,-0.07939416249729477,-0.9537538205121899,-2.2817368808916934,-0.4014594184531399,2.3066128376923203,-1.3323366986925704,0.9953010614982438
6.15,-0.07585845796127275,-0.9601987144573323,-2.285919860344626,-0.3892938808457533,2.3064456514317753,-1.3415728556454225,1.0153614474928767
6.2,-0.07229420736615635,-0.9667861355837863,-2.2900193754436478,-0.3772197082790899,2.306235762902554,-1.3509441985220283,1.0351308953287268
6.25,-0.06870095378537193,-0.973505212248304,-2.2940340947888695,-0.36524146196454044,2.305981321801632,-1.3604368493669636,1.0545996654588756
6.300000000000001,-0.06507795031787608,-0.9803443405322319,-2.297963133710517,-0.353363866415254,2.305681012338656,-1.370037396901086,1.0737587802359188
6.3500000000000005,-0.06142644449038081,-0.9872934762039961,-2.3018055903659804,-0.34159134533085844,2.305333148432102,-1.379731398239524,1.0925996343562414
6.4,-0.057746624399192314,-0.9943414483938445,-2.3055609573416884,-0.32992795465871544,2.3049367776119967,-1.389505037886971,1.1111142554944182
6.45,-0.0540386862449094,-1.001476835200472,-2.30922915389004,-0.31837861243184534,2.304491614360496,-1.399344773571194,1.1292955966774587
6.5,-0.05030439483795795,-1.0086892484940626,-2.3128100246793504,-0.3069470972140201,2.303996492524896,-1.4092363167470494,1.1471367953784877
6.550000000000001,-0.04654478587838673,-1.0159678150968932,-2.3163037553141588,-0.2956374557445494,2.303451352680535,-1.4191660480967423,1.1646317300367057
6.6000000000000005,-0.04276094929971116,-1.0233010932232622,-2.319710814606328,-0.2844529311516802,2.3028562080986386,-1.429121045716394,1.181774708301502
6.65,-0.03895523818311723,-1.0306795781589573,-2.3230316535543487,-0.2733981206840329,2.302211164862554,-1.4390872897377878,1.198560879627518
6.7,-0.03512840217031825,-1.0380909435665984,-2.326267208186809,-0.26247432743242505,2.3015167099429594,-1.4490530544270186,1.2149852748741514
6.75,-0.03128343061009261,-1.04552679855976,-2.3294182864330337,-0.25168686449320327,2.3007737188241295,-1.4590045617508494,1.2310443390709689
6.800000000000001,-0.02742230523352128,-1.0529762764871922,-2.3324858510060564,-0.24103734195212492,2.2999825670189677,-1.4689297159458905,1.2467342713665375
6.8500000000000005,-0.023547377088962502,-1.0604294761352162,-2.335471123754977,-0.23052944544198134,2.2991449854659596,-1.4788167255215354,1.2620523005268531
6.9,-0.019661605687557464,-1.0678774843254268,-2.3383752865691845,-0.2201664865013295,2.298262088475909,-1.4886530685377586,1.2769961380392487
6.95,-0.015766608840898814,-1.0753093620650334,-2.3411998919087442,-0.2099479619619114,2.297335292183351,-1.498428941796973,1.2915629923487266
7.0,-0.011865964144667479,-1.0827177974016295,-2.3439461990145496,-0.19987724086385122,2.2963661077344435,-1.5081327927348085,1.305751394906359
7.050000000000001,-0.007962282590487781,-1.0900938164152876,-2.346615728062171,-0.18995586964545963,2.2953565904767426,-1.5177542145463587,1.319560092991718
7.1000000000000005,-0.004058101369231622,-1.0974287553072435,-2.3492101032035646,-0.18018450157553254,2.294308697740278,-1.5272838034625575,1.332988014777155
7.15,-0.0001565222499129962,-1.1047152928495267,-2.3517308949403475,-0.17056413270600723,2.293224432389655,-1.5367118838214957,1.3460345535248854
7.2,0.003740101856027929,-1.1119454958733859,-2.3541798356437686,-0.16109394022418094,2.292105996155503,-1.546030337712624,1.3586990567203956
7.25,0.007628711626549146,-1.1191131623782946,-2.356558553128278,-0.15177414754775492,2.290955608708481,-1.5552305327946743,1.3709814941806233
7.300000000000001,0.011507338271276672,-1.1262112710146341,-2.358868888533783,-0.142602299110562,2.289775603318389,-1.5643056720023094,1.3828814995603202
7.3500000000000005,0.01537317065507726,-1.133234842834323,-2.3611125355297373,-0.13357720019151878,2.288568281874385,-1.5732484047034214,1.3943993367988814
7.4,0.019225020180860024,-1.1401780710731104,-2.363291471209848,-0.12469389854162607,2.2873359558569204,-1.5820535701999687,1.4055345306106224
7.45,0.023060638949792833,-1.1470375665782058,-2.3654074887302086,-0.11594896601047998,2.2860808861007333,-1.5907153760434811,1.4162872339377552
7.5,0.026880213373517425,-1.1538092248765703,-2.367462787806129,-0.10733341589472893,2.2848051635280573,-1.599230818000551,1.426656198602761
7.550000000000001,0.030682788233326173,-1.160491900288837,-2.369459383213959,-0.09883979073478837,2.283510798562011,-1.6075962587761274,1.4366406864104613
7.6000000000000005,0.03447076371090488,-1.167084266988073,-2.3713998646655536,-0.09045272399376424,2.2821993946316126,-1.6158115894125809,1.4462376455006234
7.65,0.03824610390854775,-1.1735886763027221,-2.373286789499462,-0.08215642439023775,2.2808722797214394,-1.6238767437793273,1.4554437210051705
7.7,0.042015675603141685,-1.1800089051507348,-2.3751236276501593,-0.07392286455544111,2.279529967667909,-1.6317965638977,1.4642514890096214
7.75,0.04578793038459426,-1.1863543696616348,-2.376914265431513,-0.06571794490314578,2.2781721832431363,-1.6395778075992016,1.4726509584643785
7.800000000000001,0.04958035383745165,-1.1926401014742172,-2.378664433211005,-0.05748368006176115,2.276796806699286,-1.6472359271285875,1.480623415992148
7.8500000000000005,0.05341894035684882,-1.1988936858243202,-2.3803818524732305,-0.04913644085440883,2.27539922832158,-1.654794729825791,1.4881398033064372
7.9,0.05735394786743104,-1.2051637095297123,-2.3820795736757296,-0.040525592319142295,2.273969299431902,-1.6623008457675335,1.4951452239631458
7.95,0.06147871122372067,-1.2115460217333829,-2.383780579624236,-0.03137693732114979,2.2724860751052995,-1.6698414455966477,1.5015356526901946
8.0,0.06601148014004887,-1.218259320609568,-2.385536425969068,-0.02106390619376606,2.2708990715517126,-1.6776202408132737,1.507068177763963
8.05,0.07162954585559023,-1.2259880019079719,-2.387504910723575,-0.0076583958601654425,2.2690487890451294,-1.686268747529754,1.510984661448171
8.1,0.08372805839742369,-1.2401645696479269,-2.3909399864881515,0.024118950985789485,2.2656717281110104,-1.7008093444637504,1.5072458631442467
8.15,0.07766364406054255,-1.2359937768257798,-2.390089054362801,0.004690460854071869,2.2664425768630214,-1.6983493560795828,1.5233674916352469
8.200000000000001,0.04648638934812892,-1.2063258153927503,-2.383301291711387,-0.08657016826644758,2.273256877393766,-1.6721795754778885,1.5675941834055203
8.25,0.054306721706455736,-1.2159624881384774,-2.3857078685598463,-0.06716187524586328,2.271160280180983,-1.6821969501264513,1.5676593463582402
8.3,0.061209814542121994,-1.224514655129373,-2.387963846180185,-0.048998090825900356,2.269095833798174,-1.691655282070704,1.5678716197956457
8.35,0.06763498557286175,-1.2325867642115134,-2.390017902932379,-0.03322122472149147,2.2672100512393847,-1.7002129573052025,1.5685984373422666
8.4,0.07374313782992947,-1.2402817206182328,-2.3919726781187887,-0.018234647561948928,2.265378588167251,-1.7083370954441228,1.5692997665188835
8.450000000000001,0.08077699713244413,-1.2488631835287234,-2.3941249699143055,-0.00042919975402671076,2.2633054358456706,-1.7172194453076879,1.568537751940686
8.5,0.14008392984820267,-1.3109629121543478,-2.408809708150823,0.16725627288041553,2.2486514180450965,-1.7749517785006426,1.5076988211952969
8.55,0.1278517294324055,-1.2997339611140597,-2.406197258145995,0.13138400505122366,2.2506797997663797,-1.7658684128367395,1.5275946854710813
8.6,0.11934631549493258,-1.2921293361329058,-2.404249797162128,0.10281388620028818,2.252349285813093,-1.759199608834113,1.544232924188082
8.65,0.11197568894907248,-1.2857167282847568,-2.402742484966937,0.0802111498740094,2.2536122780525676,-1.7542268049491638,1.558328334344916
8.700000000000001,0.10619599963938142,-1.280856340737762,-2.401609097791835,0.06212105399303712,2.2545827824533644,-1.7506343326277165,1.570285987414748
8.75,0.10181508445554507,-1.2773382113851495,-2.400802404219734,0.047940185022663714,2.2552916414319104,-1.7481989095903174,1.5803756386454897
8.8,0.09868842312580202,-1.275041198330695,-2.400293786693997,0.03735965528436116,2.2557475461084926,-1.7468047508526985,1.588737502369854
