SilviaXuva/Vision-guided-robot-manipulator/Helpers/Outputs copy/2023-12-09_18h06m43s/red7/Align/Joint Comparison/q_dot_Real.csv
,q0,q1,q2,q3,q4,q5,q6
0.0,4.1195823263786545e-15,-1.2998323931925391e-16,2.5107707555996933e-16,9.458730795890445e-15,1.9127896880959803e-16,-5.17845100096553e-15,-4.167967448709897e-15
0.05,-0.00016786117870652153,0.013477610360033703,0.0032220561004099074,-0.0013142278070765027,-0.0022814005594802133,0.0007505827031820537,-0.0024383838100000815
0.1,0.00011778608998369577,0.02350264459090722,0.005187379808142655,-0.002286353656947816,-0.0035496570815211513,0.0007029803355734633,-0.002529930180419051
0.15000000000000002,3.2336201127830966e-05,0.02951355539263775,0.0059529075118790525,-0.0029070343346143616,-0.0041559720185270176,0.0005624559590979355,-0.0012097294776442433
0.2,-0.000378530876333424,0.03309348865373334,0.006133989690587562,-0.0033047203784622513,-0.004459570325585208,0.0002746679419193777,0.00036784032385734494
0.25,-0.001033596867291195,0.035258470833605615,0.006041724250335596,-0.003590277946402005,-0.004626877051000119,-0.00021561158724919902,0.0017984570944733422
0.30000000000000004,-0.0019034800969036931,0.03657935557803669,0.005805168143033567,-0.0038388509860604165,-0.004732724658049513,-0.0009108930524587334,0.003027597508796054
0.35000000000000003,-0.0029817677109590943,0.0373973319683252,0.005480401238602976,-0.004096879284500209,-0.0048136775307453805,-0.001796883498503125,0.00410376406671583
0.4,-0.004265852128403797,0.037917478181331336,0.005092115385891892,-0.004389707694400167,-0.004887172759502468,-0.002859807033860848,0.0050919158534865686
0.45,-0.005752677227427681,0.038262074021803004,0.004651052884956518,-0.0047296424646220935,-0.004961205746326797,-0.004088741123369021,0.0060472798969774255
0.5,-0.007438246970642109,0.03850376761181719,0.004161969475208168,-0.005121693198611433,-0.005039352095815949,-0.0054749158443418685,0.007010040970761869
0.55,-0.009317754546062696,0.038685654066329886,0.0036271715925299134,-0.0055670278505896955,-0.005123197048970295,-0.007010880515630097,0.008007028653016585
0.6000000000000001,-0.011385843145942782,0.038833296751592784,0.003048015503570819,-0.006064921415946504,-0.00521348608934158,-0.008689869988629518,0.009055081495283848
0.65,-0.013636850334852653,0.038961902285487265,0.0024255073954714346,-0.006613801171106937,-0.005310662104673046,-0.0105053926160739,0.010164177181278065
0.7000000000000001,-0.016064988134712153,0.03908058862040867,0.0017605216536476457,-0.0072117762846615405,-0.0054151085351845756,-0.01245099446296832,0.011339825821737457
0.75,-0.01866446141859155,0.03919491564421753,0.0010538656100739282,-0.007856887370231162,-0.00552725378122102,-0.014520139193600437,0.012584740032634305
0.8,-0.021429540685262122,0.03930838133646615,0.00030628837819511763,-0.00854721144882445,-0.005647611838229061,-0.01670615540257504,0.013899940217350661
0.8500000000000001,-0.024354604497352928,0.0394233039246759,-0.0004815265656013051,-0.009280896572739235,-0.005776794628335472,-0.01900221988873585,0.0152854609261798
0.9,-0.027434162887862417,0.03954134044773903,-0.00130897030327936,-0.010056165039302945,-0.0059155123813840835,-0.021401358356630547,0.016740790871770515
0.9500000000000001,-0.03066286925198866,0.03966379038297974,-0.002175514342108529,-0.010871304598336037,-0.0060645693328556065,-0.02389645351609542,0.018265141342767674
1.0,-0.034035525419456605,0.03979177235479677,-0.0030807127152469617,-0.011724656688019405,-0.00622485778568316,-0.0264802555974058,0.01985760669972124
1.05,-0.037547082714422,0.03992632592907054,-0.004024200836663271,-0.01261460545781899,-0.006397351687419429,-0.029145393087029205,0.021517258156567656
1.1,-0.04119264062941315,0.040068469168367066,-0.005005691868059213,-0.013539568805325117,-0.006583100067343647,-0.03188438291775102,0.023243196830309013
1.1500000000000001,-0.044967444031959264,0.040219230022933705,-0.006024971268079497,-0.014497991532563391,-0.0067832203666285465,-0.0346896400142398,0.025034582155537173
1.2000000000000002,-0.04886687941382463,0.04037966220195211,-0.007081890037906669,-0.01548834030751647,-0.00699889159727979,-0.037553486361857236,0.026890645515275396
1.25,-0.05288647046310879,0.04055085179564244,-0.00817635703905106,-0.01650910001399593,-0.0072313472540608496,-0.04046815984015456,0.028810695072853797
1.3,-0.057021873114740954,0.0407339183478215,-0.009308330658141817,-0.017558771105493386,-0.007481867921542021,-0.043425823050551954,0.030794115432134745
1.35,-0.06126887016849934,0.040930012568089265,-0.010477810025560686,-0.01863586765195249,-0.007751773541769612,-0.04641857232774853,0.032840364330920344
1.4000000000000001,-0.06562336552952201,0.0411403119866872,-0.011684825950770151,-0.019738915845107265,-0.00804241532840085,-0.04943844708128315,0.03494896772129438
1.4500000000000002,-0.07008137810913184,0.041366015334832,-0.01292943171039444,-0.02086645279335589,-0.008355167329069196,-0.05247743957579383,0.03711951408523055
1.5,-0.07463903541531983,0.04160833612838569,-0.014211693806765607,-0.022017025487580694,-0.008691417648316765,-0.05552750523133761,0.039351648532102795
1.55,-0.07929256685829011,0.04186849575272766,-0.01553168280267965,-0.02318918985675973,-0.009052559350670116,-0.058580573505112685,0.041645067044661435
1.6,-0.0840382967939841,0.04214771624079954,-0.01688946432865565,-0.024381509859036532,-0.009439981067632993,-0.061628559402641135,0.04399951113083407
1.6500000000000001,-0.0888726373270472,0.04244721287383493,-0.018285090350699917,-0.02559255657121158,-0.009855057334656643,-0.06466337566016186,0.046414763069210246
1.7000000000000002,-0.09379208089371291,0.04276818669497318,-0.01971859077853464,-0.02682090725438358,-0.010299138685174071,-0.0676769456328499,0.048890641889864625
1.75,-0.09879319264391878,0.043111817004218074,-0.021189965486563368,-0.02806514438114255,-0.010773541529256723,-0.07066121692305852,0.05142700019868668
1.8,-0.10387260264080604,0.04347925388696802,-0.022699176811048737,-0.02932385461694101,-0.011279537843767118,-0.07360817578009272,0.054023721926030006
1.85,-0.10902699789509843,0.04387161081942325,-0.024246142578283468,-0.030595627752833733,-0.011818344700750917,-0.07650986230191877,0.056680721056439044
1.9000000000000001,-0.11425311425057254,0.04428995738664633,-0.025830729710126916,-0.03187905559086433,-0.012391113660237305,-0.07935838646807077,0.05939794137428499
1.9500000000000002,-0.11954772813632222,0.04473531214424692,-0.027452748443373278,-0.03317273078586527,-0.012998920052918073,-0.08214594503174934,0.06217535723702196
2.0,-0.12490764820116415,0.045208635650338044,-0.029111947191011053,-0.03447524565079462,-0.01364275217830687,-0.08486483929531266,0.06501297536637925
2.0500000000000003,-0.13032970684472964,0.04571082369129695,-0.03080800806452916,-0.03578519093467114,-0.014323500443784404,-0.08750749379195266,0.06791083762488709
2.1,-0.13581075166046944,0.04624270072186708,-0.03254054306748987,-0.037101154584178814,-0.01504194647032785,-0.09006647589026194,0.07086902472256347
2.15,-0.14134763669712608,0.04680501353140298,-0.03430909094182145,-0.03842172051329498,-0.01579875217010414,-0.09253451633241006,0.07388766074624373
2.2,-0.14693721369631013,0.047398425164559006,-0.036113114697925996,-0.039745467401569805,-0.01659444885749529,-0.09490453070033081,0.07696691846290948
2.25,-0.15257632399857482,0.04802350915192677,-0.037951999946030844,-0.04107096745576801,-0.017429426556029762,-0.09716964182208662,0.08010702545631827
2.3000000000000003,-0.15826178930791956,0.04868074391653993,-0.039825053600711376,-0.042396785222367006,-0.018303923134420683,-0.09932320316507634,0.08330827035495066
2.35,-0.16399040270921106,0.049370507525666976,-0.04173150331275161,-0.043721476551691174,-0.01921801365112932,-0.1013588230856704,0.08657100953370298
2.4000000000000004,-0.16975892024336467,0.05009307278177928,-0.04367049760408535,-0.045043587630823084,-0.02017159997084136,-0.1032703899043165,0.08989567413199277
2.45,-0.1755640524522969,0.05084860260233911,-0.045641106523710444,-0.04636165406705335,-0.021164400551127612,-0.1050520978407811,0.09328277693881908
2.5,-0.18140245544993,0.051637145681386734,-0.04764232272941196,-0.04767420014009856,-0.02219594037255347,-0.10669847373438099,0.09673291881760854
2.5500000000000003,-0.18727072240510578,0.052458632540508365,-0.04967306316458895,-0.04897973824912316,-0.02326554126376938,-0.10820440440774298,0.10024679476017885
2.6,-0.19316537519480928,0.05331287192432321,-0.051732171203405314,-0.050276768546755723,-0.02437231260225864,-0.10956516458629598,0.10382519919482334
2.6500000000000004,-0.1990828562197352,0.05419954756213958,-0.053818419229402524,-0.05156377877840651,-0.02551514245525336,-0.11077644528743999,0.10746903027713245
2.7,-0.20501952042557642,0.055118215312103966,-0.05593051161629444,-0.052839244359563,-0.026692689239153737,-0.11183438253337516,0.11117929290956094
2.75,-0.21097162757812074,0.056068300704902985,-0.058067088078872064,-0.054101628719101624,-0.02790337398213518,-0.11273558622345603,0.1149571002312483
2.8000000000000003,-0.21693533484195798,0.05704909690467076,-0.060226727361274476,-0.055349383934343355,-0.029145373281842815,-0.11347716897934473,0.11880367331677251
2.85,-0.2229066897135636,0.058059763104912496,-0.06240795122903106,-0.05658095168071908,-0.03041661305556824,-0.11405677475581233,0.12272033882529926
2.9000000000000004,-0.22888162336339357,0.059099323378441246,-0.06460922873090374,-0.0577947645175827,-0.03171476318734301,-0.11447260698464692,0.1267085243490731
2.95,-0.2348559444431761,0.060166666000168074,-0.06682898069553495,-0.058989247528974026,-0.0330372331814575,-0.1147234559954251,0.13076975122222662
3.0,-0.24082533341753726,0.0612605432617192,-0.06906558442680957,-0.06016282033495701,-0.034381168936698354,-0.11480872543354631,0.13490562456762029
3.0500000000000003,-0.24678533748037013,0.0623795717963857,-0.07131737855941037,-0.061313899486502565,-0.0357434507587072,-0.11472845737145704,0.13911782038094814
3.1,-0.25273136611893304,0.06352223343138116,-0.07358266803360343,-0.062440901252703934,-0.037120692729239416,-0.11448335578769869,0.1434080694788499
3.1500000000000004,-0.2586586870026193,0.0646868765138518,-0.07585972908462145,-0.06354224490337901,-0.038509243484815665,-0.11407480802980624,0.1477781380452637
3.2,-0.26456242392629603,0.06587171803860403,-0.07814681448040985,-0.06461635613781336,-0.03990518882420181,-0.11350490401172059,0.15222980525771512
3.25,-0.27043755420460397,0.06707484604112492,-0.08044215845244042,-0.06566167106900558,-0.04130435573192554,-0.11277645266269026,0.15676483689323717
3.3000000000000003,-0.27627890711057784,0.06829422259625047,-0.08274398157772733,-0.06667664041381574,-0.04270231818299061,-0.1118929952873034,0.1613849556987915
3.35,-0.2820811639758343,0.06952768771245166,-0.0850504958142768,-0.06765973487845883,-0.04409440534496359,-0.1108588152485035,0.16609180828842426
3.4000000000000004,-0.28783885881128024,0.0707729633819967,-0.08735990894060222,-0.0686094496759827,-0.045475711105178646,-0.10967894395349415,0.1708869290109324
3.45,-0.29354638048561577,0.07202765859427095,-0.08967042897253755,-0.06952431003554169,-0.04684110611141951,-0.10835916256864336,0.17577170047091695
3.5,-0.29919797536589676,0.07328927449802827,-0.09198026801150663,-0.07040287670207346,-0.04818525159346707,-0.10690599881833213,0.18074731107891923
3.5500000000000003,-0.3047877520674709,0.07455521056433853,-0.09428764587573389,-0.07124375171452088,-0.04950261560499116,-0.10532671907268326,0.18581471018874957
3.6,-0.3103096858155474,0.07582277065077583,-0.09659079292091004,-0.07204558476990794,-0.050787491041476576,-0.10362931470095094,0.1909745604064393
3.6500000000000004,-0.315757625741124,0.07708917026838623,-0.09888795252740312,-0.07280707925879612,-0.05203401608905339,-0.10182248306808944,0.1962271888201889
3.7,-0.3211253029411668,0.07835154386524326,-0.10117738276893368,-0.07352699848846553,-0.05323619655340463,-0.09991560238143032,0.2015725366323679
3.75,-0.32640633922616846,0.07960695247552202,-0.10345735724947687,-0.07420417211451469,-0.05438793010772948,-0.09791870039194461,0.2070101078016077
3.8000000000000003,-0.3315942576760329,0.08085239190797142,-0.10572616518773681,-0.07483750244462534,-0.0554830324978422,-0.09584241680359729,0.21253891784803852
3.85,-0.33668249462714495,0.08208480123301795,-0.10798211059917331,-0.07542597062954376,-0.05651526548661368,-0.09369795924523944,0.2181574432687618
3.9000000000000004,-0.34166441299814493,0.08330107154977615,-0.1102235105272596,-0.07596864265528314,-0.05747836637871971,-0.09149705284528065,0.22386357226759546
3.95,-0.3465333169581819,0.08449805499027843,-0.1124486922985791,-0.07646467508115357,-0.058366078949760626,-0.08925188346394713,0.22965455759478426
4.0,-0.35128246794579593,0.08567257392134726,-0.11465598979342789,-0.0769133204663493,-0.05917218558397697,-0.0869750347203832,0.23552697231898034
4.05,-0.3559051020290743,0.08682143030828851,-0.11684373874496275,-0.07731393242148321,-0.05989054040464921,-0.0846794190501513,0.24147666936418494
4.1000000000000005,-0.3603944485878514,0.087941415209739,-0.11901027110437917,-0.07766597022469568,-0.0605151031670064,-0.08237820312188393,0.24749874564332752
4.15,-0.36474375037456785,0.08902931841118605,-0.12115390853505648,-0.0779690029575083,-0.06103997369286901,-0.08008472799794669,0.2535875116341012
4.2,-0.3689462846603982,0.09008193810159898,-0.12327295513171811,-0.0782227130519213,-0.06145942654031457,-0.07781242468800958,0.25973646709990883
4.25,-0.37299538583502745,0.09109609075382784,-0.12536568949390714,-0.07842689938622605,-0.06176794578991372,-0.07557472547010818,0.2659382838286868
4.3,-0.3768889681150598,0.09207031178496597,-0.1274299957461977,-0.07858527238442703,-0.061962233291102634,-0.07337975509759942,0.27218567743407085
4.3500000000000005,-0.38060655899764373,0.09299635973905676,-0.12946503830216421,-0.07868844562936744,-0.0620318546974892,-0.0712552953821246,0.27846608242988385
4.4,-0.38415681319117967,0.09387639928682,-0.13146811260040236,-0.07874396930078176,-0.06197690810173773,-0.0692006332449478,0.2847748127896986
4.45,-0.38752779118546726,0.09470556471262816,-0.13343758829497512,-0.07875013682187365,-0.06179180790794288,-0.06723257009042022,0.29109837878930145
4.5,-0.39071345914646965,0.09548094748459804,-0.13537146567181602,-0.07870751926222913,-0.06147255166992707,-0.06536308781833028,0.2974254687627541
4.55,-0.3937082073814314,0.09619971654995765,-0.13726768197944164,-0.078616746142947,-0.06101558137865673,-0.06360351775793205,0.30374404753732814
4.6000000000000005,-0.3965065350799063,0.09685909592572334,-0.13912409890801453,-0.0784784762048007,-0.06041775936722771,-0.06196463006762809,0.31004126520544023
4.65,-0.39910317009942187,0.09745641550425885,-0.14093848897936412,-0.07829345962796502,-0.05967641185232085,-0.06045646042593639,0.3163035822065603
4.7,-0.4014985098515166,0.09799128623631112,-0.14270806561312083,-0.07806615207987372,-0.05879156249619233,-0.0590824580606768,0.3225181854878254
4.75,-0.40367003764735776,0.09845420197856253,-0.14443178957620745,-0.0777885420892761,-0.05775523407869895,-0.05786775353723128,0.3286648858918704
4.800000000000001,-0.40563393079279325,0.09885077357313615,-0.14610572862672366,-0.07746909618091108,-0.05657211588346475,-0.05680274158023674,0.3347367061406167
4.8500000000000005,-0.40737794324607474,0.09917585882854779,-0.1477278250359659,-0.07710652330449269,-0.05523995988598793,-0.05589969745126322,0.3407137416537226
4.9,-0.4088983047152813,0.09942740859822649,-0.14929536861102743,-0.07670233769920065,-0.053758637926273736,-0.05516370868111181,0.34658039387921447
4.95,-0.410192201186129,0.09960373030200168,-0.15080555145991356,-0.07625809887748242,-0.05212871638865908,-0.05459844949993986,0.35232106278487213
5.0,-0.4112570793633965,0.09970325933091442,-0.152255506890641,-0.075775294633047,-0.05035132535903003,-0.054206565267370166,0.35791993223587615
5.050000000000001,-0.412092590799827,0.09972554327489325,-0.15364201529021404,-0.07525962156791699,-0.048429922654736196,-0.05398521298717379,0.3633610726227089
5.1000000000000005,-0.412691162857999,0.09966629672569399,-0.1549628811334388,-0.07470284697118354,-0.046362171603162375,-0.05394589249195536,0.3686285175693563
5.15,-0.41305838413988194,0.09952841330440282,-0.15621433435594156,-0.07411312061376035,-0.044154909700721834,-0.05407823637798215,0.3737083203716155
5.2,-0.41319048202655,0.0993095968078537,-0.15739364020183133,-0.07349111595928745,-0.041810822930572936,-0.054382353795129956,0.37858395558273755
5.25,-0.41308736607290875,0.09900953454988107,-0.15849772733877798,-0.07283864583065791,-0.03933400710490072,-0.054854657225955394,0.38324106839827415
5.300000000000001,-0.4127613846570509,0.09863596819389195,-0.15952225777840426,-0.07215535448621518,-0.03673238559769504,-0.05548301975805492,0.38767109102617636
5.3500000000000005,-0.4121719211030937,0.09816240612785743,-0.16046866150821304,-0.07145121970544968,-0.03400147387568049,-0.05628608167117699,0.3918399652592327
5.4,-0.411369837748782,0.09762023882959167,-0.16132887382519512,-0.07071929099875962,-0.03115702349212661,-0.05722758963656238,0.3957639072632698
5.45,-0.4103373130047222,0.09699890489994972,-0.16210211791903378,-0.06996266343906418,-0.028202551158222205,-0.05831227880477427,0.39941702417237523
5.5,-0.40907509692852584,0.09629839015467065,-0.1627858337658655,-0.0691835430928113,-0.025144519692046022,-0.059531604108486125,0.4027883355882891
5.550000000000001,-0.4075867781966915,0.09552051791168553,-0.16337734450188424,-0.06838429090812545,-0.021990518152404312,-0.06087475545078269,0.4058688401653463
5.6000000000000005,-0.4058775775110941,0.094668297902152,-0.1638738341314786,-0.06756988484068854,-0.01875009416906545,-0.06232678192399163,0.40865023743899065
5.65,-0.40394651917303015,0.09374051579271803,-0.16427398260788184,-0.06673482649951482,-0.01542748714198991,-0.06388617881708525,0.41112431824093526
5.7,-0.4018032777445703,0.09274359117738029,-0.1645748780935182,-0.06588554181766046,-0.012035014313894365,-0.06553249029881429,0.4132861244932311
5.75,-0.3994498260015453,0.09167852830124365,-0.16477490136237474,-0.06502277091565484,-0.008580919190885064,-0.06725534681496859,0.41512893782717863
5.800000000000001,-0.3969001452160668,0.09055633278196806,-0.16487099050370738,-0.06414669770027463,-0.005077860446524404,-0.0690348021237902,0.4166528014624755
5.8500000000000005,-0.3941292463008048,0.0893537921415194,-0.16486665885881532,-0.06326529827575443,-0.0015264256228256223,-0.07087900574528071,0.41783855639278084
5.9,-0.39117891889338846,0.08810621597504847,-0.16475532551945196,-0.06237200471088411,0.0020534339728353196,-0.07274934664526497,0.41870634198400314
5.95,-0.3880393012353486,0.08680482072632861,-0.1645380380128677,-0.06146941246437289,0.0056553287305970285,-0.07464400416742148,0.41924376148710435
6.0,-0.3847163009949038,0.08545239626409926,-0.1642141782284985,-0.0605590848834377,0.009269555000729048,-0.07654916669683652,0.41945125556661733
6.050000000000001,-0.38122161614142924,0.08405789052705845,-0.16378451453782034,-0.05964440648833987,0.012881170349847683,-0.07844563978476835,0.41933173738340174
6.1000000000000005,-0.3775465852035539,0.08261636385029211,-0.16324762952883354,-0.058723027720226785,0.016487480504061798,-0.08033334997726962,0.41888162193558276
6.15,-0.37371274605414556,0.08114025250713322,-0.1626037714358281,-0.05779839514659385,0.020073142728150875,-0.08218747215434588,0.41811110491936637
6.2,-0.369721420114854,0.07963307310514064,-0.16185423919533207,-0.05687059729959987,0.023627275542702553,-0.08399904206547745,0.41702060024399634
6.25,-0.3655834809571788,0.07810134330348119,-0.16099900292485939,-0.05594211123192686,0.02713815298485874,-0.08575091009473454,0.4156159577742805
6.300000000000001,-0.36129123301713095,0.07654152020388355,-0.16003928542827822,-0.055008252036169374,0.03060200682922035,-0.087446026171691,0.41389734011703383
6.3500000000000005,-0.3568659477910253,0.07496868118986284,-0.15897675745757733,-0.054073480407811673,0.034002141667377736,-0.08906145170355992,0.41187704125408714
6.4,-0.3523090600459976,0.07338264465284194,-0.15781173284536884,-0.05313602641980532,0.0373321023173453,-0.09059055841290072,0.4095584411905261
6.45,-0.34763085492115164,0.07179299490564928,-0.15654570314585398,-0.05219724309386374,0.04057900320685813,-0.09201881100847217,0.40694985919017423
6.5,-0.3428228611464611,0.07019148302740875,-0.15518206462262193,-0.05125780067356017,0.043739902123295996,-0.09335172498576086,0.4040516718366847
6.550000000000001,-0.33790628349185337,0.06859654077448664,-0.15372107044195002,-0.05031531005165484,0.04680114419087192,-0.09457001209109024,0.40088033915599075
6.6000000000000005,-0.3328839838244755,0.06700796744197392,-0.15216646850439575,-0.04937207583467224,0.04975401527141437,-0.09566892393018585,0.3974398438620145
6.65,-0.3277632082812404,0.06543113427048686,-0.15051831112870523,-0.04842706726586191,0.05259107014502773,-0.09663839095562694,0.39373914711579755
6.7,-0.322538640952023,0.06386417705261993,-0.14878060997347953,-0.04747881941180665,0.05530796669073177,-0.09748556639636795,0.3897821898128906
6.75,-0.3172272528986797,0.06231700433901087,-0.14695565298205732,-0.04652744845442301,0.05789489811948019,-0.09819752186110048,0.38558279333968715
6.800000000000001,-0.31183105695308183,0.06079255337866088,-0.14504606265551914,-0.04557344416454131,0.06034454090380887,-0.09877158693692861,0.3811470260508643
6.8500000000000005,-0.3063581839118539,0.05929495165916811,-0.14305362033196511,-0.044615851995277775,0.06265088967258928,-0.09920167543736455,0.37648458409543784
6.9,-0.3008073559019837,0.05782171478398562,-0.14098248599554836,-0.043655133738736224,0.06481090732760869,-0.09949426646867805,0.37160071980142645
6.95,-0.2951871473059977,0.056380359936448035,-0.13883388383156775,-0.04268866498993211,0.06681858824648786,-0.09964316475689718,0.36650698107897306
7.0,-0.2895073125028907,0.05497485867588619,-0.13661180320728558,-0.04171979161411809,0.06866632972549419,-0.09964248936021428,0.36121230905140733
7.050000000000001,-0.2837605581276195,0.05360241599172015,-0.1343180628994794,-0.04074268240039295,0.07035600774298313,-0.09950596075832854,0.35572153037710297
7.1000000000000005,-0.27796188427828394,0.052269352456817325,-0.13195749617962224,-0.03975996346063961,0.0718801453909637,-0.09922667106246995,0.3500468081558142
7.15,-0.2721178356532683,0.05098050690430328,-0.12953194734543,-0.03876938480158357,0.07323500053667623,-0.09880345028958298,0.34419687773085433
7.2,-0.2662178796450818,0.049725144973956234,-0.12704374111393452,-0.03777366273807699,0.07442383644570968,-0.09824772147856914,0.3381735403316679
7.25,-0.26028141569261964,0.0485160434027527,-0.12449645707114598,-0.0367698333626853,0.07544080413082041,-0.09755332729311489,0.33199292587584256
7.300000000000001,-0.2543122651833721,0.047354618195539155,-0.1218933597363564,-0.03575855689433802,0.07628295193481986,-0.09672201432556402,0.32566138956795987
7.3500000000000005,-0.24830238107785893,0.046231065869535015,-0.11923683359145595,-0.03473861212884905,0.07695636110591655,-0.09576903439554058,0.31918234927358147
7.4,-0.24226795336818824,0.045155489793093403,-0.11653185758244214,-0.03371048428291712,0.07745559459906007,-0.09469127833231819,0.31256925917196865
7.45,-0.23621232219833144,0.044130303395382854,-0.11377875071760452,-0.03267100549016443,0.0777812397767119,-0.09348905219566173,0.30582997576636645
7.5,-0.23012954136949032,0.043141539521734634,-0.11098226353083632,-0.03162584748177962,0.07793975647706919,-0.09217775857462285,0.2989668867850067
7.550000000000001,-0.22403346895052365,0.04220315196672458,-0.10814526395820148,-0.030569473633079346,0.07792776366728804,-0.09075586788767578,0.2919945912440156
7.6000000000000005,-0.21793016857019454,0.04131545269690799,-0.1052702258933779,-0.029500958249691005,0.07774702767337707,-0.08922616746612042,0.2849207465052546
7.65,-0.21181018733463072,0.04046184804577674,-0.10236088107242387,-0.02842742001840702,0.07740582824109538,-0.08760338933593444,0.27774649407730495
7.7,-0.20569181869269276,0.03965784255658769,-0.09942039782951068,-0.027344996231239718,0.07690150556773362,-0.08588393767110955,0.2704879597251816
7.75,-0.1995763885855655,0.03890065917305823,-0.09645145277835818,-0.0262521916369021,0.07623837678921172,-0.0840751312974392,0.26315122809210323
7.800000000000001,-0.1934617280467505,0.038180392745667514,-0.0934572667683376,-0.025151904975264677,0.07542467275954387,-0.08218847014052053,0.2557413578160943
7.8500000000000005,-0.18736158148375465,0.03751147485013244,-0.09044102649768593,-0.024040082789019777,0.07445839752762415,-0.08022291308939183,0.2482721673868082
7.9,-0.18126628129793967,0.03686685658784305,-0.08740728338870413,-0.022928085984739437,0.07335376680089109,-0.0781946710736907,0.24074299718451386
7.95,-0.17519298584066983,0.03627117929657648,-0.08435699783509318,-0.021806296911220942,0.07210764344591775,-0.07609832146503624,0.23317229185985544
8.0,-0.16914447797286528,0.03571652463670159,-0.0812944365890779,-0.020676259591028257,0.07072776979564317,-0.07394313382280979,0.22556553739462548
8.05,-0.16311763773063215,0.035193196779441716,-0.07822351157939161,-0.019543042804896264,0.06922288785544845,-0.07174112775883648,0.21792768699839926
8.1,-0.15712711023633488,0.03471426115708153,-0.07514627701117876,-0.018400420359105933,0.06759497975820426,-0.06948965366673072,0.21027374494618356
8.15,-0.15116346390018276,0.034254571389364816,-0.07206809311882145,-0.01726090812919754,0.06585827899738096,-0.06720564295532094,0.20260374614472426
8.200000000000001,-0.14524482974582523,0.033834732221858406,-0.06899163052152138,-0.016118702054694824,0.06401202920306515,-0.06488497355922043,0.19493537774020303
8.25,-0.13937172496241154,0.03344953026472451,-0.06591881071219403,-0.014972293049116181,0.06206527574562688,-0.06253316637619541,0.18727561270111256
8.3,-0.1335448473885213,0.03308866898685042,-0.0628551924316,-0.013826412760922665,0.060029196512247716,-0.060164891807856356,0.17963084517029987
8.35,-0.12777224425973627,0.032757720296877985,-0.05980354939845228,-0.01268087619409514,0.057908356254702295,-0.05777989053982484,0.17201308095270462
8.4,-0.12205954275348109,0.03245613314685593,-0.056767342733631265,-0.011535295955873683,0.055710331418257236,-0.05538257481691493,0.16443212372524083
8.450000000000001,-0.11640809239367159,0.03217500122851342,-0.053751101359604606,-0.010395632313390659,0.053446094321131385,-0.05298317743065059,0.15689504935726745
8.5,-0.1108268989664033,0.03192212555135923,-0.05075772950068298,-0.009257595693966107,0.05112063012600449,-0.050582197755171275,0.14941509557877014
8.55,-0.10531561760663607,0.03168451597645819,-0.04779204142936917,-0.00812966604619211,0.04874615805965758,-0.04818981348064981,0.1419981485644718
8.6,-0.09988747325938077,0.031476907662822226,-0.04485652699628326,-0.007004200699189833,0.04632592236224019,-0.045803833007154605,0.13466006564475047
8.65,-0.09453556225461093,0.031274734390764294,-0.041957224538928,-0.005894840728360093,0.0438762116045526,-0.043440664031781095,0.12740284461490023
8.700000000000001,-0.0892766463190755,0.031097547571723658,-0.039096284944913524,-0.004793814202946525,0.04139875783649183,-0.04109378686834481,0.12024493029780756
8.75,-0.08411239033962298,0.03093967477852546,-0.036278067345781116,-0.0037019323015485776,0.03890356581184985,-0.03877205115859794,0.11319414868216629
8.8,-0.07904569564524963,0.030792144962113,-0.03350752991729314,-0.0026261672743362625,0.036402241201676844,-0.03648388722831342,0.1062587339538045
8.85,-0.07408548753825543,0.030662788729784653,-0.030787831379735033,-0.0015627513158580006,0.03390015502628388,-0.03422908942051199,0.099452562141661
8.9,-0.06923318388197261,0.030540068950533388,-0.028124347668019446,-0.0005194566203070329,0.03140958851915486,-0.03201749647454747,0.09278295542651893
8.950000000000001,-0.06450067630381842,0.03043641098824202,-0.02551992399712584,0.0005096936545619622,0.02893458483078087,-0.029847028620080467,0.08626547455094018
9.0,-0.05988476084188765,0.030332326068076773,-0.022980594496678143,0.0015130901360254478,0.026489866405296714,-0.027731060825238157,0.07990478918000796
9.05,-0.055400009529313184,0.03024295525810679,-0.020509294592007076,0.0024963222988566205,0.02407852609662243,-0.02566544594015968,0.07371811320551104
9.1,-0.05104994086426826,0.030164720678111035,-0.01811053569314623,0.003458996112274038,0.02170966939761884,-0.023657225016044184,0.0677149252407862
9.15,-0.04683858538748067,0.03008963824405419,-0.015789562287337255,0.004394052768219216,0.019394188989908964,-0.021714091949920345,0.061904309309160827
9.200000000000001,-0.042775011690826224,0.030025068933753566,-0.013549910731613149,0.005305130313490438,0.017137116198249657,-0.01983600691360434,0.05630047876480002
9.25,-0.03886241199930235,0.029961159378905443,-0.011397100463586142,0.0061846093181282,0.014949712066377168,-0.018031782945446738,0.05091188654154305
9.3,-0.035111997276918244,0.02990863604089774,-0.009334429021131217,0.007037633251600158,0.012835751404384498,-0.016300087486241156,0.04575391994343757
9.35,-0.031523838815535346,0.029852231086877533,-0.007367919705344041,0.007854187384452642,0.010807833281440514,-0.014652129140119112,0.04083323609231246
