SilviaXuva/Vision-guided-robot-manipulator/Helpers/Outputs copy/2023-12-09_21h08m34s/blue2/Place/Joint Comparison/q_dot_Real.csv
,q0,q1,q2,q3,q4,q5,q6
0.0,-1.6883131248905626e-15,3.0886292132360277e-15,3.769950312917225e-16,5.547591308944581e-15,2.1053331087640518e-16,-2.493179041454973e-15,2.1837688001410043e-16
0.05,-0.0014034180346893014,0.008599159334444365,0.0005655834166480591,-0.0013624639120721651,-0.0009856551410831111,-0.004363263953667491,0.0014630680179827276
0.1,-0.0020960320579764347,0.01327330460869235,0.0008498086613330995,-0.0037172269355949363,-0.001584221741252224,-0.0053549938859318216,0.0017096790435731147
0.15000000000000002,-0.0017272907835571886,0.013345911641677987,0.0009669114032362547,-0.005548247651617781,-0.0018423028140534797,-0.004181191302923239,0.0009414907622302226
0.2,-0.0013786709100627572,0.012983980577647294,0.0008307499762465883,-0.006882226039215024,-0.0024034625838605895,-0.003544873379455034,0.00018742271732741667
0.25,-0.0013673782762444854,0.013235287668660863,0.0005243586256583753,-0.008218283488041845,-0.003305473064007393,-0.003899007990065557,-0.00045137951035317575
0.30000000000000004,-0.0012947860255042454,0.013935782570356025,0.00021433697095925514,-0.009752589557159491,-0.004536245535694531,-0.004729613280100135,-0.001184690108093485
0.35000000000000003,-0.00120435798342615,0.014859126421453595,-0.00011081842713014456,-0.011639347750024067,-0.006047886148467096,-0.0060816422991087915,-0.0020422876934402642
0.4,-0.001304524648031451,0.016125343042691313,-0.0005731753582385538,-0.014013378202666725,-0.007829495775471195,-0.007699876080622909,-0.0030048072855779393
0.45,-0.0012790198025711373,0.01789573207985541,-0.0010341780494803332,-0.016892796432959985,-0.009971682698057035,-0.009568745111964278,-0.0041272582684246
0.5,-0.0011474486503826528,0.01973648080200149,-0.0014966704937506283,-0.02022543105340086,-0.012335025767258194,-0.011547847963467294,-0.005449492978716613
0.55,-0.0011581974665050305,0.022387713674183317,-0.0020554913293987283,-0.024124359528558535,-0.015078681250521498,-0.013956389248897735,-0.006818687145523063
0.6000000000000001,-0.001009880648758385,0.02530778699999764,-0.0025100358607704036,-0.02861383612735098,-0.017983813517975546,-0.01647473389898069,-0.008367331227991612
0.65,-0.0007813748947900264,0.028086815753402,-0.0029904157980672093,-0.03355825089415597,-0.021001798341213712,-0.018835736006427614,-0.010118029813743795
0.7000000000000001,-0.0004678290980251673,0.030115825334981847,-0.0035238605910656185,-0.038615718546478654,-0.023995616784266156,-0.020845279277796783,-0.012144923868330923
0.75,-2.0777533026331008e-05,0.031534163008617215,-0.004263397872808612,-0.043762628573588674,-0.02730822901921706,-0.023000733306601445,-0.01439195502357328
0.8,0.0005790428703406972,0.03293422742739052,-0.005018376538055971,-0.04902667695691154,-0.030832856905525848,-0.025394120470133674,-0.016750781268203004
0.8500000000000001,0.0011612876745905505,0.03457616316268411,-0.0058834208858927674,-0.054522448755385415,-0.0346454653806612,-0.028124457980412954,-0.01916559960609677
0.9,0.0015933308358259887,0.036788825117325175,-0.006770862837238014,-0.06037346326646653,-0.038609907740173574,-0.031154972525682723,-0.021593481605342496
0.9500000000000001,0.0020746091393315964,0.0394503832922993,-0.007643632032495455,-0.06661298629042496,-0.04278026797450027,-0.03437241437889225,-0.02411154552132146
1.0,0.0023588115878587085,0.04328862507636785,-0.008560300114649613,-0.07341161080486408,-0.04725519585994213,-0.03802126503836556,-0.026580207495904867
1.05,0.002476780861373814,0.04872915636201707,-0.00932887557682096,-0.08100715779741194,-0.05192282809745841,-0.04217146388158962,-0.028966468488358453
1.1,0.00305615241398656,0.05496492021940126,-0.009786204634176728,-0.08913745445469479,-0.05662721822764101,-0.045803277270244074,-0.03151959169796512
1.1500000000000001,0.004253416232446253,0.05918767241870775,-0.010422249813664235,-0.09725024175318078,-0.06132691406215077,-0.04811923656042601,-0.03461791185959371
1.2000000000000002,0.005337442352029605,0.06193372352282272,-0.011445733953251474,-0.10520905453412645,-0.06609553772107667,-0.05035928631319455,-0.03792713637772692
1.25,0.006325034053175541,0.06423637888014727,-0.012663698562111837,-0.11298928116206944,-0.0710120827332243,-0.05299577193113971,-0.04130860901092897
1.3,0.007284460736619154,0.06634235790393349,-0.013990385564463848,-0.12068481512913597,-0.07606089861382805,-0.05599758189836306,-0.04475427726754558
1.35,0.008217933333635838,0.06819354141900692,-0.015432550178127679,-0.12830057040527698,-0.08120022584811698,-0.05917243892962903,-0.04829078768674676
1.4000000000000001,0.009122966090369673,0.07008006274217622,-0.016933049641527222,-0.135926400383999,-0.08642241752400219,-0.06260681942211455,-0.05186529234529226
1.4500000000000002,0.010064964643968041,0.07201588408177843,-0.018515443604384445,-0.143601374901629,-0.09178214271529622,-0.06620952106880898,-0.05549790171864817
1.5,0.011022454485297283,0.07392378978935858,-0.02018943760201028,-0.15135018423403895,-0.09724357498020635,-0.06991995240238025,-0.059197840112697374
1.55,0.011971299739368592,0.07586587866777995,-0.021901208167413394,-0.15917353094383843,-0.10272651551416598,-0.07373819194577813,-0.06294565266269242
1.6,0.012969470778534414,0.07786763842696444,-0.0236850104060449,-0.16708751355557291,-0.10830302712529533,-0.07764036940764724,-0.06674421646887421
1.6500000000000001,0.01397089332586681,0.07989691578289114,-0.025520728185504778,-0.17509009984031348,-0.11389989004367135,-0.08161049947234172,-0.07058546048270267
1.7000000000000002,0.01499881687533123,0.08191339917856892,-0.02743221040903069,-0.18316141766880106,-0.11953694600201681,-0.08560241490123825,-0.07447859444020821
1.75,0.01606458787684202,0.08407737375987591,-0.029396082369546793,-0.19131501464452494,-0.12523492683043594,-0.08972725031005564,-0.078388301977165
1.8,0.017147450903624024,0.08616740862950346,-0.031425746797181624,-0.19952609207519534,-0.13091994291300782,-0.09383861057213785,-0.08234971207389036
1.85,0.01826670998649825,0.08834179451480838,-0.03353793263857287,-0.2078030125413788,-0.13665780710870398,-0.09801983941657948,-0.08632574166345859
1.9000000000000001,0.019417851168097876,0.09045216041937869,-0.03572617629021101,-0.21610783412708362,-0.14238799950703204,-0.1021816632858218,-0.09034450514011431
1.9500000000000002,0.020579351492959197,0.09273805028629721,-0.03797028694271157,-0.2244591079054373,-0.14813408886912777,-0.10648522412741346,-0.09434161161150895
2.0,0.021756226297276644,0.09492973706169866,-0.04028951175602305,-0.23283658388241266,-0.15383522843757677,-0.11074633854335042,-0.09837371303795062
2.0500000000000003,0.022961398247604292,0.09720181933947308,-0.04267205603467644,-0.24123090837055142,-0.15952568764734065,-0.11508148155663939,-0.10239356739158853
2.1,0.024197025264805237,0.09948063854288428,-0.04514003455060383,-0.24963636722921287,-0.16519817931343822,-0.11941502526628811,-0.10641363780710678
2.15,0.02544833809358936,0.10176269852361702,-0.04768885341371531,-0.2580377476494079,-0.17083120757795045,-0.12375406391086531,-0.11042491274416905
2.2,0.0267166479175954,0.10408002824187909,-0.050311499953347945,-0.2664198378750849,-0.1764195090619801,-0.1281234951262049,-0.11441402918297619
2.25,0.027986249161663382,0.10638058680628788,-0.05300723743400649,-0.27477262206097747,-0.18193850486606308,-0.1325210068642144,-0.11838119912601108
2.3000000000000003,0.029289109111755744,0.10871067218925799,-0.05580012372301312,-0.2830908061943877,-0.18742538351309984,-0.13691435685806885,-0.12231411387927091
2.35,0.03060259311427748,0.11108192069727267,-0.05868136965104347,-0.2913683121342954,-0.19285689231937128,-0.14132797077417167,-0.12619909327564346
2.4000000000000004,0.031901375366229265,0.11343637200716974,-0.06162274391616468,-0.2995951542111472,-0.1981681576700203,-0.1457407926272408,-0.1300393061982288
2.45,0.03317898933351933,0.11575550315159594,-0.06465177258519275,-0.3077499072650942,-0.20337188996922162,-0.15012012980883738,-0.13382855646216377
2.5,0.03451731445608034,0.11815737293124544,-0.06777185042634468,-0.3158240362607568,-0.20854615138401383,-0.15456550925308563,-0.13753960343606406
2.5500000000000003,0.0358320728106694,0.12046913148524908,-0.07098844771000437,-0.32382394623006844,-0.21359507986203674,-0.15893230870719782,-0.1411966141908398
2.6,0.03715209690248826,0.12282906986997846,-0.07429435265560597,-0.33171202829131335,-0.2185565841958633,-0.16332170800426885,-0.14475715433467726
2.6500000000000004,0.038429620178065574,0.12514760648898487,-0.07767867504921255,-0.33949596401727294,-0.22336377030381083,-0.1676590358636423,-0.14823070617924686
2.7,0.0397467060947046,0.12760441076813686,-0.08118269705587922,-0.3471332460535017,-0.22814013361613872,-0.1720416824881843,-0.15157171599174674
2.75,0.041023193214503796,0.12994012634759194,-0.08478195717469014,-0.3546774241857606,-0.23276405020986662,-0.17634385350108037,-0.15483112551632663
2.8000000000000003,0.042274868023705094,0.13224344135185884,-0.08849515005904214,-0.3620693814080857,-0.2372712827698652,-0.18058155902362957,-0.15797542090762556
2.85,0.04349051022485593,0.13455380773036402,-0.09230472739080216,-0.36928379921209703,-0.2416478977164944,-0.1848072930919157,-0.1609789725516091
2.9000000000000004,0.04466519677139024,0.13692726419823661,-0.09619099917070956,-0.37630333593902726,-0.2458702786219083,-0.18902028783637617,-0.1638157361465435
2.95,0.045812913692421076,0.13924483576857644,-0.10020290144051427,-0.3831506800869667,-0.24997765857586624,-0.19315448783379963,-0.16650925292354068
3.0,0.04689817308828016,0.1415569940291958,-0.10431153667586465,-0.3897903629437308,-0.2539234620586239,-0.19721808850726014,-0.1690269579553985
3.0500000000000003,0.04793440568449131,0.14392114467526415,-0.1085323743416229,-0.3961827675820202,-0.25774088910285853,-0.20124223207352923,-0.1713391992037994
3.1,0.04889631505779041,0.14618838211673857,-0.11286425807782656,-0.40235847815720815,-0.26139230449200884,-0.2051342898582923,-0.17348250859146788
3.1500000000000004,0.04972473428080372,0.1484834479585422,-0.11730954409481381,-0.4082471445450794,-0.26486896232818335,-0.20894494066896657,-0.17537999425156903
3.2,0.05052783572867618,0.15094672462459408,-0.12183964837029818,-0.4137750611656855,-0.2682194205292849,-0.21279140745495942,-0.17699150545178371
3.25,0.051242812821031714,0.1533161264913953,-0.12651050392653676,-0.4190331181157053,-0.27143463841622245,-0.21648590019619426,-0.17838302241647974
3.3000000000000003,0.05180871440475357,0.15559592763043245,-0.1313234799800337,-0.4239747342345065,-0.2744892532256921,-0.22000871611648654,-0.17951846402348592
3.35,0.05225772672724051,0.15804643212089933,-0.13624664307871445,-0.4284364829460552,-0.27740127801269315,-0.22351318533663606,-0.1802818030911107
3.4000000000000004,0.052555557678081996,0.16053768156060533,-0.14128790092847318,-0.4324660073066496,-0.2801527345373557,-0.2269068507365747,-0.18069861021577377
3.45,0.05271397177906498,0.163151925978898,-0.14647320507344277,-0.4359672373203013,-0.2827909556574587,-0.23022463981495633,-0.18070674397821038
3.5,0.052675858444491824,0.1658042078511888,-0.1518195824138079,-0.4389479408708047,-0.285305518931089,-0.23338422657458618,-0.18030016236448765
3.5500000000000003,0.05240422702004538,0.16861293744007622,-0.15729685655442427,-0.4412718093363388,-0.28767004338045876,-0.23643574114783344,-0.17939072333540346
3.6,0.05193875158070935,0.17164898351531294,-0.16295182166851155,-0.4428206474439166,-0.28997144558456717,-0.2394346115006394,-0.17789845878718002
3.6500000000000004,0.051202892097850894,0.17483605021244225,-0.1687750531569633,-0.4435791869868819,-0.2921672814214511,-0.24226166045764722,-0.1758086506429905
3.7,0.050176469278354396,0.17834581042553932,-0.1747863403967509,-0.4433132888090344,-0.29430926659106715,-0.24505498461597064,-0.17295463080789983
3.75,0.04882819236651889,0.18221935983507592,-0.1810457250668526,-0.44190477626391866,-0.29646048451912566,-0.2477430217217699,-0.1692353823833302
3.8000000000000003,0.04711508823293356,0.1865868462340548,-0.18754127788215852,-0.43910479660141066,-0.2986312550335279,-0.25042020230377715,-0.1644896318527865
3.85,0.045016755499794864,0.19155917608184783,-0.19432289606818628,-0.43468170519080884,-0.3008899094582966,-0.2530585858388096,-0.15854030495491336
3.9000000000000004,0.04246300491059812,0.19723350701258086,-0.20147184406216417,-0.42834958607887574,-0.3033372465157971,-0.25568123148228716,-0.15117211552013138
3.95,0.039406308014979824,0.20387248019242932,-0.20906872213615613,-0.4196673473385904,-0.30608559323483775,-0.25834315950754383,-0.14203742520321444
4.0,0.03580572653482564,0.21166815654996854,-0.2172034785332942,-0.40817662192757387,-0.3092685500964959,-0.26109103006889284,-0.13080137106783615
4.05,0.03158953666237049,0.2209533277879326,-0.2260093987644905,-0.3932224687018908,-0.3130704991252104,-0.2640510798549659,-0.11696087023167509
4.1000000000000005,0.026699320789224712,0.2320469742815692,-0.2356636365366404,-0.3741531546097197,-0.3177185767289472,-0.267206085760971,-0.0999517003417825
4.15,0.021203607666425484,0.2456048280727462,-0.24643229269356104,-0.34984931156153587,-0.3236016471119549,-0.27085437489072506,-0.07888945934374675
4.2,0.014991409209982876,0.261605164719518,-0.2585567294262239,-0.31992554785848276,-0.33100932170709574,-0.27468229669470606,-0.053315850281771104
4.25,0.008212655225855736,0.2809639568735739,-0.2724223397350768,-0.2829222639694337,-0.3404881587959656,-0.27901478162366194,-0.021960768577448248
4.3,0.0010311958919538844,0.30383267552247745,-0.2884074404717175,-0.2383515400305143,-0.35256897693230416,-0.28360213265728756,0.015872016940284395
4.3500000000000005,-0.006186467297084497,0.33059568397960026,-0.306904519117895,-0.185631271411125,-0.36786127681415715,-0.2883389198618066,0.06106001278672163
4.4,-0.012894357457596983,0.36090463974129283,-0.32820612202708715,-0.1253876805959826,-0.3869168899704212,-0.29264662730073393,0.11371614549304793
4.45,-0.0182749515880008,0.39415542214667876,-0.3524198337258644,-0.058972878637957415,-0.41018883457971705,-0.2958868792217279,0.1734701510125542
4.5,-0.02132679609601623,0.4289952880848155,-0.3793569589659627,0.01087750004443555,-0.4379195463385249,-0.2970449623404383,0.23888537123344306
4.55,-0.021008692094159287,0.4636572575280247,-0.4084063161192466,0.0806712989879077,-0.4700363464549275,-0.29506220482076845,0.3076932216957715
4.6000000000000005,-0.016393586879840938,0.4964102872261497,-0.43870729419876053,0.1469882288506389,-0.5063578880497096,-0.28900936618960804,0.3773208724457291
4.65,-0.006786820520810255,0.5258576233321535,-0.46910135809395775,0.20718519198090912,-0.5465760586885766,-0.27827308049802857,0.44527056825183264
4.7,0.008176363781507101,0.5511420634858186,-0.4984767474919504,0.25976245949996823,-0.5906333836251989,-0.26246512163460184,0.5095608799020708
4.75,0.028509044545124096,0.5720521513006407,-0.5255744749093603,0.30447253019052667,-0.6385222530527428,-0.241489450928078,0.5688090178639014
4.800000000000001,0.0540024828683871,0.588815360723662,-0.5490416680025332,0.3418875968407178,-0.6903557099709743,-0.2153752575668677,0.6220482949881265
4.8500000000000005,0.08419774260451945,0.6019179675767606,-0.5674099867968413,0.3729600503106605,-0.7462919888146616,-0.1841430916037956,0.6685009626133831
4.9,0.11836287790379335,0.6119345980775283,-0.57898107375731,0.3987033260752175,-0.8063028739284825,-0.14776081507245398,0.7072703395607483
4.95,0.15546628424110848,0.6195329245070783,-0.5819119370793493,0.42008332678675564,-0.8700981610621747,-0.10614407931502212,0.7373304519964788
5.0,0.19409979948177186,0.6253879186845819,-0.5742296068702353,0.4379082001503597,-0.9368641081243074,-0.059214490667667374,0.7573666630151843
5.050000000000001,0.23245068098972116,0.6301899779797668,-0.5540427252059194,0.45284175909378677,-1.005153372797786,-0.006995553331436866,0.7658640720524081
5.1000000000000005,0.2683145360922336,0.6345868644084174,-0.5197531852816137,0.46540517356315025,-1.0727081447947526,0.050262369078189706,0.7611827297210687
5.15,0.29919569525443557,0.6391508659464282,-0.47042907273833146,0.476013020802048,-1.136547247810813,0.11193082788054343,0.7418613924664357
5.2,0.32244847975325763,0.6442799189324411,-0.4060917287969663,0.48498679920536125,-1.193054689811614,0.17690068611807513,0.706909894218364
5.25,0.3354928597767862,0.6501407192668016,-0.3280036773755057,0.49258448770774443,-1.2384154860836445,0.2434724915585521,0.6562934685054173
5.300000000000001,0.33602420204474837,0.6565706143924979,-0.23871426911778526,0.49901398144855424,-1.2689799265449513,0.30937743460514106,0.5912260704503574
5.3500000000000005,0.322239353907461,0.6631006925152683,-0.14202953487134856,0.5044449568307858,-1.2818366650375381,0.3719349341031384,0.5144566809649564
5.4,0.29309642353788445,0.669004635150749,-0.042768260165363,0.5090104042473987,-1.275081227522007,0.4283451062473158,0.43013596734628035
5.45,0.248650339250099,0.6734442220800072,0.05352988527984241,0.5128293483581803,-1.2479536531423507,0.4760323595106823,0.34338505046179507
5.5,0.1904558767316329,0.6756559572104985,0.14101931522321187,0.515983637287255,-1.201058350224383,0.5130626762270298,0.25961615983593805
5.550000000000001,0.12182316774064353,0.6752044434271658,0.21423404974811144,0.5185521892940427,-1.1363669397044331,0.5385623870947949,0.18364067424439778
5.6000000000000005,0.04758815361823329,0.6721177165843923,0.26900372004395257,0.5205832549156079,-1.0573344391040431,0.5529219775132442,0.11886313015666847
5.65,-0.026748592359739892,0.666728748680362,0.3033410411290905,0.5221048518130893,-0.9684465817342132,0.5575936742414367,0.06670266685091031
5.7,-0.09611160600277661,0.659744291160502,0.3177326018017082,0.5231557757431564,-0.8747471240901608,0.5548185357201986,0.026815431925618693
5.75,-0.15681163591070651,0.6519495183374224,0.314760363150777,0.523737847204169,-0.7809325749920335,0.547039962004673,-0.002494081904988066
5.800000000000001,-0.2069252975287441,0.6439470925435401,0.2982276607264321,0.5238497513048238,-0.6907001723958631,0.536353871969977,-0.023583066993805524
5.8500000000000005,-0.24610241706043673,0.6361020037363337,0.27221912732433107,0.5235016451611987,-0.6065104299521897,0.524348580977317,-0.03882661170359464
5.9,-0.27510443820042585,0.6285745580771351,0.24043061296033286,0.5226962745932959,-0.5297308804930603,0.5120564605969512,-0.05021904219079061
5.95,-0.2952813779315013,0.621351808422776,0.20583853409934594,0.5214507212213202,-0.46078811442915873,0.5000531310271353,-0.05927900960556065
6.0,-0.30820098546934316,0.6143443064410872,0.17063985765797782,0.5197933969376077,-0.3995421308382434,0.4885888479563945,-0.06703597372505232
6.050000000000001,-0.31539373438109963,0.6074348740330111,0.13633496570331205,0.5177392419625332,-0.34549376849830815,0.47773656441660783,-0.07413173959955022
6.1000000000000005,-0.3182225313337095,0.6004817313548707,0.10386029122643353,0.5153275061178157,-0.2979588731221988,0.46744383779492604,-0.08093312177871867
6.15,-0.3178254577154177,0.5933992882986164,0.07374187270952337,0.512564631761747,-0.25620281471334416,0.4576257081853883,-0.0876026338822395
6.2,-0.3151207698640146,0.5861014225243284,0.04620916905445399,0.5094774922920104,-0.21950569274995718,0.4481594521861872,-0.09419455409349327
6.25,-0.31082099051227186,0.5785320860087917,0.02130143947600202,0.5060814645556391,-0.18719715606703213,0.43894327177837794,-0.1006922332401808
6.300000000000001,-0.30547063610621034,0.5706565560016069,-0.0010639338141172627,0.5023986807136511,-0.158689934881483,0.429880779689205,-0.1070440710332264
6.3500000000000005,-0.2994785324997028,0.5624684527100544,-0.02103537406287742,0.49841995250254706,-0.13347683724550918,0.42091106137324186,-0.11318240061540244
6.4,-0.29312244972806617,0.5539529780939882,-0.03880127772879424,0.49417587815089453,-0.11110374830772812,0.41194246163824255,-0.11905286720833522
6.45,-0.28662059665097883,0.5451176331096681,-0.05455708020982747,0.4896648300110268,-0.09121279758003599,0.4029475618720016,-0.1245938809800897
6.5,-0.2801044249566725,0.5359683668456687,-0.06849570011651823,0.48490950006794264,-0.07347141062956562,0.39389038147292577,-0.12976968260846544
6.550000000000001,-0.2736744157024176,0.5265289391911556,-0.0807993904084911,0.47989666237885653,-0.05762414325008096,0.3847650386274477,-0.13453866456275967
6.6000000000000005,-0.26738186983109213,0.5168145482955926,-0.0916354051364345,0.47464839952229365,-0.04343047366403813,0.3755669712999343,-0.13888626264759835
6.65,-0.26126240073825324,0.5068509761924319,-0.1011559520383751,0.4691634222965978,-0.030709256917446956,0.366292243755053,-0.14279474584721247
6.7,-0.2553312302135282,0.4966550084366088,-0.10949795880085164,0.4634574120768623,-0.019302670397260913,0.3569446239963846,-0.14625827723254947
6.75,-0.24959238895538158,0.4862569059350236,-0.11677909952088417,0.4575290437605576,-0.009073858478378383,0.3475377125311408,-0.14927743925426523
6.800000000000001,-0.2440380276406819,0.47567597925459715,-0.12310528640275484,0.4513860928329502,9.284198744670402e-05,0.33807859815804503,-0.1518582357402672
6.8500000000000005,-0.23866269160219905,0.4649355699545017,-0.12856980584948388,0.44503930875599895,0.00829408489890425,0.3285952740991631,-0.1540079786535415
6.9,-0.23343921488159752,0.45405688846854086,-0.13324963087638655,0.43849844727786685,0.01563498982292731,0.31909773296651706,-0.15574625769741582
6.95,-0.22836061136067562,0.44306372892032836,-0.1372189885922936,0.4317663244022818,0.022171051778155856,0.3095995218522541,-0.15707973275883527
7.0,-0.2234021350078531,0.4319780344271069,-0.14053553206204303,0.4248563531479288,0.02799012656271356,0.3001280461135142,-0.15803214913194802
7.050000000000001,-0.2185519108300591,0.42082300815570317,-0.14325563491468293,0.41777050952845085,0.033140305402996686,0.29069887777655934,-0.15861536480115762
7.1000000000000005,-0.21380759170784197,0.4095534470881703,-0.14544373752970927,0.41059402666245515,0.03762893712432411,0.28131663530435025,-0.15884252458124942
7.15,-0.20921283360337015,0.3983077262877705,-0.14713788044962314,0.4030818514730049,0.04147828603203657,0.2721213917936335,-0.15867148567975753
7.2,-0.20462374951515078,0.3870604175568726,-0.14834166182997752,0.39548687718771247,0.04487114887000648,0.2629169545528688,-0.1582375856165069
7.25,-0.20007002768170867,0.3757931590141067,-0.1491063171303656,0.38776261304940846,0.04780056855731192,0.2538113659140679,-0.1575199585850186
7.300000000000001,-0.19553570483416638,0.3645857800597264,-0.14945545492566967,0.3798920951960699,0.05031293875783295,0.24481227967373492,-0.1565254536992204
7.3500000000000005,-0.19102633179500358,0.35338500563519903,-0.14943536157145962,0.3719284254785584,0.05239511451675452,0.2359339639777664,-0.15526400195613432
7.4,-0.18652924296515316,0.34226133689271426,-0.14905761950692312,0.363813436134109,0.05411194328391163,0.22721162925222707,-0.15374698846069096
7.45,-0.18204601544170257,0.33117557656009144,-0.1483574471577906,0.355612608156397,0.05545933177681074,0.2186425108641752,-0.1519938261266368
7.5,-0.17755896050068964,0.3201795078096995,-0.14734205866041425,0.3473215996919884,0.056492523959289324,0.2102220054599254,-0.15002671120255578
7.550000000000001,-0.1730589818035187,0.3092460758008314,-0.14604135904333174,0.338981509753503,0.057196374037646984,0.20191349024146976,-0.1478559081042375
7.6000000000000005,-0.16856416636089094,0.2984505801520474,-0.14446358183335434,0.33046817956609964,0.0576554988797276,0.19385531596845335,-0.1454776338746639
7.65,-0.1640531462030364,0.2877475820403681,-0.1426356614284343,0.32191599354268174,0.05784009890290254,0.1859315616324349,-0.14292751101820392
7.7,-0.1595267758797383,0.27715494726372025,-0.1405693802905613,0.3133076427031844,0.05779582809419455,0.1781930002373825,-0.1402136546155588
7.75,-0.1549949773995534,0.2667070500699249,-0.13828246760909685,0.304624467687135,0.05753351086426845,0.17065466430264242,-0.13733595846289512
7.800000000000001,-0.15044999143409243,0.256406206182304,-0.1357895551382318,0.29584857390688707,0.057078977738404355,0.1633172348248711,-0.13430663629147108
7.8500000000000005,-0.1458637053339607,0.24617158800460065,-0.13311005491758546,0.28718394569048195,0.05640764051642254,0.1560648089802476,-0.13117434479501794
7.9,-0.14129807431336738,0.23615855225286225,-0.1302487450363445,0.278305290398785,0.05558440181928746,0.149097961443386,-0.12787664988058983
7.95,-0.13669916088367556,0.22626259329494608,-0.12722009186864014,0.26950278531624433,0.05462558077735003,0.1422723447948845,-0.12450177380657323
8.0,-0.13210306672916128,0.21654896462067114,-0.12404201880527363,0.26061224769917835,0.053504582436114376,0.1356273742830842,-0.12100651764298133
8.05,-0.12748319949563294,0.2069720778578446,-0.12072246593573642,0.25178837190215325,0.05226975442310794,0.12913102324775338,-0.11744403634728295
8.1,-0.12287825203168616,0.19753489163587706,-0.11729411565000103,0.242938584975257,0.05086955562380422,0.12283429454257458,-0.11377314008258213
8.15,-0.11826497289967003,0.1883081650661632,-0.11373128427129772,0.2340799436417709,0.04943833242352635,0.11673724257908252,-0.11004997170636717
8.200000000000001,-0.11364183653642135,0.17919945648929458,-0.11007479386926888,0.22530972999426055,0.04788842282744435,0.1107717410562439,-0.1062766967496446
8.25,-0.10904228191615564,0.17028790454655426,-0.10633307250300844,0.21649688514474263,0.04625390462808397,0.10502345498595254,-0.10242466801801696
8.3,-0.10443992157794547,0.1615680951056706,-0.10249758713159862,0.207766581097734,0.044593453715160485,0.09941675210712152,-0.09856067737731834
8.35,-0.09985372446466165,0.1529861919390995,-0.09860885806203637,0.19909340659676808,0.042835241989899735,0.0939692522774605,-0.09465287944034775
8.4,-0.09530258369451212,0.14459508594691628,-0.0946697236438166,0.1904436705100684,0.041022213621187666,0.0887201927914433,-0.0907041185797019
8.450000000000001,-0.09076255545806441,0.13639076083737403,-0.09067196137067104,0.1818783309955095,0.03921047497987019,0.08361586402375928,-0.08676506393568256
8.5,-0.08625770928560725,0.12833564259107053,-0.08665744008217692,0.17341323412031892,0.03731300277354278,0.07865314841087225,-0.08280565910438956
8.55,-0.0817941880585776,0.12048826904198243,-0.08261105939412991,0.16499061843049176,0.03541045018209079,0.07385365259394373,-0.07884958382019397
8.6,-0.07735601297078525,0.11280363249629721,-0.07854983171261463,0.15670349890418017,0.0334964323345688,0.06917352037731012,-0.0749220795566266
8.65,-0.07297552104976593,0.10531185962097551,-0.07449112463624383,0.14851214933364254,0.03157159104167903,0.06466839431468963,-0.07100427994597933
8.700000000000001,-0.06865303630464112,0.09800144657340532,-0.07044636928823339,0.14043252994910488,0.029621269080475385,0.060299256387417656,-0.06710937350772775
8.75,-0.06438576190939156,0.09087318930695656,-0.06641741750891811,0.13246387160293993,0.027695309546916742,0.056089064068444903,-0.06325601569729697
8.8,-0.06020040980400972,0.08396037636762704,-0.06241598818490306,0.12462984842744458,0.025805554143540826,0.05206246838544782,-0.059447938968783025
8.85,-0.05606146483502511,0.07718093466358353,-0.05846130446968091,0.11703108080427028,0.023867203929176028,0.048069691881359435,-0.05570922081059402
8.9,-0.05202213966506156,0.0706345473535617,-0.054557351118942804,0.10947436042469766,0.021965167571694613,0.044289310815183884,-0.05199752138027145
8.950000000000001,-0.04805300081557623,0.06427393307981517,-0.05069877918377014,0.10215227922549137,0.020123682173585462,0.04060830530588996,-0.048395288731004106
9.0,-0.04417695708980468,0.05811729745463231,-0.04690996401625125,0.09500728755460615,0.018324072025064555,0.0370813342931343,-0.04486616013091706
9.05,-0.0403917232216614,0.05215918645595208,-0.04320049975377684,0.08806394287257424,0.01654037714141875,0.03365004245543505,-0.04142364098373254
9.1,-0.0367325484397402,0.04639566815173998,-0.03959975875099124,0.08126020923892317,0.01475684922906503,0.03040629509651077,-0.03803572071099423
9.15,-0.033181874340562495,0.04084307196557432,-0.0360847871423228,0.07469394966513666,0.01304775918611616,0.027283303977722075,-0.034773518648274535
9.200000000000001,-0.02973961098199057,0.03550168757954582,-0.03267223732871023,0.06835671486770462,0.011408599409935112,0.024292870662039695,-0.031626451796630733
9.25,-0.026443801965303815,0.030399667854174917,-0.029375887981029455,0.06223107025341915,0.009835074891816044,0.02147793185087962,-0.02858807397015481
9.3,-0.023262885203920558,0.025495891868458673,-0.026202154024259346,0.0563980565253597,0.008323553597151867,0.018767375190322007,-0.02568979561262127
9.35,-0.020230835928214716,0.020829618122240285,-0.02316367254860254,0.05080633511974344,0.006865217007072782,0.01620209747050336,-0.022912707195265926
9.4,-0.017335970345957713,0.016389834189527545,-0.020267698722268815,0.04547687953189888,0.0054826633971484994,0.013778781208252123,-0.02027291775497798
