SilviaXuva/Vision-guided-robot-manipulator/Helpers/Outputs copy/2023-12-09_21h08m34s/blue2/Place/Joint Comparison/q_Real.csv
,q0,q1,q2,q3,q4,q5,q6
0.0,-0.26101633543465497,-0.9193133030428705,0.5136134908694752,1.1570351958787344,2.740511790629827,1.3404208178440056,2.3810793730680215
0.05,-0.26100775415875554,-0.9197752173454143,0.513641770040308,1.157479365879472,2.740462781958363,1.3402813582208182,2.3811525264689206
0.1,-0.26101979569183054,-0.9200244979455068,0.51368426047337,1.1578229148619839,2.740396131738818,1.3400922945302771,2.381238010421066
0.15000000000000002,-0.261075414646354,-0.9200210525206389,0.5137326060435305,1.1579068281778098,2.740303219667779,1.3399630521578394,2.3812850849591682
0.2,-0.2611117969553514,-0.9199739820489139,0.5137741435423429,1.157878973848379,2.74019314169376,1.3398553984061616,2.381294456095036
0.25,-0.2611137324027345,-0.9199305200458117,0.5138003614736255,1.1578040858026946,2.7400485824990364,1.3397279805698343,2.381271887119519
0.30000000000000004,-0.26111443023052355,-0.9198840580168016,0.5138110783221739,1.1576661629383702,2.7398432871977207,1.3395514792966698,2.381212652614117
0.35000000000000003,-0.26111045091762697,-0.9198148056303729,0.5138055374008171,1.1574563419715185,2.739562182549363,1.3393219316666853,2.381110538229447
0.4,-0.26107710556661845,-0.9197255779471017,0.5137768786329053,1.1571655398774177,2.7391992925393605,1.3390113854797498,2.380960297865165
0.45,-0.2610432073136686,-0.9196247043609129,0.5137251697304311,1.1567825513522543,2.7387355373591267,1.3386064711836916,2.380753934951733
0.5,-0.2610052889102722,-0.9194858019642462,0.513650336205744,1.1562705054623568,2.7381524493823175,1.338110143459419,2.3804814603027564
0.55,-0.26094263011852553,-0.9193420995294533,0.513547561639274,1.155650345220276,2.737448725304453,1.3374993328819802,2.380140525945381
0.6000000000000001,-0.260886054443592,-0.9191663175756903,0.5134220598462352,1.1548878340365143,2.7365885685000606,1.3367731774532983,2.379722159383779
0.65,-0.2608197466407753,-0.9189345755485226,0.5132725390563315,1.1539371624017964,2.7355658502539573,1.3359312746248189,2.379216257892652
0.7000000000000001,-0.2607368969440975,-0.9186147625416143,0.5130963460267793,1.1527290720466308,2.734367888511552,1.3349898359597505,2.3786090116982974
0.75,-0.26063061066481635,-0.9182013589696075,0.5128831761331335,1.1512630308542229,2.7330157186492774,1.3339564648738105,2.377889413945015
0.8,-0.26051327269932556,-0.9177288476147506,0.512632257306216,1.149545862583055,2.731480012139434,1.3328098522637968,2.3770518748780423
0.8500000000000001,-0.2603673064387589,-0.9172047848182395,0.5123380862618919,1.1475852259948036,2.7297613209702605,1.331534873023674,2.3760935948918918
0.9,-0.26018869891616275,-0.916646441896418,0.511999543119996,1.1453890536859026,2.7278369495193218,1.3301102823132491,2.375013920803071
0.9500000000000001,-0.2599924666248428,-0.9160457358995513,0.5116173615183277,1.1429441476691249,2.725697166803229,1.3285294852812783,2.3738083435147286
1.0,-0.2597617811008299,-0.9154355681389902,0.5111893465125519,1.1402830019088526,2.7233381769737264,1.3267673480303712,2.3724793331237333
1.05,-0.25951516142535036,-0.9148376128783033,0.5107229027336779,1.1374345923892197,2.7207279041398285,1.3248021982729705,2.371031009678327
1.1,-0.2593019931964207,-0.9142254690713731,0.5102335925019478,1.1343186170876058,2.7178302564881243,1.322626289108687,2.3694550300676234
1.1500000000000001,-0.2590889730947133,-0.9134451132420456,0.5097124800112647,1.1307703637030522,2.714680094984897,1.320310176185279,2.367724134437057
1.2000000000000002,-0.25881377932420746,-0.912504994615002,0.5091401933134628,1.126809486511504,2.7112999496163233,1.31788312123348,2.365827777562227
1.25,-0.25848730992289387,-0.9114582252571333,0.5085070083850656,1.1224662793715363,2.7076792475844327,1.3153262136667487,2.363762347034881
1.3,-0.25811684773197824,-0.9103168359757233,0.5078074891064109,1.1177490385772872,2.7038084865961327,1.3126227436448845,2.361524633071274
1.35,-0.25769811598733305,-0.9090778180815621,0.5070358615969109,1.11264442768902,2.699683361054985,1.3097623417076028,2.359110093558923
1.4000000000000001,-0.25723437941092103,-0.9077539608929354,0.5061892091140342,1.107166085187477,2.6952952837857898,1.3067322939791963,2.3565168287799634
1.4500000000000002,-0.2567267694123313,-0.906344162595995,0.5052634369328112,1.101310572024823,2.6906448614470073,1.3035232542841155,2.353741933495058
1.5,-0.25617091109158513,-0.9048423506790332,0.5042539650514263,1.0950711671616604,2.6857292019270744,1.3001308727568608,2.3507820412447384
1.55,-0.2555673502389837,-0.9032514031712721,0.5031589046414385,1.0884451258749976,2.6805378410517693,1.296550171723544,2.3476347583144332
1.6,-0.2549168973435245,-0.901570401775188,0.5019746541191527,1.0814303980998774,2.675073705421018,1.2927754573239005,2.3442975471345107
1.6500000000000001,-0.2542162927265354,-0.8997967118456134,0.5006986177074191,1.0740216332987729,2.669330152864424,1.2888045241140902,2.340768273683919
1.7000000000000002,-0.2534639135265857,-0.8979271539085797,0.4993270071840261,1.066211159748805,2.66330832088721,1.284634664054455,2.337044343459066
1.75,-0.25266224520286945,-0.895967503178965,0.49785720306199227,1.0580063864628728,2.6570059757231284,1.280261806989737,2.3331249277692363
1.8,-0.25180624375751487,-0.8939068503068871,0.4962859157178589,1.0493910898341199,2.6504204078285403,1.275686279639681,2.329007441474905
1.85,-0.25089625926023196,-0.8917506020382632,0.4946090190808417,1.0403725178547714,2.643555250991098,1.2709030586395456,2.3246911535901895
1.9000000000000001,-0.2499296966392632,-0.8894917229693687,0.49282271026040364,1.030937802250225,2.63640842696775,1.2659130394762141,2.320173927412493
1.9500000000000002,-0.24890774108744365,-0.8871393459496787,0.4909241959062178,1.021101754003451,2.6289792120692685,1.2607115473142012,2.315456845772717
2.0,-0.24782633550745634,-0.8846810320700554,0.488909720310215,1.010847060489583,2.6212678292016385,1.255299926167111,2.3105381589145106
2.0500000000000003,-0.24668790811569147,-0.8821235414968017,0.4867761174989276,1.000183176295075,2.61327573522871,1.2496751457365414,2.305418479175383
2.1,-0.24548975589561625,-0.879462960933271,0.48451911576038376,0.989105573862404,2.6050060613363955,1.2438355455463437,2.3000977957395903
2.15,-0.2442303114431014,-0.8766984748278877,0.48213467307697605,0.9776141126947073,2.596460018652325,1.2377807710074125,2.2945765483631932
2.2,-0.24290983217778458,-0.8738309330987364,0.4796190980646774,0.9657112183702938,2.587639377807726,1.2315100158612065,2.2888558449561787
2.25,-0.24152663309372485,-0.8708572294721025,0.47696873617625657,0.9533960378945495,2.578545964525778,1.2250246788581642,2.2829367828289144
2.3000000000000003,-0.2400812543867761,-0.8677792074216624,0.4741787299712096,0.9406721238472027,2.5691863005981928,1.2183209084345288,2.276821074728359
2.35,-0.23857255392616417,-0.8645965647780773,0.4712446614671323,0.9275436936413979,2.559562764836281,1.2113987831028104,2.2705111174017936
2.4000000000000004,-0.23700002611689455,-0.8613069374272212,0.4681635242468937,0.9140103870682331,2.5496744490494962,1.204260026511939,2.2640091491536594
2.45,-0.23536148405384863,-0.8579096321017906,0.4649309355902141,0.9000722882140713,2.539527593760731,1.1969048540285476,2.2573177181089217
2.5,-0.23366440639959637,-0.8544080503061694,0.46154234303808234,0.8857428807782123,2.5291307119726354,1.1893320554370965,2.250440734412236
2.5500000000000003,-0.2319007227164631,-0.8507958317927209,0.45799292061791935,0.8710150567848902,2.518485327840931,1.1815436632737752,2.243380899855439
2.6,-0.23007513053697795,-0.8470781843331847,0.4542782029466359,0.8559011374846582,2.5075976719732154,1.1735393589341123,2.236143037963709
2.6500000000000004,-0.22818477983777358,-0.843251867012716,0.4503942691510391,0.8404015267807303,2.496469432811015,1.1653209346274673,2.2287314981241866
2.7,-0.22623644118322123,-0.8393230199526139,0.446335134250751,0.82453243749199,2.4851143049100926,1.1568859958987432,2.2211529074437086
2.75,-0.22422425238702118,-0.8352806420531133,0.4420960363389695,0.8082894757455228,2.473532873884162,1.1482407855418455,2.2134113459033657
2.8000000000000003,-0.22215035520737275,-0.831129175987009,0.4376712787775485,0.7916796224135836,2.46173424649508,1.1393855697112372,2.205512569212522
2.85,-0.22001756421004776,-0.8268694851264488,0.43305604234347783,0.7747136505187702,2.449723355913794,1.1303230790065955,2.197463614543108
2.9000000000000004,-0.21782989988620358,-0.822503785771457,0.42824649231373474,0.7574035708438309,2.437503694999114,1.121053315217984,2.1892728212830117
2.95,-0.21558712227646398,-0.8180261171183912,0.42323634716394415,0.73975372237355,2.4250877027675366,1.1115806688403267,2.1809473517779225
3.0,-0.21329169924118913,-0.8134385549224746,0.4180207702444704,0.7217752340368051,2.4124783995877115,1.1019070933562805,2.1724959965941517
3.0500000000000003,-0.21094831211419662,-0.8087420657656529,0.412594151433768,0.7034819818212976,2.3996850316199643,1.092034950125583,2.1639290289268343
3.1,-0.2085570073540695,-0.8039301892797144,0.40695093842766566,0.6848778557008357,2.3867142582348486,1.081970423588773,2.155254895364336
3.1500000000000004,-0.2061194335027458,-0.7990066187274298,0.4010854611112466,0.665980216245225,2.3735716022471705,1.0717156998134152,2.1464858870884456
3.2,-0.20365356255274555,-0.7939728582182024,0.3949934785716504,0.6468144709434328,2.3602646729814722,1.0612722700363473,2.1376363028344674
3.25,-0.20115357532606853,-0.7888170774081822,0.38866795324354836,0.6273830990730979,2.3468045788157954,1.0506482961131811,2.1287171423140094
3.3000000000000003,-0.19862055703158363,-0.7835376772951166,0.3821017791012547,0.6076990314424441,2.3331980122056026,1.039849495742855,2.1197412093059085
3.35,-0.19607036978334202,-0.7781396481239455,0.375289446791631,0.5877934623964476,2.319449642714667,1.0288766210172258,2.110727108942613
3.4000000000000004,-0.193506667730911,-0.7726128174960173,0.3682250515767077,0.5676843676682771,2.3055657048329,1.0177361844338788,2.101692167838895
3.45,-0.19093986188253248,-0.7669536591371806,0.3609013911410326,0.5473982125873674,2.291555563651254,1.0064323567333047,2.0926568196921744
3.5,-0.18837333864655254,-0.7611518540830261,0.35331041182292056,0.5269575844991401,2.277425951692586,0.9949716915354736,2.083641800283147
3.5500000000000003,-0.1858192313312857,-0.7552024759340558,0.3454455687805414,0.5063956242903691,2.263177730966832,0.9833585425018855,2.0746722525021557
3.6,-0.18329348692382505,-0.7490943269149816,0.33729797746615764,0.4857521137818594,2.2488211333911488,0.9715976671655571,2.065777317689886
3.6500000000000004,-0.18080298923631263,-0.7428117747389429,0.3288592245567446,0.4650610944909742,2.2343565089920605,0.9596945051104295,2.056986873034178
3.7,-0.1783655575422109,-0.7363406653480823,0.320119907263374,0.44437613779924506,2.2197858451947257,0.9476542685123873,2.048339129176211
3.75,-0.1759944761670874,-0.7296602163451225,0.31106762071267524,0.4237523967783156,2.2051130103334406,0.9354784534855791,2.0398773476058643
3.8000000000000003,-0.17371036021533995,-0.7227450274042061,0.301690556493353,0.40325927687263097,2.1903316756923985,0.923171103759546,2.0316528534836036
3.85,-0.17153430067231062,-0.7155636476035493,0.2919744113330407,0.382976424278737,2.1754370332330755,0.9107312268213174,2.023725825701975
3.9000000000000004,-0.169484353544882,-0.7080753639936135,0.28190081873598627,0.36299616107801025,2.1604218262238946,0.8981610473588504,2.0161672074814714
3.95,-0.16758663796199935,-0.7002331659648648,0.2714473821907062,0.3434377035384055,2.1452708095563016,0.8854550744890574,2.009065323963213
4.0,-0.16586899720655957,-0.6919746536028568,0.26058720777344346,0.32443907615824885,2.1299623974633812,0.872608994243365,2.0025252434702043
4.05,-0.1643609121308323,-0.6832245683817111,0.24928673727879425,0.3061714089051286,2.114463757144341,0.8596155352459087,1.9966771884784216
4.1000000000000005,-0.16309196388065275,-0.6738892419439976,0.23750355481339203,0.2888403973579511,2.09873026929375,0.846459552417274,1.9916795926184323
4.15,-0.1621096986823029,-0.6638545025633443,0.2251819394369983,0.2727108033109249,2.082704950509416,0.8331221395645898,1.9877351096689861
4.2,-0.16142491149924124,-0.6529761350482304,0.21225410208495493,0.2580551768477068,2.066308832765488,0.8195896492281484,1.9850693082794537
4.25,-0.16108307541011818,-0.6410998859466458,0.1986329840343738,0.24523179811081297,2.0494378289449586,0.8058377938730967,1.9839712624275663
4.3,-0.16109583092475133,-0.6280393567670716,0.18421261070373712,0.23461522129119797,2.0319641925154386,0.7918526076212675,1.9847648576740693
4.3500000000000005,-0.1614715550778444,-0.6136048480225103,0.16886738310630375,0.22661422975671403,2.013724173968361,0.7776278565337513,1.9878178550130476
4.4,-0.16217814071809905,-0.597611553319536,0.15245707490613397,0.22160248984991207,1.994531211713751,0.7631836591697241,1.9935036618340007
4.45,-0.1631536388284573,-0.5799140282813338,0.13483608049826384,0.2198888367724644,1.9741726499915893,0.7485743309148224,2.0021771724179165
4.5,-0.16428056459049217,-0.5604302437984195,0.11586822899046118,0.22164428129005434,1.9524293419303347,0.7339016705724943,2.014121448171882
4.55,-0.16538935865168855,-0.5391646168037392,0.0954479085235143,0.22686389693620063,1.9290788908104024,0.7193221750809248,2.02950612128756
4.6000000000000005,-0.16626277100474193,-0.5162115185726573,0.07351253776346516,0.23537254686162776,1.90391196517228,0.705038142651653,2.048372182352102
4.65,-0.16665662873681023,-0.4917339913618999,0.050057462136327426,0.24686144965627962,1.8767252476806455,0.6912856513430379,2.070635734037362
4.7,-0.16630180026161634,-0.4659362561009053,0.02513361513318063,0.26094965511090407,1.8473363562658556,0.6783168445293921,2.096113807298973
4.75,-0.16492702618632793,-0.4390351162841147,-0.001145120295664704,0.2772427059394956,1.815552926823737,0.6663899424064135,2.124554293374096
4.800000000000001,-0.16227645307170457,-0.41123624242412904,-0.028597217475615767,0.29537424266586554,1.7811770464792496,0.6557617842402593,2.155656748944444
4.8500000000000005,-0.15811460244174802,-0.3827219230327718,-0.05696773263361257,0.3150270547909112,1.7440043263388236,0.6466882180702107,2.189081843099751
4.9,-0.15224277153104612,-0.35364397941090486,-0.08591680402586012,0.3359326905465419,1.7038296724531463,0.639427401752519,2.2244454107779843
4.95,-0.1445138449970423,-0.324122509579433,-0.11501242023711057,0.3578726488703564,1.6604643876693919,0.6342405725731632,2.261311988143627
5.0,-0.13485176521593584,-0.2942431635296819,-0.14372392127540864,0.38066805126494924,1.613759136136051,0.6313931650347469,2.2991803794270895
5.050000000000001,-0.12327001880456694,-0.2640577851550734,-0.17142607918123956,0.4041740595295089,1.563638284020324,0.6311499692342172,2.337473643763783
5.1000000000000005,-0.10989342941252521,-0.23358512898366124,-0.19741376057864085,0.4282709271546306,1.510137083169907,0.6337634033317415,2.375532842715699
5.15,-0.09497115784076401,-0.20281584674716874,-0.22093523630717857,0.45286119468194574,1.4534422239838538,0.6394554827039497,2.412625975558081
5.2,-0.07888506629082633,-0.17172061741072758,-0.24123984420288222,0.47786203379088205,1.393919603089707,0.6483910384927362,2.4479715331360876
5.25,-0.06214477989472793,-0.14026295534364325,-0.2576400482480987,0.5032056670123688,1.3321273847435338,0.6606507245512654,2.48078626786771
5.300000000000001,-0.04537735772254517,-0.10841319750311139,-0.2695757799245908,0.5288321695514353,1.2688040165058299,0.6762017416462317,2.5103476298521037
5.3500000000000005,-0.029298073481959997,-0.07616574686430555,-0.27667727224991323,0.5546915364256636,1.2048350345732615,0.694878565905876,2.5360705182410412
5.4,-0.014675261270808076,-0.04355136338952672,-0.27881569754298513,0.5807404262515067,1.1412016666472036,0.7163742983523415,2.5575773656481866
5.45,-0.002274810374517008,-0.01064319056796565,-0.276139211686849,0.6069396224413772,1.0789203584838576,0.7402531878537167,2.574746660942286
5.5,0.007215970337485257,0.022448386920856232,-0.26908825003265346,0.6332561894728874,1.0189811980340413,0.7659842888110537,2.587727504814878
5.550000000000001,0.01327467299290825,0.055587641277321596,-0.25837654717549147,0.6596599487590474,0.9622720072249322,0.7929914174711317,2.596909567305002
5.6000000000000005,0.015621954909777417,0.08863610920936146,-0.2449263564967412,0.6861256835436148,0.9095104762152593,0.8207176903581228,2.602852745711421
5.65,0.014252050781015215,0.12148511209381269,-0.22975929600400857,0.7126249253902044,0.8611876313438748,0.848679556130262,2.6061878947176518
5.7,0.009412795394251054,0.15405476399495222,-0.21387265458386484,0.7391333683681021,0.8175439134661076,0.8765055227419355,2.6075286766788945
5.75,0.0015380707641472948,0.18629968033002198,-0.19813462324903863,0.7656303421525377,0.7785847685560459,0.9039453371879274,2.607403978705298
5.800000000000001,-0.008843087009854823,0.2182070756766317,-0.18322322622465476,0.7920942760632649,0.7441312366118639,0.9308548535525601,2.606224828275623
5.8500000000000005,-0.021184146664833495,0.24978302370676242,-0.16961225593716978,0.8185026632521473,0.7138797641383365,0.9571672768513563,2.6042834983161485
5.9,-0.03497611381941121,0.28104041365362287,-0.1575907120915841,0.8448355497386938,0.6874616506836803,0.9828688164763251,2.6017725452489397
5.95,-0.0497780821809441,0.3119935412200303,-0.14729877334831418,0.8710722842961492,0.6644835587544492,1.0079735178461655,2.5988085927391698
6.0,-0.06522743719519568,0.3426517334662494,-0.13876676983690414,0.8971933800954607,0.6445611866011601,1.0325093412766724,2.5954567912949162
6.050000000000001,-0.08103779813713874,0.37301761951662055,-0.13195001244655064,0.9231815116880989,0.6273350305037017,1.0565071269461865,2.591750201046013
6.1000000000000005,-0.09699126419153392,0.4030899380284059,-0.1267569903179058,0.949018143471005,0.6124800602427164,1.0799942798980455,2.5877035413080094
6.15,-0.11292667963681394,0.4328591911324389,-0.12306989060301218,0.9746887835637501,0.5997071786228333,1.1029949190867319,2.5833234056640233
6.2,-0.128728726718375,0.46231403197132664,-0.12075942746683867,1.0001778064002251,0.5887638888180943,1.1255269548863214,2.5786136737564926
6.25,-0.14431795980146095,0.491439668541774,-0.11969435208916648,1.025470996708118,0.5794304905666652,1.1476024669960183,2.5735790576729984
6.300000000000001,-0.15964192498910276,0.5202196099814588,-0.1197475465273064,1.0505543176994816,0.5715175540295345,1.1692290020592986,2.5682268495094513
6.3500000000000005,-0.1746679295869385,0.5486350674593157,-0.12079931399770431,1.075416419432153,0.5648613072043617,1.1904106621784234,2.562567724704469
6.4,-0.1893786553844477,0.5766696475403059,-0.12273937754214545,1.1000435605612504,0.5593192977526914,1.211148685685874,2.5566150764354085
6.45,-0.20376626077661106,0.6043051067376232,-0.12546723197860787,1.1244245543423699,0.5547694098845645,1.2314414319649107,2.550385377373007
6.5,-0.2178304041541896,0.6315251218684567,-0.12889201806419362,1.1485467846855322,0.5511033728285988,1.2512857696756343,2.543896888156723
6.550000000000001,-0.23157513249151856,0.6583123686414932,-0.13293198921373556,1.1724006119300485,0.548227859561352,1.2706783476017653,2.5371699498023847
6.6000000000000005,-0.24500764488825158,0.6846519852483501,-0.13751376155443606,1.1959740462022093,0.5460592842788307,1.289614409132752,2.530225631534789
6.65,-0.2581363513004047,0.7105292345363271,-0.14257156161014944,1.2192573562809461,0.5445246687770315,1.308090616177132,2.523085889130529
6.7,-0.27097085930418324,0.7359314451475854,-0.1480464622984739,1.2422398327603263,0.5435591250858409,1.3261029054642741,2.5157729702080336
6.75,-0.28352035080971316,0.7608458915071077,-0.1538854202505346,1.264912276623985,0.5431040283609412,1.3436485153746447,2.5083090932627057
6.800000000000001,-0.2957941500204116,0.7852621230432988,-0.16004068771585472,1.2872652388199952,0.5431068852582487,1.3607251154242719,2.50071617659513
6.8500000000000005,-0.3078008898450742,0.8091702137331456,-0.16646918127131674,1.309289226826991,0.5435206816754072,1.3773303077124914,2.4930157729063938
6.9,-0.319548744564308,0.8325620959412682,-0.17313166615102016,1.3309752724663417,0.5443010060492934,1.393463469167935,2.485228455408239
6.95,-0.3310444304978608,0.8554301272507018,-0.17999261895136176,1.3523153783242363,0.5454096554368814,1.4091251412891788,2.477374464314213
7.0,-0.34229428921485083,0.8777681482054369,-0.18701939892602773,1.3733008127246547,0.5468093661454635,1.4243156813918845,2.4694728525726015
7.050000000000001,-0.35330334534433,0.8995707143656722,-0.19418218401571974,1.393924248412218,0.5484676163011439,1.4390373749263585,2.4615420802292536
7.1000000000000005,-0.3640771541735426,0.9208395998443016,-0.20145437418404522,1.4141734127592194,0.5503573796805444,1.4532892667197008,2.4535999500851
7.15,-0.37461746069302065,0.9415563795067267,-0.20881127142894504,1.4340567757975182,0.5524543731867807,1.467078417194007,2.445666372080579
7.2,-0.38493092416017377,0.9617303934275934,-0.21622835764847056,1.4535530661265839,0.5547214850595209,1.4804120328848942,2.437754489285766
7.25,-0.3950177952290982,0.981361027177777,-0.22368367653522794,1.4726586828792776,0.5571373707201862,1.4932914124501138,2.429878488027651
7.300000000000001,-0.4048792401778363,1.0004426969276872,-0.23115645219464181,1.4913691926180646,0.5596790606099035,1.5057252354839448,2.4220522122194716
7.3500000000000005,-0.4145170039496172,1.0189815988292348,-0.23862822306454268,1.5096762406192894,0.5623289547972893,1.5177164140284818,2.414289009189316
7.4,-0.4239312451854356,1.0369735350241935,-0.2460811067013199,1.5275783534887277,0.5650662762260148,1.5292738347436174,2.4066016570275255
7.45,-0.4331227252160145,1.0544254111865463,-0.2534989815877598,1.5450672536685865,0.5678751817004868,1.540402415381871,2.399001963166247
7.5,-0.4420909090200258,1.0713371798440727,-0.26086608691114993,1.562139164705738,0.5707370995311524,1.5511121718793914,2.3915006252354356
7.550000000000001,-0.45083655702497266,1.0877162320117721,-0.2681681571151543,1.5787886407245777,0.5736388703747083,1.5614113220722583,2.384107827634978
7.6000000000000005,-0.459357151833427,1.1035576820443962,-0.27539133832086216,1.5950184052004153,0.5765644755487433,1.5713066804098257,2.376833943915654
7.65,-0.46765384929147646,1.118873796315495,-0.2825231233687071,1.6108187438819692,0.5795026608389058,1.5808082094654745,2.3696875665002013
7.7,-0.4757255362627851,1.1336679270688375,-0.2895515942254953,1.6261876283468275,0.5824404253540394,1.5899232196394963,2.362676882056266
7.75,-0.48357073892801467,1.1479425795452274,-0.296465719314543,1.6411239695400437,0.585367681581491,1.5986613619321013,2.3558100825702466
7.800000000000001,-0.4911893230138377,1.1617037339698142,-0.30325519865209555,1.6556272684269502,0.5882743074262745,1.6070318776919803,2.3490947493298164
7.8500000000000005,-0.49858339234669763,1.1749690874202452,-0.3099107028548305,1.6696851663975258,0.5911516390409518,1.6150426436758918,2.3425360307913885
7.9,-0.5057458871116679,1.1877255003780596,-0.31642314144436495,1.6833144398965443,0.5939907764200639,1.6227050877324893,2.3361421971236567
7.95,-0.5126814568961044,1.1999949213378547,-0.3227841472604035,1.6964981824851482,0.5967824041248272,1.6300254063752941,2.3299171073733893
8.0,-0.5193860597040615,1.2117764218316323,-0.3289862493156663,1.7092464264776974,0.5995220685165414,1.6370167378937956,2.3238667805364797
8.05,-0.525862075264501,1.2230840693307665,-0.33502237362375575,1.7215500644857218,0.6022011246371475,1.6436845036653995,2.3179945778637108
8.1,-0.5321080101796132,1.233922400754266,-0.3408870803219887,1.7334156564512213,0.604818691036764,1.650036985093638,2.312305920092092
8.15,-0.5381226024791175,1.2442951896116288,-0.3465736453589126,1.7448422795186358,0.6073619844768859,1.656084907774347,2.306803420826203
8.200000000000001,-0.5439086796344422,1.2542195823779319,-0.35207738579113684,1.7558273502553676,0.6098314162410068,1.6618353878091758,2.3014895853836337
8.25,-0.54946368543724,1.2636939983273927,-0.3573940400760146,1.766379764026648,0.6122232137612519,1.6672976249467186,2.2963683514485145
8.3,-0.5547889492448053,1.2727309485605136,-0.36251892001861696,1.776494736565057,0.6145293072772269,1.6724812836919993,2.2914403171101188
8.35,-0.5598863291523101,1.281341633264672,-0.3674493634406992,1.786177601386675,0.6167520369765458,1.6773924307450534,2.286707672725617
8.4,-0.5647553784163964,1.2895290675328714,-0.3721828500795632,1.7954329733706158,0.6188878417457572,1.6820391329227402,2.2821724664378205
8.450000000000001,-0.5693979515204114,1.2973048631440232,-0.3767164485479853,1.8042613542468933,0.6209304572160343,1.68643100574989,2.277834212929762
8.5,-0.5738168026453759,1.3046796544991393,-0.3810493209013301,1.8126670168794699,0.6228844242100582,1.6905740609687365,2.2736939297041876
8.55,-0.5780110027919303,1.3116574400647438,-0.38517987417312766,1.8206575185002674,0.624743713508317,1.6944783575309983,2.2697514502818983
8.6,-0.5819853658131195,1.318252579973691,-0.3891073660190883,1.8282332461921542,0.6265078849264968,1.6981501041010705,2.266005346106178
8.65,-0.585740234309463,1.324469824157477,-0.392831922473924,1.835401748633129,0.6281773514017872,1.7015956788384474,2.2624551319409467
8.700000000000001,-0.5892790810666683,1.3303199528404503,-0.3963542411279627,1.842169126577223,0.6297528603842765,1.7048235520130557,2.2590996631241307
8.75,-0.592605033044636,1.3358121911703076,-0.3996751121636816,1.8485418207898923,0.631232177304637,1.7078398420714476,2.2559368622203495
8.8,-0.5957195421809037,1.3409528947654812,-0.40279591170714124,1.8545250432738905,0.6326154053833515,1.7106510316645662,2.252964465173477
8.85,-0.5986313086146964,1.3457616904005139,-0.4057189770426529,1.8601234324675913,0.6339072649265002,1.7132668957862298,2.250179004050646
8.9,-0.6013386728636946,1.350234955197019,-0.4084468446908497,1.8653543416927152,0.6351063224943575,1.7156924362448072,2.2475791279148685
8.950000000000001,-0.6038484478201396,1.354391413429793,-0.4109817837253758,1.8702160600231217,0.6362105211173961,1.7179354465386627,2.245159363424004
9.0,-0.606164229477519,1.3582375454985545,-0.4133272819872541,1.8747211217776831,0.6372237230138679,1.720001700306316,2.242916055373746
9.05,-0.6082917850049446,1.3617852775678971,-0.41548730702379066,1.8788790107246378,0.6381490128645264,1.7219003903320387,2.240844873289856
9.1,-0.6102359881223507,1.3650419425126972,-0.41746729500009533,1.8827033915542735,0.6389917038016961,1.723634265453033,2.238943087226989
9.15,-0.6120025407882218,1.3680204532697957,-0.4192715343874246,1.8861994325171534,0.6397485775087165,1.7252126085032724,2.237204411273418
9.200000000000001,-0.6135982187247451,1.3707313093007791,-0.4209051462771771,1.889379342923429,0.6404233115190112,1.7266418004966995,2.2356230886673916
9.25,-0.6150262919988565,1.373182378824902,-0.42237394069393774,1.8922558262662212,0.6410189518453258,1.7279284210467214,2.2341936849566646
9.3,-0.6162974128891687,1.375390779258087,-0.4236840484083779,1.8948379375432984,0.6415389462709725,1.729079945050395,2.232909195166954
9.35,-0.6174157355644951,1.3773637405706287,-0.4248422320455034,1.8971416958759428,0.6419873871059208,1.7301040572872013,2.2317635598005605
9.4,-0.6183906930358192,1.3791146161583405,-0.4258556169885786,1.8991798960024973,0.6423675113306833,1.7310070712993928,2.2307499139080873
