SilviaXuva/Vision-guided-robot-manipulator/Helpers/Outputs copy/2023-12-09_18h06m43s/red3/Align/Joint Comparison/q_Ref.csv
,q0,q1,q2,q3,q4,q5,q6
0.0,1.5720098756055734e-06,0.037327237142267045,0.0009847852482414154,0.07850905337700675,-0.001308060181662185,0.0426151953287639,0.017349982961576416
0.05,4.371296857837033e-07,0.0373255558461674,0.0009831602071938745,0.07850750183551858,-0.001309829884648217,0.04261750519679588,0.01734906849739081
0.1,-7.43883695118037e-06,0.03731388780216913,0.0009718825682070332,0.07849673427687555,-0.001322111464501604,0.04263353547357649,0.017342722198035957
0.15000000000000002,-2.8610367265460928e-05,0.0372825227191762,0.0009415669400830087,0.07846778980507552,-0.0013551258044751755,0.04267662675448848,0.01732566259438753
0.2,-6.94302358777154e-05,0.03722204912337194,0.0008831167506753049,0.07841198328006813,-0.0014187792579590023,0.04275970910135006,0.017292770745325668
0.25,-0.0001360515729889775,0.03712335130906304,0.0007877212997556334,0.0783209025039186,-0.0015226668579687921,0.04289530623153284,0.017239088579285942
0.30000000000000004,-0.00023442992257055018,0.036977606289523686,0.0006468528118807372,0.07818640540697151,-0.001676075526634285,0.04309553970707989,0.017159817235810313
0.35000000000000003,-0.00037032530055389846,0.03677628074783966,0.00045226348925921295,0.07800061723401447,-0.0018879872846876478,0.043372133123823715,0.017050315407098133
0.4,-0.0005493042530205429,0.03651112798775239,0.00019598256461833324,0.07775592773044199,-0.0021670824609518716,0.04373641630050428,0.016906097679557103
0.45,-0.0007767419143919524,0.03617418488450308,-0.00012968664592913,0.07744498832841912,-0.0025217429018291656,0.044199329467887,0.01672283287535425
0.5,-0.0010578240656194376,0.03575776883567676,-0.0005321696900180851,0.0770607093330453,-0.0029600551807893536,0.04477142745788076,0.016496342393966912
0.55,-0.0013975491923740424,0.0352544747120464,-0.0010186239261642939,0.07659625710851807,-0.0034898138078582686,0.045462883892655896,0.016222598553733696
0.6000000000000001,-0.0018007305432364393,0.034657171808416994,-0.0015959414708975536,0.07604505126429686,-0.004118524439106149,0.046283495373762244,0.015897722933405464
0.65,-0.0022719981878868193,0.033959000794469646,-0.002270752145894869,0.07540076184126669,-0.004853407086136033,0.0472426856712471,0.015517984713696318
0.7000000000000001,-0.0028158010752947905,0.033153370665605635,-0.0030494264251136405,0.074657306497902,-0.005701399325572157,0.04834950991277325,0.015079799018834546
0.75,-0.003436409091909263,0.03223395569379057,-0.003938078381924824,0.07380884769643034,-0.006669159508548346,0.04961265877273699,0.01457972525811363
0.8,-0.004137915119848352,0.031194692378398392,-0.004942568636246129,0.07284978988899617,-0.007763069970196419,0.05104046266138608,0.01401446546744319
0.8500000000000001,-0.004924237095089259,0.030029776397055542,-0.006068507301675176,0.07177477670382461,-0.008989240239134565,0.05264089591393782,0.013380862650899987
0.9,-0.005799120065658175,0.028733659556484995,-0.007321256932622687,0.0705786881313852,-0.010353510246955766,0.05442158097969699,0.012675899122278879
0.9500000000000001,-0.00676613824982017,0.02730104674335037,-0.008705935471445665,0.0692566377105556,-0.01186145353771617,0.0563897926111739,0.011896694846643803
1.0,-0.007828697094269085,0.025726892875100018,-0.010227419195580558,0.06780396971478543,-0.013518380477423491,0.058552462053202387,0.011040505781878748
1.05,-0.008990035332317419,0.024006399850811114,-0.011890345664676444,0.06621625633826003,-0.01532934146352541,0.060916181232057796,0.010104722220238735
1.1,-0.010253227042086244,0.02213501350203373,-0.013699116667728217,0.0644892948820641,-0.017299130134397978,0.06348720694457502,0.009086867129900781
1.1500000000000001,-0.011621183704695066,0.02010842054363494,-0.015657901170209744,0.0626191049403456,-0.019432286578833988,0.0662714650472665,0.007984594496514891
1.2000000000000002,-0.013096656262451748,0.017922545524642914,-0.01777063826120706,0.06060192558647942,-0.02173310054553139,0.06927455464544018,0.006795687664755011
1.25,-0.014682237177042371,0.015573547779090986,-0.020041040100551532,0.05843421255923116,-0.024205614652581663,0.07250175228231759,0.005518057679870035
1.3,-0.016380362487721175,0.013057818376861735,-0.02247259486595307,0.05611263544892087,-0.026853627596958272,0.07595801612815181,0.004149741629234727
1.35,-0.0181933138695004,0.010371977074531115,-0.02506856970013326,0.053634074883586846,-0.029680697364004985,0.0796479901693455,0.0026889009839007553
1.4000000000000001,-0.020123220691340215,0.007512869266212509,-0.02783201365795855,0.05099561971514937,-0.032690144436924314,0.08357600839756885,0.001133819940147631
1.4500000000000002,-0.022172062074338583,0.004477562934400839,-0.03076576065357345,0.04819456420557445,-0.03588505500626588,0.08774609899887764,-0.0005170962389662997
1.5,-0.024341668949921166,0.0012633456008166524,-0.033872432407533674,0.04522840521303761,-0.039268284179414845,0.09216198854283122,-0.0022653228820528823
1.55,-0.026633726118031262,-0.0021322787227498544,-0.037154441393939405,0.04209483937808757,-0.04284245919008032,0.09682710617161058,-0.004112217567843222
1.6,-0.029049774305319617,-0.005711592583594639,-0.040613993787568345,0.03879176030981011,-0.046609982607783686,0.10174458778913623,-0.0060590217836366325
1.6500000000000001,-0.03159121222333435,-0.009476668137255756,-0.04425309241100896,0.035317255771991796,-0.05057303554734703,0.10691728025018629,-0.008106862583749704
1.7000000000000002,-0.03425929862671089,-0.01342937019666935,-0.04807353968179367,0.031669604869283656,-0.05473358087838159,0.11234774554951453,-0.010256754247965339
1.75,-0.037055154371361795,-0.017571359281325444,-0.05207694055953199,0.027847275233365054,-0.05909336643477606,0.11803826501096824,-0.012509599939981748
1.8,-0.03997976447266675,-0.02190409466642399,-0.05626470549304379,0.023848920209107317,-0.06365392822418509,0.12399084347660648,-0.014866193365861514
1.85,-0.0430339801636623,-0.02642883743203063,-0.06063805336749231,0.01967337604073765,-0.06841659363751754,0.13020721349581774,-0.01732722043248057
1.9000000000000001,-0.04621852095323191,-0.03114665351223271,-0.06519801445151752,0.015319659058002769,-0.07338248465842503,0.13668883951443828,-0.019893260905977247
1.9500000000000002,-0.04953397668429573,-0.03605841674429515,-0.06994543334436915,0.010786962862332716,-0.07855252107279023,0.1434369220638699,-0.02256479007020129
2.0,-0.05298080959200061,-0.04116481191781639,-0.07488097192303998,0.00607465551300454,-0.08392742367821532,0.15045240195019816,-0.025342180385162942
2.0500000000000003,-0.05655935636190984,-0.04646633782388421,-0.08000511228939891,0.0011822767133062295,-0.08950771749351026,0.15773596444331006,-0.02822570314548184
2.1,-0.0602698301881932,-0.05196331030423182,-0.08531815971732429,-0.003890465003299773,-0.09529373496818141,0.16528804346601245,-0.031215530138836184
2.15,-0.06411232283181674,-0.05765586530039356,-0.09082024559983688,-0.009143695087012585,-0.10128561919191971,0.1731088257831497,-0.034311735304411665
2.2,-0.06808680667873278,-0.06354396190286103,-0.09651133039623332,-0.014577375785529381,-0.10748332710408927,0.18119825519072205,-0.037514296391350566
2.25,-0.07219313679806959,-0.06962738540023869,-0.10239120657921891,-0.02019130895788125,-0.11388663270321542,0.18955603670500307,-0.04082309661720064
2.3000000000000003,-0.0764310530003216,-0.07590575032840018,-0.10845950158204123,-0.02598513888826992,-0.12049513025647363,0.19818164075165828,-0.04423792632636437
2.35,-0.080800181895539,-0.0823785035196438,-0.11471568074562292,-0.031958355099903524,-0.12730823750917736,0.2070743073548627,-0.04775848464854773
2.4000000000000004,-0.0853000389515179,-0.08904492715184895,-0.12115905026569529,-0.038110295168833366,-0.13432519889426703,0.21623305032641935,-0.0513843811572095
2.45,-0.08993003055198985,-0.09590414179763129,-0.1277887601399309,-0.04444014753778949,-0.14154508874179766,0.2256566614548764,-0.05511513752800995
2.5,-0.09468945605481219,-0.10295510947349948,-0.13460380711507736,-0.05094695433001761,-0.14896681448842808,0.23534371469464618,-0.05895018919726017
2.5500000000000003,-0.09957750985015762,-0.11019663668901056,-0.1416030376340902,-0.057629614163115045,-0.15658911988690888,0.2452925703551227,-0.062888887020371
2.6,-0.10459328341870414,-0.11762737749592594,-0.14878515078326596,-0.0644868849628667,-0.16441058821557067,0.2555013792897993,-0.06693049893030188
2.6500000000000004,-0.10973576738982509,-0.12524583653736746,-0.15614870123937558,-0.07151738677708183,-0.17242964548781292,0.26596808708538744,-0.07107421159601017
2.7,-0.11500385359977891,-0.1330503720969732,-0.16369210221679747,-0.07871960458942995,-0.18064456366159207,0.2766904382509342,-0.07531913208089999
2.75,-0.12039633714989904,-0.1410391991480534,-0.1714136284146507,-0.08609189113327714,-0.18905346384890984,0.2876659804069402,-0.07966428950127125
2.8000000000000003,-0.12591191846478383,-0.14921039240274628,-0.17931141896392808,-0.09363246970552222,-0.1976543195253018,0.2988920684744779,-0.08410863668476867
2.85,-0.13154920535048648,-0.1575618893611742,-0.18738348037462957,-0.10133943698043327,-0.2064449597393258,0.31036586886430956,-0.08865105182883094
2.9000000000000004,-0.13730671505270492,-0.16609149336059942,-0.19562768948289533,-0.10921076582348352,-0.21542307232205032,0.32208436366600524,-0.09329034015913965
2.95,-0.14318287631497162,-0.1747968766245799,-0.20404179639813882,-0.1172443081051878,-0.2245862070965427,0.3340443548370605,-0.09802523558806821
3.0,-0.1491760314368435,-0.18367558331212522,-0.21262342745017992,-0.1254377975149386,-0.2339317790873576,0.3462424683920148,-0.10285440237313097
3.0500000000000003,-0.15528443833209213,-0.19272503256685314,-0.22137008813637876,-0.13378885237484295,-0.24345707173002598,0.3586751585915696,-0.10777643677543253
3.1,-0.16150627258689293,-0.20194252156614415,-0.23027916606876758,-0.1422949784535574,-0.25315924008054214,0.37133871213170555,-0.11278986871811605
3.1500000000000004,-0.16783962951801598,-0.21132522857029898,-0.23934793392118547,-0.15095357178012572,-0.2630353140248538,0.3842292523328018,-0.11789316344481315
3.2,-0.17428252623101495,-0.2208702159716931,-0.24857355237641016,-0.15976192145781393,-0.273082201488349,0.3973427433287525,-0.12308472317809213
3.25,-0.1808329036784177,-0.23057443334393357,-0.25795307307329207,-0.16871721247794721,-0.2832966916453454,0.41067499425608606,-0.12836288877790755
3.3000000000000003,-0.18748862871791608,-0.24043472049101483,-0.26748344155388754,-0.17781652853374635,-0.2936754581285787,0.4242216634430828,-0.13372594140004915
3.35,-0.19424749617055548,-0.250447810496474,-0.27716150021059127,-0.18705685483416318,-0.30421506223869027,0.43797826259889255,-0.1391721041545906
3.4000000000000004,-0.20110723087892488,-0.2606103327725474,-0.28698399123326995,-0.19643508091771728,-0.31491195615371625,0.45194016100265294,-0.1446995437643388
3.45,-0.20806548976534708,-0.27091881610932655,-0.29694755955639573,-0.20594800346633274,-0.325762486138576,0.4661025896926077,-0.15030637222328294
3.5,-0.2151198638900678,-0.28136969172391296,-0.3070487558061786,-0.21559232911917292,-0.3367628957545593,0.4804606456552235,-0.15599064845504304
3.5500000000000003,-0.22226788050944685,-0.2919592963095763,-0.31728403924770077,-0.22536467728647885,-0.3479093290688173,0.4950092960143106,-0.16175037997131997
3.6,-0.22950700513414635,-0.3026838750849073,-0.3276497807320482,-0.23526158296340322,-0.35919783386384746,0.5097433822201369,-0.16758352453034314
3.6500000000000004,-0.2368346435873223,-0.31353958484297667,-0.33814226564344574,-0.24527949954384837,-0.3706243648469852,0.5246576242385501,-0.17348799179532087
3.7,-0.244248144062813,-0.3245224970004883,-0.3487576968463881,-0.25541480163430114,-0.3821847868598896,0.5397466247400919,-0.17946164499288816
3.75,-0.2517447991833303,-0.33562860064693767,-0.35949219763277535,-0.2656637878676707,-0.39387487808803445,0.5550048732891196,-0.18550230257155695
3.8000000000000003,-0.2593218480586485,-0.34685380559376594,-0.37034181466904426,-0.27602268371712324,-0.4056903332701944,0.5704267505329212,-0.19160773986016416
3.85,-0.2669764783437944,-0.3581939454235164,-0.38130252094330225,-0.28648764430991897,-0.417626766907934,0.5860065323908349,-0.19777569072632104
3.9000000000000004,-0.27470582829723766,-0.3696447805389907,-0.39237021871246064,-0.2970547572412484,-0.429679716475097,0.6017383942433666,-0.20400384923486245
3.95,-0.2825069888390805,-0.38120200121240466,-0.4035407424493677,-0.30772004538806863,-0.44184464562729375,0.6176164151213086,-0.21028987130629567
4.0,-0.2903770056092471,-0.3928612306345438,-0.4148098617899417,-0.3184794697229391,-0.45411694741138986,0.6336345818948567,-0.21663137637524923
4.05,-0.29831288102567405,-0.4046180279639193,-0.42617328448030384,-0.32932893212785797,-0.46649194747499434,0.6497867934627278,-0.22302594904892223
4.1000000000000005,-0.30631157634250017,-0.41646789137592466,-0.43762665932391237,-0.3402642782080991,-0.4789649072759489,0.6660668649412801,-0.22947114076553332
4.15,-0.31437001370825646,-0.4284062611119909,-0.44916557912869515,-0.3512813001060476,-0.4915310272918156,0.6824685318536292,-0.23596447145276978
4.2,-0.3224850782240553,-0.440428522528742,-0.460785583654182,-0.3623757393150355,-0.5041854502293647,0.6989854543187658,-0.24250343118623602
4.25,-0.33065362000178145,-0.4525300091471525,-0.47248216255863995,-0.37354328949317983,-0.5169232642340646,0.7156112212406756,-0.24908548184790352
4.3,-0.3388724562222811,-0.4647060057017016,-0.4842507583462041,-0.38477959927721683,-0.5297395060995692,0.7323393544974555,-0.2557080587845591
4.3500000000000005,-0.3471383731935524,-0.47695175118953037,-0.4960867693140129,-0.39608027509633986,-0.5426291644772061,0.749163313130433,-0.26236857246625445
4.4,-0.3554481284089342,-0.48926244191959634,-0.5079855524993391,-0.4074408839860338,-0.5555871830854654,0.7660764975332824,-0.26906441014475424
4.45,-0.3637984526052975,-0.5016332345618308,-0.5199424266267252,-0.41885695640191334,-0.5686084639194884,0.783072253641145,-0.2757929375119866
4.5,-0.3721860518212343,-0.5140592491962941,-0.5319526750551152,-0.43032398903355795,-0.5816878704605555,0.8001438771197454,-0.28255150035849097
4.55,-0.38060760945524763,-0.5265355723623308,-0.5440115487249879,-0.441837447618348,-0.5948202308855741,0.81728461755451,-0.2893374262318674
4.6000000000000005,-0.38905978832394233,-0.5390572601077285,-0.5561142691054912,-0.45339276975530296,-0.6080003412765697,0.834487682639687,-0.2961480260952265
4.65,-0.3975392327202131,-0.5516193410378685,-0.568256031141573,-0.4649853677189135,-0.6212229688301694,0.8517462423674593,-0.30298059598563626
4.7,-0.40604257047143627,-0.5642168193648872,-0.5804320062011169,-0.4766106312729831,-0.6344828550670952,0.8690534332170687,-0.30983241867257383
4.75,-0.41456641499765856,-0.5768446779568284,-0.5926373450220739,-0.4882639304844594,-0.6477747190416494,0.8864023623439288,-0.3167007653163722
4.800000000000001,-0.4231073673697878,-0.5894978813868015,-0.6048671806595964,-0.49994061853727423,-0.6610932605512049,0.9037861117687473,-0.323582897126671
4.8500000000000005,-0.4316620183677815,-0.6021713789821349,-0.6171166314331695,-0.5116360345461767,-0.6744331633456908,0.9211977425666396,-0.33047606702086396
4.9,-0.4402269505388383,-0.6148601078735344,-0.6293808038737471,-0.5233455063705718,-0.6877890983370845,0.9386302990562504,-0.3373775212825491
4.95,-0.44879874025558714,-0.6275589960442378,-0.6416547956708828,-0.5350643534283559,-0.7011557268088969,0.9560768129888704,-0.3442845012199776
5.0,-0.45737395977427675,-0.6402629653791712,-0.6539336986198643,-0.5467878895097525,-0.7145277036256634,0.9735303077375539,-0.35119424482450223
5.050000000000001,-0.4659491792929668,-0.6529669347141052,-0.6662126015688464,-0.5585114255911497,-0.7278996804424304,0.9909838024862382,-0.3581039884290272
5.1000000000000005,-0.4745209690097154,-0.6656658228848086,-0.6784865933659822,-0.5702302726489338,-0.7412663089142429,1.008430316418858,-0.3650109683664555
5.15,-0.483085901180772,-0.6783545517762076,-0.6907507658065593,-0.5819397444733285,-0.754622243905636,1.0258628729084682,-0.37191242262814056
5.2,-0.4916405521787658,-0.691028049371541,-0.7030002165801325,-0.5936351604822312,-0.7679621467001222,1.0432745037063607,-0.3788055925223335
5.25,-0.5001815045508949,-0.7036812528015138,-0.7152300522176547,-0.6053118485350456,-0.7812806882096773,1.0606582531311788,-0.38568772433263226
5.300000000000001,-0.5087053490771171,-0.7163091113934551,-0.7274353910386117,-0.6169651477465219,-0.7945725521842315,1.078007182258039,-0.3925560709764306
5.3500000000000005,-0.5172086868283403,-0.7289065897204738,-0.7396113660981557,-0.6285904113005915,-0.8078324384211575,1.0953143731076485,-0.3994078936633681
5.4,-0.5256881312246112,-0.7414686706506142,-0.7517531281342376,-0.6401830092642024,-0.8210550659747574,1.1125729328354208,-0.406240463553778
5.45,-0.5341403100933056,-0.7539903583960111,-0.7638558485147404,-0.6517383314011569,-0.8342351763657524,1.1297759979205972,-0.4130510634171368
5.5,-0.5425618677273195,-0.7664666815620488,-0.7759147221846138,-0.6632517899859476,-0.8473675367907719,1.1469167383553631,-0.41983698929051383
5.550000000000001,-0.5509494669432562,-0.7788926961965119,-0.7879249706130035,-0.6747188226175922,-0.8604469433318386,1.1639883618339633,-0.426595552137018
5.6000000000000005,-0.5592997911396195,-0.7912634888387464,-0.7998818447403897,-0.6861348950334717,-0.8734682241658617,1.1809841179418257,-0.4333240795042504
5.65,-0.5676095463550015,-0.8035741795688127,-0.8117806279257163,-0.6974955039231658,-0.8864262427741213,1.1978973023446757,-0.44001991718275046
5.7,-0.5758754633262723,-0.8158199250566407,-0.8236166388935244,-0.7087961797422883,-0.8993159011517576,1.214721260977652,-0.44668043086444537
5.75,-0.5840942995467721,-0.8279959216111901,-0.8353852346810889,-0.7200324895263254,-0.9121321430172623,1.2314493942344322,-0.45330300780110105
5.800000000000001,-0.5922628413244985,-0.8400974082296007,-0.8470818135855468,-0.7312000397044698,-0.9248699570219624,1.248075161156342,-0.4598850584627685
5.8500000000000005,-0.6003779058402972,-0.8521196696463517,-0.8587018181110336,-0.7422944789134578,-0.9375243799595114,1.2645920836214786,-0.4664240181962348
5.9,-0.6084363432060533,-0.8640580393824179,-0.8702407379158162,-0.7533115008114061,-0.9500904999753782,1.2809937505338278,-0.47291734888347114
5.95,-0.6164350385228793,-0.8759079027944229,-0.8816941127594247,-0.7642468468916471,-0.9625634597763323,1.2972738220123798,-0.47936254060008204
6.0,-0.6243709139393061,-0.8876647001237983,-0.8930575354497865,-0.7750963092965657,-0.9749384598399369,1.313426033580251,-0.48575711327375504
6.050000000000001,-0.6322409307094734,-0.8993239295459382,-0.9043266547903613,-0.785855733631437,-0.9872107616240337,1.3294442003537998,-0.49209861834270907
6.1000000000000005,-0.6400420912513158,-0.9108811502193518,-0.9154971785272682,-0.7965210217782568,-0.9993756907762301,1.345322221231741,-0.4983846404141421
6.15,-0.647771441204759,-0.9223319853348257,-0.9265648762964265,-0.807088134709586,-1.0114286403433925,1.3610540830842728,-0.5046127989226833
6.2,-0.6554260714899052,-0.9336721251645765,-0.9375255825706843,-0.8175530953023822,-1.0233650739811326,1.3766338649421868,-0.5107807497888406
6.25,-0.6630031203652232,-0.9448973301114046,-0.9483751996069533,-0.8279119911518344,-1.0351805291632925,1.3920557421859883,-0.5168861870774476
6.300000000000001,-0.6704997754857405,-0.9560034337578541,-0.9591097003933403,-0.8381609773852039,-1.0468706203914373,1.4073139907350158,-0.5229268446561163
6.3500000000000005,-0.6779132759612314,-0.9669863459153658,-0.9697251315962833,-0.8482962794756573,-1.058431042404342,1.4224029912365581,-0.5289004978536839
6.4,-0.6852409144144075,-0.9778420556734355,-0.9802176165076809,-0.8583141960561024,-1.06985757338748,1.437317233254972,-0.5348049651186618
6.45,-0.6924800390391067,-0.9885666344487662,-0.990583357992028,-0.8682111017330263,-1.0811460781825097,1.4520513194607976,-0.5406381096776846
6.5,-0.6996280556584854,-0.9991562390344289,-1.0008186414335496,-0.8779834499003317,-1.0922925114967668,1.4665999698198835,-0.5463978411939611
6.550000000000001,-0.7066824297832062,-1.0096071146490155,-1.0109198376833326,-0.8876277755531722,-1.1032929211127502,1.4809580257824997,-0.5520821174257213
6.6000000000000005,-0.7136406886696288,-1.019915597985795,-1.0208834060064587,-0.8971406981017879,-1.1141434510976107,1.4951204544724552,-0.5576889458846657
6.65,-0.7205004233779984,-1.0300781202618685,-1.0307058970291378,-0.9065189241853425,-1.1248403450126372,1.5090823528762158,-0.5632163854944142
6.7,-0.7272592908306376,-1.0400912102673279,-1.0403839556858407,-0.9157592504857588,-1.1353799491227479,1.522838952032025,-0.5686625482489555
6.75,-0.7339150158701357,-1.0499514974144089,-1.0499143241664364,-0.9248585665415581,-1.1457587156059814,1.5363856212190214,-0.5740256008710969
6.800000000000001,-0.7404653933175384,-1.059655714786649,-1.0592938448633178,-0.933813857561691,-1.1559732057629772,1.5497178721463545,-0.5793037664709121
6.8500000000000005,-0.7469082900305379,-1.0692007021880439,-1.0685194633185433,-0.94262220723938,-1.1660200932264733,1.5628313631423065,-0.5844953262041915
6.9,-0.753241646961661,-1.0785834091921989,-1.0775882311709615,-0.9512808005659488,-1.1758961671707855,1.5757219033434036,-0.5895986209308887
6.95,-0.7594634812164618,-1.08780089819149,-1.08649730910335,-0.959786926644663,-1.1855983355213011,1.5883854568835394,-0.5946120528735723
7.0,-0.7655718881117098,-1.0968503474462163,-1.095243969789548,-0.9681379815045659,-1.1951236281639686,1.6008181470830927,-0.5995340872758731
7.050000000000001,-0.7715650432335815,-1.1057290541337619,-1.1038256008415892,-0.9763314709143172,-1.2044692001547836,1.6130162606380465,-0.6043632540609362
7.1000000000000005,-0.7774412044958491,-1.1144344373977435,-1.1122397077568336,-0.9843650131960222,-1.2136323349292766,1.624976251809103,-0.6090981494898652
7.15,-0.7831987141980674,-1.1229640413971684,-1.1204839168650993,-0.9922363420390723,-1.2226104475120012,1.6366947466107984,-0.613737437820174
7.2,-0.78883600108377,-1.1313155383555962,-1.1285559782758006,-0.9999433093139833,-1.2314010877260255,1.6481685470006306,-0.618279852964236
7.25,-0.7943515823986543,-1.1394867316102886,-1.1364537688250778,-1.007483887886228,-1.240001943402417,1.6593946350681674,-0.6227242001477332
7.300000000000001,-0.7997440659487752,-1.14747555866137,-1.1441752950229316,-1.0148561744300757,-1.2484108435897354,1.6703701772241744,-0.6270693575681051
7.3500000000000005,-0.8050121521587287,-1.1552800942209753,-1.1517186960003534,-1.0220583922424236,-1.2566257617635141,1.6810925283897211,-0.6313142780529948
7.4,-0.8101546361298495,-1.1628985532624159,-1.1590822464564623,-1.0290888940566387,-1.2646448190357562,1.691559236185308,-0.6354579907187026
7.45,-0.8151704096983957,-1.1703292940693317,-1.166264359605638,-1.0359461648563904,-1.2724662873644177,1.7017680451199853,-0.6394996026286334
7.5,-0.8200584634937415,-1.1775708212848432,-1.173263590124651,-1.042628824689488,-1.2800885927628989,1.7117169007804618,-0.6434383004517442
7.550000000000001,-0.8248178889965643,-1.1846217889607114,-1.1800786370997982,-1.049135631481717,-1.2875103185095302,1.7214039540202328,-0.647273352120995
7.6000000000000005,-0.829447880597036,-1.1914810036064938,-1.1867083469740338,-1.0554654838506732,-1.2947302083570604,1.7308275651486897,-0.6510041084917956
7.65,-0.8339477376530148,-1.198147427238699,-1.193151716494106,-1.0616174239196021,-1.3017471697421494,1.7399863081202454,-0.6546300050004572
7.7,-0.838316866548232,-1.2046201804299423,-1.1994078956576872,-1.0675906401312354,-1.3085602769948532,1.7488789747234497,-0.6581505633226402
7.75,-0.8425547827504845,-1.2108985453581043,-1.2054761906605098,-1.073384470061625,-1.3151687745481118,1.7575045787701056,-0.6615653930318042
7.800000000000001,-0.8466611128698205,-1.2169819688554808,-1.2113560668434942,-1.0789984032339757,-1.3215720801472364,1.7658623602843857,-0.6648741932576537
7.8500000000000005,-0.8506355967167363,-1.2228700654579483,-1.2170471516398904,-1.0844320839324924,-1.3277697880594062,1.7739517896919574,-0.6680767543445926
7.9,-0.85447808936036,-1.22856262045411,-1.2225492375224032,-1.0896853140162057,-1.3337616722831447,1.7817725720090953,-0.6711729595101682
7.95,-0.858188563186644,-1.234059592934459,-1.22786228495033,-1.0947580557328123,-1.3395476897578171,1.7893246510317986,-0.674162786503523
8.0,-0.8617671099565538,-1.2393611188405262,-1.232986425316689,-1.0996504345325102,-1.3451279835731118,1.796608213524911,-0.6770463092638422
8.05,-0.8652139428642585,-1.2444675140140475,-1.2379219638953598,-1.1043627418818385,-1.3505028861785373,1.8036236934112395,-0.6798236995788037
8.1,-0.868529398595322,-1.2493792772461103,-1.242669382788211,-1.1088954380775087,-1.355672922592902,1.8103717759606712,-0.6824952287430276
8.15,-0.8717139393848912,-1.2540970933263111,-1.2472293438722346,-1.1132491550602426,-1.3606388136138081,1.816853401979289,-0.6850612692165235
8.200000000000001,-0.8747681550758865,-1.258621836091917,-1.2516026917466834,-1.117424699228612,-1.3654014790271403,1.8230697719985007,-0.6875222962831425
8.25,-0.8776927651771922,-1.2629545714770178,-1.255790456680197,-1.1214230542528711,-1.3699620408165512,1.8290223504641414,-0.6898788897090232
8.3,-0.8804886209218434,-1.2670965605616742,-1.2597938575579355,-1.12524538388879,-1.374321826372946,1.8347128699255935,-0.6921317354010397
8.35,-0.8831567073252192,-1.2710492626210863,-1.263614304828719,-1.1288930347914972,-1.3784823717039782,1.8401433352249221,-0.6942816270652549
8.4,-0.8856981452432331,-1.2748143381747468,-1.2672534034521583,-1.132367539329315,-1.3824454246435416,1.8453160276859701,-0.6963294678653673
8.450000000000001,-0.8881141934305236,-1.278393652035594,-1.2707129558457901,-1.135670618397594,-1.3862129480612473,1.8502335093035003,-0.6982762720811622
8.5,-0.8904062505986331,-1.2817892763591596,-1.2739949648321953,-1.1388041842325436,-1.389787123071912,1.8548986269322776,-0.7001231667669521
8.55,-0.8925758574742151,-1.2850034936927426,-1.277101636586154,-1.1417703432250796,-1.3931703522450607,1.8593145164762295,-0.7018713934100382
8.6,-0.8946246988572133,-1.2880388000245546,-1.280035383581769,-1.1445713987346546,-1.3963652628144014,1.863484607077538,-0.7035223095891522
8.65,-0.8965546056790524,-1.290897907832872,-1.2827988275395934,-1.1472098539030917,-1.3993747098873206,1.8674126253057604,-0.7050773906329049
8.700000000000001,-0.8983675570608329,-1.2935837491352045,-1.2853948023737762,-1.1496884144684272,-1.4022017796543687,1.8711025993469566,-0.7065382312782401
8.75,-0.9000656823715115,-1.2960994785374336,-1.2878263571391764,-1.152009991578737,-1.4048497925987447,1.8745588631927916,-0.7079065473288745
8.8,-0.9016512632861023,-1.298448476282985,-1.2900967589785204,-1.154177704605985,-1.407322306705794,1.8777860608296686,-0.7091841773137592
8.85,-0.9031267358438584,-1.3006343513019767,-1.2922094960695183,-1.1561948839598504,-1.4096231206724916,1.8807891504278402,-0.7103730841455195
8.9,-0.9044946925064687,-1.3026609442603778,-1.2941682805720007,-1.1580650739015712,-1.41175627711693,1.8835734085305365,-0.7114753567789069
8.950000000000001,-0.905757884216237,-1.3045323306091545,-1.2959770515750515,-1.1597920353577662,-1.4137260657878004,1.8861444342430516,-0.712493211869244
9.0,-0.9069192224542858,-1.3062528236334428,-1.2976399780441494,-1.1613797487342927,-1.4155370267739043,1.8885081534219084,-0.7134289954308843
9.05,-0.9079817812987352,-1.3078269775016949,-1.2991614617682838,-1.1628324167300632,-1.4171939537136116,1.8906708228639357,-0.7142851844956492
9.1,-0.9089487994828949,-1.3092595903148265,-1.3005461403071041,-1.1641544671508903,-1.4187018970043692,1.8926390344954092,-0.7150643887712834
9.15,-0.9098236824534652,-1.3105557071553986,-1.3017988899380533,-1.1653505557233306,-1.4200661670121923,1.8944197195611723,-0.7157693522999047
9.200000000000001,-0.9106100044287048,-1.3117206231367406,-1.3029248286034814,-1.1664255689085012,-1.421292337281129,1.8960201528137206,-0.7164029551164474
9.25,-0.9113115104566442,-1.3127598864521333,-1.303929318857803,-1.1673846267159371,-1.4223862477427778,1.8974479567023708,-0.7169682149071183
9.3,-0.9119321184732585,-1.3136793014239467,-1.3048179708146135,-1.1682330855174061,-1.423354007925753,1.898711105562334,-0.7174682886678385
