SilviaXuva/Vision-guided-robot-manipulator/Helpers/Outputs copy/2023-12-09_18h06m43s/green7/Place/Joint Comparison/q_dot_dot_Ref.csv
,q0,q1,q2,q3,q4,q5,q6
0.0,0.0,0.0,0.0,0.0,0.0,0.0,0.0
0.05,-0.002573810844945466,0.00754767828850336,0.004118242135011418,0.0016110010817750491,0.0007660551137468641,0.008541691651118694,0.007304457607848277
0.1,-0.0050700193528574,0.014867788387403604,0.008112316165449628,0.003173429266612157,0.0015090130883857824,0.016825844860495112,0.01438868031294736
0.15000000000000002,-0.007489409385726042,0.02196262896528258,0.011983476314593147,0.00468777518983393,0.0022291072283521897,0.024855061026530706,0.021254892710274517
0.2,-0.009832764805541626,0.02883449869072214,0.01573297680572049,0.006154529486762971,0.0029265708380815177,0.032631941547626886,0.027905319394807
0.25,-0.01210086947429439,0.03548569623230413,0.019362071862110176,0.007574182792721889,0.003601637222009202,0.040159087822185115,0.03434218496152209
0.30000000000000004,-0.014294507253974577,0.04191852025861041,0.02287201570704073,0.008947225743033287,0.004254539684570676,0.047439101248606834,0.04056771400539704
0.35000000000000003,-0.016414462006572417,0.04813526943822282,0.026264062563790654,0.01027414897301977,0.004885511530201373,0.05447458322529344,0.04658413112140912
0.4,-0.01846151759407815,0.054138242439723205,0.029539466655638467,0.011555443118003945,0.005494786063336727,0.0612681351506464,0.05239366090453559
0.45,-0.020436457878482018,0.05992973793169342,0.0326994822058627,0.012791598813308418,0.006082596588412171,0.06782235842306715,0.05799852794975372
0.5,-0.02234006672177426,0.06551205458271532,0.035745363437741866,0.013983106694255794,0.006649176409863142,0.07413985444095714,0.06340095685204078
0.55,-0.02417312798594511,0.07088749106137077,0.03867836457455448,0.01513045739616868,0.007194758832125071,0.08022322460271779,0.06860317220637402
0.6000000000000001,-0.025936425532984798,0.07605834603624158,0.04149973983957905,0.016234141554369676,0.007719577159633392,0.08607507030675053,0.07360739860773072
0.65,-0.02763074322488357,0.08102691817590961,0.044210743456094104,0.01729464980418139,0.008223864696823537,0.0916979929514568,0.07841586065108812
0.7000000000000001,-0.029256864923631665,0.08579550614895673,0.04681262964737815,0.01831247278092643,0.008707854748130945,0.09709459393523805,0.0830307829314235
0.75,-0.030815574491219317,0.09036640862396478,0.04930665263670972,0.0192881011199274,0.009171780617991045,0.1022674746564957,0.08745439004371412
0.8,-0.03230765578963676,0.09474192426951561,0.05169406664736733,0.020222025456506906,0.009615875610839271,0.1072192365136312,0.09168890658293728
0.8500000000000001,-0.033733892680874254,0.09892435175419106,0.05397612590262948,0.021114736425987553,0.01004037303111106,0.111952480905046,0.09573655714407021
0.9,-0.035095069026922,0.102915989746573,0.05615408462577469,0.02196672466369194,0.010445506183241844,0.11646980922914149,0.09959956632209016
0.9500000000000001,-0.036391968689770265,0.10671913691524326,0.058229197040081504,0.022778480804942686,0.010831508371667058,0.12077382288431919,0.10328015871197442
1.0,-0.03762537553140928,0.1103360919287837,0.0602027173688284,0.023550495485062387,0.011198612900822134,0.12486712326898043,0.10678055890870025
1.05,-0.03879607341382927,0.11376915345577618,0.062075899835293935,0.024283259339373652,0.011547053075142507,0.12875231178152674,0.11010299150724492
1.1,-0.03990484619902049,0.11702062016480251,0.06384999866275659,0.024977263003199086,0.011877062199063608,0.13243198982035953,0.11324968110258568
1.1500000000000001,-0.04095247774897317,0.1200927907244446,0.06552626807449491,0.025632997111861292,0.012188873577020875,0.1359087587838802,0.11622285228969981
1.2000000000000002,-0.041939751925677546,0.12298796380328424,0.0671059622937874,0.02625095230068288,0.01248272051344974,0.13918522007049022,0.11902472966356456
1.25,-0.042867452591123845,0.1257084380699033,0.06859033554391257,0.026831619204986445,0.012758836312785635,0.14226397507859098,0.12165753781915718
1.3,-0.043736363607302334,0.12825651219288367,0.06998064204814895,0.027375488460094605,0.013017454279463997,0.145147625206584,0.12412350135145499
1.35,-0.04454726883620323,0.13063448484080714,0.07127813602977506,0.027883050701329962,0.013258807717920255,0.14783877185287067,0.1264248448554352
1.4000000000000001,-0.04530095213981677,0.1328446546822556,0.0724840717120694,0.028354796564015117,0.01348312993258985,0.15034001641585246,0.12856379292607512
1.4500000000000002,-0.0459981973801332,0.13488932038581086,0.0735997033183105,0.028791216683472683,0.01369065422790821,0.15265396029393075,0.13054257015835197
1.5,-0.04663978841914274,0.1367707806200548,0.07462628507177688,0.02919280169502525,0.01388161390831077,0.154783204885507,0.13236340114724301
1.55,-0.047226509118835656,0.13849133405356925,0.07556507119574704,0.029560042233995443,0.014056242278232964,0.15673035158898266,0.13402851048772557
1.6,-0.04775914334120217,0.14005327935493614,0.07641731591349953,0.02989342893570586,0.014214772642110227,0.15849800180275916,0.13554012277477687
1.6500000000000001,-0.048238474948232524,0.14145891519273718,0.07718427344831282,0.030193452435479103,0.014357438304377993,0.16008875692523794,0.13690046260337416
1.7000000000000002,-0.04866528780191695,0.14271054023555432,0.07786719802346546,0.03046060336863778,0.014484472569471695,0.16150521835482046,0.13811175456849473
1.75,-0.04904036576424568,0.1438104531519694,0.07846734386223597,0.030695372370504494,0.014596108741826765,0.1627499874899081,0.1391762232651158
1.8,-0.04936449269720897,0.1447609526105642,0.07898596518790287,0.030898250076401852,0.014692580125878638,0.16382566572890234,0.14009609328821473
1.85,-0.04963845246279704,0.14556433727992066,0.07942431622374464,0.031069727121652468,0.01477412002606275,0.1647348544702046,0.14087358923276871
1.9000000000000001,-0.049863028923000145,0.1462229058286206,0.07978365119303983,0.031210294141578932,0.014840961746814534,0.16548015511221636,0.141510935693755
1.9500000000000002,-0.050039005939808506,0.14673895692524586,0.08006522431906696,0.03132044177150386,0.014893338592569421,0.16606416905333896,0.14201035726615094
2.0,-0.05016716737521236,0.14711478923837826,0.08027028982510453,0.03140066064674985,0.014931483867762843,0.1664894976919739,0.14237407854493367
2.0500000000000003,-0.05024829709120197,0.14735270143659973,0.08040010193443108,0.031451441402639516,0.014955630876830241,0.16675874242652267,0.14260432412508053
2.1,-0.05028317894976755,0.14745499218849203,0.08045591487032511,0.03147327467449546,0.014966012924207047,0.1668745046553866,0.14270331860156882
2.15,-0.050272596812899334,0.14742396016263706,0.08043898285606511,0.03146665109764029,0.014962863314328691,0.16683938577696722,0.14267328656937578
2.2,-0.05021733454258758,0.14726190402761666,0.08035056011492965,0.0314320613073966,0.01494641535163061,0.16665598718966593,0.14251645262347862
2.25,-0.05011817600082251,0.14697112245201263,0.08019190087019722,0.031369995939087014,0.014916902340548233,0.16632691029188412,0.14223504135885465
2.3000000000000003,-0.049975905049594364,0.14655391410440696,0.07996425934514632,0.03128094562803412,0.014874557585517001,0.16585475648202327,0.14183127737048115
2.35,-0.04979130555089339,0.14601257765338135,0.07966888976305551,0.03116540100956053,0.014819614390972338,0.16524212715848483,0.1413073852533353
2.4000000000000004,-0.04956516136670982,0.14534941176751776,0.07930704634720329,0.031023852718988856,0.01475230606134969,0.16449162371967024,0.1406655896023945
2.45,-0.049298256359033885,0.14456671511539793,0.07887998332086817,0.030856791391641693,0.014672865901084487,0.1636058475639809,0.1399081150126359
2.5,-0.04899137438985583,0.1436667863656038,0.07838895490732865,0.030664707662841656,0.014581527214612153,0.16258740008981828,0.1390371860790368
2.5500000000000003,-0.0486452993211659,0.1426519241867172,0.07783521532986329,0.030448092167911337,0.014478523306368134,0.16143888269558382,0.1380550273965745
2.6,-0.04826081501495429,0.1415244272473199,0.07722001881175056,0.03020743554217336,0.014364087480787853,0.1601628967796789,0.1369638635602262
2.6500000000000004,-0.0478387053332113,0.14028659421599385,0.07654461957626901,0.029943228420950305,0.014238453042306759,0.158762043740505,0.13576591916496925
2.7,-0.047379754137927124,0.1389407237613209,0.07581027184669717,0.029655961439564817,0.014101853295360274,0.15723892497646363,0.13446341880578083
2.75,-0.04688474529109203,0.13748911455188284,0.07501822984631352,0.029346125233339456,0.01395452154438383,0.1555961418859561,0.13305858707763824
2.8000000000000003,-0.04635446265469622,0.13593406525626153,0.07416974779839659,0.029014210437596867,0.013796691093812867,0.15383629586738393,0.13155364857551877
2.85,-0.04578969009072997,0.13427787454303883,0.07326607992622489,0.02866070768765962,0.013628595248082815,0.15196198831914848,0.1299508278943996
2.9000000000000004,-0.045191211461183475,0.13252284108079662,0.07230848045307696,0.028286107618850344,0.013450467311629116,0.1499758206396512,0.12825234962925808
2.95,-0.04455981062804702,0.13067126353811676,0.07129820360223134,0.02789090086649165,0.0132625405888872,0.14788039422729368,0.12646043837507148
3.0,-0.04389627145331081,0.128725440583581,0.07023650359696647,0.02747557806590612,0.01306504838429249,0.14567831048047716,0.124577318726817
3.0500000000000003,-0.04320137779896511,0.1266876708857713,0.06912463466056093,0.02704062985241637,0.012858224002280429,0.14337217079760317,0.12260521527947196
3.1,-0.04247591352700011,0.12456025311326936,0.06796385101629318,0.026586546861345012,0.01264230074728645,0.1409645765770731,0.12054635262801354
3.1500000000000004,-0.041720662499406105,0.12234548593465727,0.0667554068874418,0.026113819728014645,0.01241751192374599,0.13845812921728848,0.11840295536741913
3.2,-0.04093640857817329,0.12004566801851668,0.06550055649728531,0.025622939087747883,0.012184090836094483,0.13585543011665074,0.1161772480926659
3.25,-0.04012393562529191,0.11766309803342948,0.06420055406910215,0.025114395575867313,0.011942270788767351,0.1331590806735611,0.11387145539873111
3.3000000000000003,-0.03928402750275223,0.11520007464797759,0.06285665382617092,0.024588679827695546,0.01169228508620004,0.13037168228642132,0.11148780188059215
3.35,-0.038417468072544446,0.11265889653074279,0.06147010999177007,0.024046282478555208,0.01143436703282798,0.1274958363536326,0.10902851213322616
3.4000000000000004,-0.03752504119665882,0.11004186235030694,0.06004217678917815,0.02348769416376887,0.011168749933086608,0.12453414427359645,0.10649581075161041
3.45,-0.03660753073708563,0.10735127077525193,0.058574108441673746,0.022913405518659183,0.01089566709141135,0.12148920744471434,0.10389192233072221
3.5,-0.035665720555815045,0.10458942047415956,0.05706715917253526,0.02232390717854872,0.01061535181223765,0.11836362726538771,0.10121907146553885
3.5500000000000003,-0.034700394514837314,0.10175861011561167,0.05552258320504124,0.021719689778760088,0.010328037400000925,0.1151600051340179,0.09847948275103746
3.6,-0.033712336476142704,0.09886113836819023,0.053941634762470256,0.021101243954615895,0.010033957159136632,0.11188094244900647,0.0956753807821955
3.6500000000000004,-0.032702330301721434,0.0958993039004769,0.05232556806810073,0.020469060341438743,0.009733344394080183,0.10852904060875473,0.09280899015399002
3.7,-0.031671159853563766,0.09287540538105368,0.050675637345211307,0.019823629574551263,0.009426432409267032,0.10510690101166427,0.08988253546139853
3.75,-0.030619608993659907,0.08979174147850241,0.048993096817080396,0.01916544228927604,0.009113454509132595,0.10161712505613643,0.08689824129939805
3.8000000000000003,-0.029548461584000082,0.08665061086140483,0.047279200706986574,0.018494989120935664,0.008794643998112315,0.09806231414057263,0.08385833226296603
3.85,-0.028458501486574573,0.08345431219834291,0.04553520323820836,0.017812760704852774,0.008470234180641627,0.09444506966337445,0.08076503294707967
3.9000000000000004,-0.027350512563373567,0.08020514415789838,0.04376235863402418,0.017119247676349935,0.00814045836115595,0.09076799302294304,0.07762056794671608
3.95,-0.02622527867638734,0.07690540540865315,0.041961921117712644,0.016414940670749768,0.00780554984409074,0.08703368561768,0.07442716185685272
4.0,-0.02508358368760615,0.07355739461918911,0.04013514491255225,0.01570033032337491,0.007465741933881418,0.08324474884598689,0.07118703927246686
4.05,-0.023926211459020245,0.0701634104580882,0.038283284241821536,0.014975907269547973,0.0071212679349634276,0.07940378410626513,0.0679024247885358
4.1000000000000005,-0.022753945852619757,0.06672575159393192,0.03640759332879896,0.014242162144591473,0.006772361151772183,0.07551339279691587,0.06457554300003648
4.15,-0.021567570730395023,0.06324671669530259,0.034509326396763136,0.013499585583828123,0.006419254888743143,0.07157617631634092,0.06120861850194663
4.2,-0.020367869954336214,0.059728604430781616,0.032589737668992445,0.01274866822258044,0.006062182450311707,0.06759473606294136,0.05780387588924312
4.25,-0.019155627386433626,0.05617371346895121,0.030650081368765503,0.011989900696171093,0.005701377140913353,0.06357167343511899,0.054363539756903514
4.3,-0.017931626888677495,0.05258434247839294,0.02869161171936081,0.011223773639922668,0.005337072264983485,0.059509589831275064,0.05088983469990488
4.3500000000000005,-0.01669665232305796,0.048962790127688664,0.026715582944056807,0.010450777689157708,0.004969501126957528,0.05541108664981067,0.047384985313224375
4.4,-0.015451487551565397,0.04531135508542054,0.02472324926613217,0.009671403479198946,0.004598897031270951,0.05127876528912798,0.04385121619183966
4.45,-0.014196916436189982,0.04163233602017022,0.02271586490886531,0.008886141645368904,0.004225493282359169,0.04711522714762793,0.040290751930727745
4.5,-0.012933722838921915,0.037928031600519406,0.020694684095534793,0.00809548282299019,0.003849523184657606,0.04292307362371194,0.03670581712486585
4.55,-0.011662690621751532,0.034200740495050216,0.018660961049419077,0.007299917647385448,0.003471220042601713,0.03870490611578177,0.0330986363692313
4.6000000000000005,-0.01038460364666895,0.03045276137234433,0.016615949993796616,0.006499936753877202,0.0030908171606269046,0.034463326022238575,0.02947143425880136
4.65,-0.00910024577566446,0.02668639290098358,0.014560905151946106,0.005696030777788148,0.0027085478431686325,0.03020093474148387,0.02582643538855337
4.7,-0.0078104008707283535,0.022903933749549937,0.01249708074714593,0.004888690354440845,0.0023246453946623117,0.02592033367191912,0.022165864353464446
4.75,-0.00651585279385079,0.01910768258662529,0.01042573100267469,0.004078406119157937,0.0019393431195434108,0.02162412421194579,0.018491945748511915
4.800000000000001,-0.005217385407022097,0.015299938080791322,0.008348110141810836,0.0032656687072619792,0.001552874322247335,0.017314907759965338,0.014806904168673307
4.8500000000000005,-0.0039157825722323895,0.011482998900630008,0.006265472387832924,0.002450968754075601,0.0011654723072095192,0.01299528571437899,0.01111296420892534
4.9,-0.0026118281514719956,0.007659163714723178,0.004179071964019549,0.0016347968949214108,0.0007773703788654041,0.008667859473588353,0.007412350464245837
4.95,-0.0013063060067311082,0.003830731191652575,0.002090163093649027,0.0008176437651220191,0.0003888018416504231,0.004335230435995025,0.0037072875296116936
5.0,0.0,1.4210854715202004e-16,0.0,0.0,0.0,0.0,1.4210854715202004e-16
5.050000000000001,0.0013063060067311214,-0.003830731191652405,-0.002090163093649005,-0.0008176437651220182,-0.0003888018416504147,-0.004335230435994974,-0.003707287529611245
5.1000000000000005,0.0026118281514719665,-0.007659163714722951,-0.004179071964019432,-0.0016347968949214106,-0.0007773703788653954,-0.008667859473588255,-0.00741235046424547
5.15,0.00391578257223236,-0.011482998900629924,-0.00626547238783295,-0.0024509687540755828,-0.0011654723072095196,-0.012995285714378895,-0.011112964208925116
5.2,0.00521738540702211,-0.015299938080791293,-0.008348110141810887,-0.0032656687072620144,-0.0015528743222473446,-0.01731490775996543,-0.014806904168672998
5.25,0.006515852793850824,-0.01910768258662515,-0.01042573100267469,-0.004078406119157937,-0.0019393431195434197,-0.02162412421194579,-0.018491945748511773
5.300000000000001,0.0078104008707284315,-0.022903933749549993,-0.012497080747146028,-0.004888690354440898,-0.0023246453946623477,-0.02592033367191931,-0.02216586435346422
5.3500000000000005,0.009100245775664467,-0.026686392900983496,-0.014560905151946059,-0.00569603077778813,-0.002708547843168642,-0.030200934741483915,-0.025826435388553004
5.4,0.010384603646668964,-0.030452761372344157,-0.016615949993796664,-0.006499936753877219,-0.003090817160626905,-0.034463326022238665,-0.02947143425880105
5.45,0.011662690621751497,-0.03420074049505007,-0.018660961049419077,-0.0072999176473854295,-0.0034712200426017044,-0.03870490611578177,-0.03309863636923102
5.5,0.012933722838921958,-0.03792803160051932,-0.020694684095534745,-0.008095482822990207,-0.003849523184657606,-0.042923073623712,-0.03670581712486556
5.550000000000001,0.014196916436189987,-0.04163233602016999,-0.022715864908865332,-0.00888614164536892,-0.004225493282359178,-0.047115227147627975,-0.04029075193072745
5.6000000000000005,0.015451487551565375,-0.045311355085420446,-0.024723249266132154,-0.009671403479198946,-0.004598897031270951,-0.051278765289127934,-0.04385121619183935
5.65,0.016696652323058045,-0.04896279012768878,-0.02671558294405693,-0.010450777689157762,-0.004969501126957546,-0.0554110866498109,-0.04738498531322435
5.7,0.017931626888677502,-0.05258434247839279,-0.028691611719360906,-0.011223773639922668,-0.005337072264983494,-0.05950958983127497,-0.05088983469990466
5.75,0.019155627386433585,-0.05617371346895087,-0.03065008136876541,-0.011989900696171073,-0.005701377140913344,-0.0635716734351188,-0.05436353975690309
5.800000000000001,0.02036786995433623,-0.05972860443078159,-0.03258973766899253,-0.012748668222580457,-0.006062182450311717,-0.0675947360629416,-0.057803875889242955
5.8500000000000005,0.021567570730395037,-0.06324671669530256,-0.03450932639676322,-0.013499585583828156,-0.0064192548887431625,-0.07157617631634115,-0.06120861850194639
5.9,0.02275394585261977,-0.06672575159393182,-0.03640759332879891,-0.014242162144591473,-0.006772361151772174,-0.07551339279691575,-0.06457554300003616
5.95,0.023926211459020203,-0.07016341045808792,-0.03828328424182155,-0.014975907269547955,-0.007121267934963427,-0.07940378410626509,-0.06790242478853553
6.0,0.025083583687606218,-0.07355739461918905,-0.04013514491255235,-0.015700330323374943,-0.007465741933881418,-0.0832447488459871,-0.07118703927246665
6.050000000000001,0.026225278676387388,-0.07690540540865312,-0.041961921117712686,-0.016414940670749768,-0.007805549844090749,-0.08703368561768016,-0.07442716185685247
6.1000000000000005,0.027350512563373543,-0.08020514415789828,-0.043762358634024195,-0.017119247676349914,-0.00814045836115595,-0.09076799302294299,-0.0776205679467157
6.15,0.028458501486574538,-0.08345431219834262,-0.045535203238208324,-0.017812760704852756,-0.008470234180641627,-0.09444506966337438,-0.08076503294707925
6.2,0.029548461584000117,-0.0866506108614049,-0.047279200706986615,-0.0184949891209357,-0.008794643998112323,-0.09806231414057284,-0.08385833226296588
6.25,0.030619608993659835,-0.08979174147850219,-0.048993096817080396,-0.01916544228927604,-0.009113454509132595,-0.10161712505613636,-0.08689824129939769
6.300000000000001,0.03167115985356378,-0.0928754053810536,-0.05067563734521133,-0.019823629574551263,-0.00942643240926704,-0.10510690101166435,-0.08988253546139831
6.3500000000000005,0.032702330301721406,-0.09589930390047668,-0.05232556806810068,-0.02046906034143874,-0.009733344394080173,-0.10852904060875465,-0.0928089901539896
6.4,0.03371233647614268,-0.09886113836819002,-0.05394163476247022,-0.021101243954615878,-0.010033957159136632,-0.1118809424490064,-0.095675380782195
6.45,0.03470039451483732,-0.1017586101156116,-0.05552258320504126,-0.021719689778760088,-0.010328037400000933,-0.11516000513401801,-0.09847948275103718
6.5,0.03566572055581509,-0.10458942047415963,-0.05706715917253533,-0.022323907178548773,-0.01061535181223766,-0.118363627265388,-0.10121907146553864
6.550000000000001,0.03660753073708565,-0.10735127077525193,-0.05857410844167381,-0.0229134055186592,-0.010895667091411359,-0.12148920744471453,-0.10389192233072204
6.6000000000000005,0.03752504119665885,-0.11004186235030686,-0.06004217678917828,-0.023487694163768925,-0.011168749933086617,-0.12453414427359656,-0.1064958107516102
6.65,0.0384174680725444,-0.11265889653074249,-0.06147010999177006,-0.024046282478555173,-0.01143436703282798,-0.12749583635363257,-0.10902851213322572
6.7,0.03928402750275223,-0.1152000746479775,-0.06285665382617095,-0.024588679827695595,-0.01169228508620004,-0.13037168228642146,-0.11148780188059186
6.75,0.040123935625291915,-0.11766309803342939,-0.06420055406910218,-0.02511439557586733,-0.01194227078876736,-0.13315908067356128,-0.11387145539873082
6.800000000000001,0.04093640857817338,-0.12004566801851668,-0.06550055649728541,-0.025622939087747917,-0.012184090836094506,-0.13585543011665085,-0.11617724809266568
6.8500000000000005,0.041720662499406064,-0.12234548593465702,-0.06675540688744175,-0.026113819728014662,-0.012417511923745992,-0.13845812921728837,-0.11840295536741868
6.9,0.042475913527000086,-0.1245602531132692,-0.0679638510162932,-0.026586546861345,-0.01264230074728644,-0.14096457657707315,-0.12054635262801316
6.95,0.043201377798965115,-0.1266876708857712,-0.06912463466056094,-0.027040629852416353,-0.012858224002280429,-0.14337217079760312,-0.12260521527947164
7.0,0.04389627145331077,-0.12872544058358082,-0.07023650359696644,-0.027475578065906156,-0.01306504838429248,-0.14567831048047727,-0.12457731872681667
7.050000000000001,0.044559810628047085,-0.13067126353811676,-0.07129820360223142,-0.027890900866491673,-0.013262540588887213,-0.1478803942272938,-0.12646043837507123
7.1000000000000005,0.045191211461183524,-0.13252284108079662,-0.07230848045307693,-0.02828610761885039,-0.013450467311629138,-0.14997582063965145,-0.1282523496292579
7.15,0.045789690090730036,-0.13427787454303894,-0.07326607992622501,-0.028660707687659673,-0.01362859524808284,-0.15196198831914884,-0.12995082789439946
7.2,0.04635446265469617,-0.13593406525626145,-0.07416974779839665,-0.029014210437596867,-0.013796691093812867,-0.1538362958673838,-0.13155364857551832
7.25,0.04688474529109203,-0.1374891145518827,-0.07501822984631366,-0.029346125233339473,-0.013954521544383845,-0.1555961418859561,-0.133058587077638
7.300000000000001,0.047379754137927096,-0.13894072376132074,-0.07581027184669722,-0.02965596143956484,-0.014101853295360282,-0.15723892497646347,-0.13446341880578042
7.3500000000000005,0.04783870533321131,-0.14028659421599385,-0.07654461957626912,-0.029943228420950378,-0.014238453042306767,-0.15876204374050526,-0.13576591916496888
7.4,0.04826081501495428,-0.1415244272473198,-0.07722001881175052,-0.030207435542173342,-0.014364087480787862,-0.16016289677967888,-0.1369638635602258
7.45,0.0486452993211659,-0.14265192418671713,-0.07783521532986337,-0.030448092167911354,-0.01447852330636814,-0.1614388826955838,-0.13805502739657408
7.5,0.0489913743898558,-0.14366678636560373,-0.07838895490732867,-0.030664707662841656,-0.014581527214612162,-0.16258740008981845,-0.13903718607903634
7.550000000000001,0.049298256359033926,-0.14456671511539784,-0.07887998332086833,-0.03085679139164172,-0.014672865901084499,-0.16360584756398114,-0.13990811501263567
7.6000000000000005,0.04956516136670973,-0.1453494117675176,-0.07930704634720323,-0.031023852718988807,-0.014752306061349682,-0.1644916237196701,-0.14066558960239395
7.65,0.049791305550893325,-0.14601257765338102,-0.07966888976305539,-0.031165401009560476,-0.01481961439097233,-0.1652421271584849,-0.14130738525333475
7.7,0.04997590504959428,-0.14655391410440655,-0.07996425934514623,-0.03128094562803406,-0.014874557585516974,-0.16585475648202286,-0.1418312773704803
7.75,0.0501181760008225,-0.1469711224520126,-0.08019190087019717,-0.03136999593908704,-0.014916902340548256,-0.1663269102918844,-0.14223504135885423
7.800000000000001,0.05021733454258759,-0.14726190402761666,-0.08035056011492968,-0.03143206130739664,-0.014946415351630613,-0.1666559871896658,-0.14251645262347823
7.8500000000000005,0.05027259681289923,-0.14742396016263656,-0.0804389828560652,-0.03146665109764027,-0.014962863314328688,-0.1668393857769672,-0.14267328656937522
7.9,0.05028317894976759,-0.14745499218849203,-0.08045591487032518,-0.03147327467449549,-0.014966012924207059,-0.16687450465538678,-0.14270331860156843
7.95,0.05024829709120186,-0.14735270143659956,-0.08040010193443108,-0.03145144140263948,-0.014955630876830231,-0.16675874242652228,-0.14260432412507995
8.0,0.05016716737521242,-0.14711478923837823,-0.0802702898251046,-0.031400660646749914,-0.01493148386776287,-0.1664894976919741,-0.14237407854493322
8.05,0.050039005939808395,-0.14673895692524544,-0.08006522431906682,-0.03132044177150383,-0.01489333859256939,-0.16606416905333876,-0.1420103572661504
8.1,0.049863028923000006,-0.1462229058286204,-0.07978365119303979,-0.03121029414157889,-0.014840961746814527,-0.16548015511221612,-0.1415109356937543
8.15,0.049638452462796974,-0.14556433727992057,-0.07942431622374457,-0.03106972712165246,-0.014774120026062751,-0.1647348544702046,-0.14087358923276816
8.200000000000001,0.04936449269720893,-0.1447609526105641,-0.0789859651879029,-0.03089825007640193,-0.014692580125878674,-0.16382566572890245,-0.1400960932882146
8.25,0.049040365764245586,-0.14381045315196897,-0.07846734386223579,-0.03069537237050444,-0.014596108741826761,-0.16274998748990785,-0.13917622326511514
8.3,0.048665287801916826,-0.1427105402355537,-0.07786719802346526,-0.030460603368637727,-0.014484472569471649,-0.1615052183548202,-0.13811175456849387
8.35,0.04823847494823253,-0.1414589151927375,-0.07718427344831298,-0.030193452435479166,-0.014357438304378047,-0.1600887569252384,-0.13690046260337388
8.4,0.04775914334120219,-0.14005327935493597,-0.07641731591349947,-0.02989342893570584,-0.014214772642110239,-0.15849800180275936,-0.13554012277477626
8.450000000000001,0.04722650911883553,-0.13849133405356892,-0.07556507119574689,-0.029560042233995443,-0.014056242278232928,-0.15673035158898269,-0.13402851048772477
8.5,0.04663978841914265,-0.13677078062005432,-0.07462628507177682,-0.0291928016950252,-0.013881613908310761,-0.15478320488550687,-0.1323634011472426
8.55,0.04599819738013307,-0.13488932038581047,-0.0735997033183103,-0.028791216683472603,-0.013690654227908194,-0.15265396029393044,-0.13054257015835102
8.6,0.0453009521398166,-0.13284465468225512,-0.07248407171206929,-0.02835479656401505,-0.013483129932589847,-0.15034001641585207,-0.12856379292607428
8.65,0.044547268836203344,-0.1306344848408074,-0.07127813602977523,-0.027883050701330025,-0.013258807717920287,-0.14783877185287106,-0.12642484485543504
8.700000000000001,0.04373636360730224,-0.12825651219288328,-0.06998064204814904,-0.027375488460094643,-0.013017454279464012,-0.14514762520658422,-0.12412350135145454
8.75,0.04286745259112374,-0.12570843806990323,-0.06859033554391253,-0.026831619204986428,-0.012758836312785621,-0.1422639750785909,-0.1216575378191565
8.8,0.04193975192567741,-0.12298796380328389,-0.06710596229378725,-0.026250952300682858,-0.012482720513449739,-0.13918522007048995,-0.11902472966356377
8.85,0.04095247774897311,-0.12009279072444448,-0.06552626807449487,-0.0256329971118613,-0.012188873577020894,-0.1359087587838801,-0.11622285228969938
8.9,0.03990484619902038,-0.11702062016480214,-0.06384999866275655,-0.024977263003199024,-0.011877062199063598,-0.1324319898203595,-0.11324968110258489
8.950000000000001,0.03879607341382916,-0.11376915345577569,-0.062075899835293755,-0.024283259339373617,-0.011547053075142493,-0.12875231178152635,-0.1101029915072441
9.0,0.03762537553140919,-0.11033609192878355,-0.06020271736882834,-0.023550495485062415,-0.01119861290082211,-0.12486712326898035,-0.10678055890869934
9.05,0.036391968689770085,-0.10671913691524262,-0.058229197040081344,-0.022778480804942606,-0.01083150837166703,-0.12077382288431877,-0.10328015871197355
9.1,0.03509506902692203,-0.10291598974657283,-0.05615408462577468,-0.021966724663691966,-0.01044550618324186,-0.11646980922914196,-0.09959956632208948
9.15,0.033733892680874206,-0.0989243517541911,-0.05397612590262966,-0.021114736425987646,-0.010040373031111095,-0.11195248090504611,-0.09573655714406955
9.200000000000001,0.03230765578963658,-0.09474192426951515,-0.05169406664736722,-0.020222025456506875,-0.009615875610839247,-0.10721923651363094,-0.09168890658293646
