SilviaXuva/Vision-guided-robot-manipulator/Helpers/Outputs copy/2023-12-09_18h06m43s/green7/Place/Joint Comparison/q_dot_Real.csv
,q0,q1,q2,q3,q4,q5,q6
0.0,3.656013318773089e-16,1.5034844138787807e-15,2.458686823645511e-16,2.383459804586429e-15,-1.6018516575851262e-16,1.005327780581062e-15,-1.2853218774016912e-15
0.05,0.00549504569829769,-0.009704163099804299,-0.0025204167117543175,-0.00010014720009352517,0.004153376329951358,0.0010821589949252175,-0.0005617611811707338
0.1,0.008605810437879887,-0.013072096912533132,-0.0039224372179632126,-0.0025637888921311736,0.004719271035984818,0.0024409355792702706,0.00011041909699473391
0.15000000000000002,0.010208075293410834,-0.013906112839420795,-0.004317694049427154,-0.004635963942160804,0.004299320902118533,0.0035993201688420216,0.0012981828420258537
0.2,0.010829217325021763,-0.013600564224827914,-0.0039710312517403385,-0.005918576311574129,0.0035935657096389743,0.004673656804187333,0.002701653562552836
0.25,0.010853586439522332,-0.012619428340380153,-0.0030678743537692257,-0.006632388905559777,0.002774197007123334,0.005844847386121607,0.004195457798614069
0.30000000000000004,0.010529152488725322,-0.011083532484534373,-0.0017151926108362697,-0.007035175167518714,0.0018524797655105206,0.007230006787237155,0.005761474219649851
0.35000000000000003,0.010010718113927144,-0.008993916080763435,3.297141384606074e-05,-0.00730826082721093,0.0008080328606500601,0.008882688954420277,0.007420456402036747
0.4,0.009396129943905313,-0.006308303228690856,0.0021496979398953446,-0.007560061896730141,-0.000382008163388347,0.010817078956409381,0.00920030121103246
0.45,0.008750854273210394,-0.0029730128266457533,0.004624196811230158,-0.00786634904995658,-0.0017272326973099055,0.013023308604311477,0.01111837393935553
0.5,0.008122996271002637,0.0010716687407506722,0.0074492282540944855,-0.008268880775557083,-0.0032444655796015458,0.015496366199888697,0.013188433988584887
0.55,0.00754994050716202,0.005884093637749048,0.010620986516608113,-0.008805223138820087,-0.004943568983680875,0.01822617289648343,0.015414182884239506
0.6000000000000001,0.007064652048055434,0.011520905568003639,0.014137293954032785,-0.009502366962583268,-0.006827366307141633,0.02119563485367118,0.017793804014095825
0.65,0.0066985680991485195,0.018035959699435316,0.018005616190392724,-0.010341442276779023,-0.008844008505292801,0.02430673343868128,0.020315680564007007
0.7000000000000001,0.006498274497640934,0.02546935761095128,0.022220644702046502,-0.011371461202059945,-0.011020112439208977,0.027621418928410232,0.02297317959667812
0.75,0.006492691116283875,0.03387075278278864,0.026769236549851742,-0.012626506398515362,-0.013374308714883806,0.03113956271747961,0.025766100236510787
0.8,0.006690463307245521,0.043286072911670456,0.03164453373147555,-0.014181260480238309,-0.015927895784815148,0.03487146290786657,0.02868973057298082
0.8500000000000001,0.0071411724967167245,0.05375387665759822,0.036837462303108026,-0.01602061445157299,-0.018659621813754877,0.038784449513458163,0.03173672445342907
0.9,0.007870003057262858,0.06531222277954131,0.0423347264000514,-0.018173057204950785,-0.021569408633530872,0.04285698461784835,0.03490502836064116
0.9500000000000001,0.008857759947543266,0.07791031662334982,0.04806324164207408,-0.0200501331688112,-0.02478731542817661,0.047121030256419505,0.03832289930967277
1.0,0.003909136507956094,0.08271975654685255,0.05418628607530946,-0.01611621432099336,-0.02749662728562413,0.05106142150782303,0.04362859076731532
1.05,-0.0013828664151661757,0.08486476425142797,0.05998296129866555,-0.012057881918661792,-0.029163988731238294,0.05501819649906414,0.04826732291974537
1.1,-0.005018757715791182,0.08799608918869695,0.06553044668749772,-0.00991975973483629,-0.030924483164700672,0.05995554161299474,0.05225285928882728
1.1500000000000001,-0.007568018812712195,0.09175807728388086,0.07105554920196128,-0.008523416119313065,-0.03268207435817737,0.06532250917406754,0.05621498235754514
1.2000000000000002,-0.00945679548655191,0.0959683415302536,0.07665172100513454,-0.007402958321254899,-0.034454756141981846,0.07090873621233049,0.0603716591982084
1.25,-0.010934897859622632,0.10049908487649759,0.08236139692877192,-0.006359811040234559,-0.03624193309783971,0.07665685716626781,0.06475628956120469
1.3,-0.012162350430039697,0.10529805691605004,0.08818725099482937,-0.0053335276627680395,-0.03804724431869616,0.08250160112300894,0.06935037294651147
1.35,-0.013229102825457112,0.11029654199747851,0.09413331767875369,-0.004277392197098079,-0.03987091677278974,0.08846652384785308,0.07412233538118217
1.4000000000000001,-0.014208990162645749,0.1154876098391559,0.10018393654193306,-0.00321271607302287,-0.041743848903951525,0.09454728081789116,0.07904955121538773
1.4500000000000002,-0.015120595501622772,0.12084912488977785,0.10633792109915832,-0.0021249085878294327,-0.043633763434468856,0.10071768951928739,0.08409644581457473
1.5,-0.015973941996778842,0.1263215713733849,0.11260892087428198,-0.000970271341103085,-0.04549596080586121,0.10699180349319498,0.08923376163288838
1.55,-0.016802525122656644,0.1319389452654499,0.11894867610137645,0.00018685478394636634,-0.04740919259146631,0.11336475429755205,0.09447149205021785
1.6,-0.017586840412072202,0.13766924267417063,0.12538077624772542,0.0013951643244261291,-0.049296028512982815,0.11981487890957392,0.09977205030864209
1.6500000000000001,-0.018342309243570738,0.14350763949384365,0.1318792871904833,0.0026111128281942897,-0.051204668502734224,0.12637887780916685,0.10513949224388672
1.7000000000000002,-0.019072588136934607,0.14948682270481156,0.1384277065064622,0.003824430295691683,-0.053128933419922864,0.1329907714327001,0.11056460328213005
1.75,-0.019752606419757006,0.15555630449880445,0.14504055220892043,0.005084364877149278,-0.05501454088256871,0.1396664244686242,0.11602331855087147
1.8,-0.02038866248150008,0.16171075877512264,0.15170017432758653,0.0063691649371927506,-0.05688592305139825,0.1464227082817262,0.12151621576187227
1.85,-0.020988166835494683,0.16797446785940612,0.15838393468044376,0.0076621117122256666,-0.05875457397146533,0.15321388029185795,0.1270415090562936
1.9000000000000001,-0.021533811099434162,0.17431981072464192,0.16509358760313925,0.008969376186680866,-0.060606950428415435,0.16007795940696734,0.13258342054728736
1.9500000000000002,-0.02203334766322807,0.1807704094437237,0.1718160479192633,0.010285678692236455,-0.06244710453227226,0.16697616682345243,0.13813784808459267
2.0,-0.022472661827321494,0.18731060102797162,0.17854009686972144,0.011613708180584215,-0.06425816828413683,0.17389587653512645,0.14369209996028603
2.0500000000000003,-0.02287817233189199,0.19393351160259303,0.18523572252009715,0.012976725603784711,-0.0661025752396514,0.1808635219047295,0.14926533040735482
2.1,-0.023206377919737987,0.20065539004873326,0.19193160530451264,0.014317564759504742,-0.06788092810681537,0.18783399743514673,0.15479940273413836
2.15,-0.0234583667991383,0.20744058129786272,0.1986034248743469,0.015694494888759347,-0.0696176770055181,0.19482178612182377,0.16030913303598215
2.2,-0.023629468757803286,0.21429405233224047,0.20524171386816414,0.01710160419943113,-0.07130188729839232,0.20180219471743166,0.16578241286679274
2.25,-0.02371533987480931,0.2212153452722355,0.21184173458157568,0.018514832947386095,-0.07293628872935765,0.20879353732223271,0.17120791110047393
2.3000000000000003,-0.023724531351099604,0.22821320563018363,0.2183695984451708,0.01993399661884565,-0.07455174733391709,0.21576783433270913,0.17659252077947635
2.35,-0.023643860124773337,0.23528632706435781,0.2248365210413325,0.021356485945328796,-0.07611258319271558,0.22272303856502618,0.18190976543853654
2.4000000000000004,-0.023475902495941885,0.2424277379301798,0.23121472661534453,0.02279181193664942,-0.077647101633464,0.2296599560573368,0.18716404164615402
2.45,-0.023194616435349154,0.2496253121709719,0.23751700396174952,0.024259674837475265,-0.07909517488535622,0.23655859481906408,0.19232257484012055
2.5,-0.022819816280626255,0.25689966406018616,0.24370946507290792,0.025710434604309607,-0.0805127688970465,0.24341919624821837,0.19739655275047407
2.5500000000000003,-0.022335285932761847,0.2642323594974823,0.24978571361163904,0.02718003284595677,-0.08187827308596607,0.2502357506719072,0.20236940445490054
2.6,-0.021740458810510246,0.2716237734469225,0.25573645616998064,0.028661839197315353,-0.08320502923650536,0.2570297008851207,0.20723280013516948
2.6500000000000004,-0.02102186675044386,0.27907106066707416,0.2615572483441265,0.03017044590668433,-0.08445572431328419,0.26376097306549934,0.21196373380816963
2.7,-0.020176273167919333,0.2865830614530022,0.2672284383552502,0.031684236066861104,-0.08563085733545717,0.2704015480171105,0.21655400445878342
2.75,-0.019219647067923347,0.29414166113351226,0.27271512662165553,0.03322271634809992,-0.0867921047576325,0.2769829531446816,0.22101879822914777
2.8000000000000003,-0.018111004518552094,0.30175590954636544,0.2780537973253253,0.03475503084583276,-0.08785238830280684,0.2835186377206831,0.2253009367226918
2.85,-0.016836306285207787,0.3094125268709585,0.28321062778303496,0.03632021299595056,-0.08879699927719242,0.28993984773183945,0.22939727980138502
2.9000000000000004,-0.015400723234210144,0.3171121088499653,0.2881765604387425,0.03789496262832659,-0.08965280777442564,0.2962880750417039,0.23330448503183088
2.95,-0.013803628344541581,0.32486433723896224,0.2929225176057937,0.03947509942617211,-0.09042571669575811,0.3025222556640601,0.23701595360054617
3.0,-0.01203027362067441,0.3326504999200479,0.2974498668842044,0.04109041731651858,-0.091084604453597,0.3086446461326037,0.2405077197788391
3.0500000000000003,-0.010074461636985417,0.34047498537698334,0.30172887875266574,0.042708551530940664,-0.09164876758903445,0.3146531646739452,0.24377520360030752
3.1,-0.00792181973508672,0.3483248370891426,0.3057595169275422,0.04435049390971876,-0.09209529232034291,0.3205610385591995,0.24679591812811774
3.1500000000000004,-0.005562855482962498,0.3562008662869969,0.3095166358072782,0.04601229612071908,-0.09242907054223881,0.32635832744488946,0.24956073208756097
3.2,-0.002997605589248286,0.3641085715271495,0.31298129228615046,0.04768300209036322,-0.09263654999665455,0.332004461239927,0.25205399526254824
3.25,-0.00018357244042640705,0.37202583169610004,0.3161508825080856,0.049399076254892677,-0.09266321026158014,0.3375008146320361,0.2542445539410842
3.3000000000000003,0.0028568667380260288,0.3799540806968143,0.3189859493655101,0.05110938884830407,-0.09258570397280991,0.34288994823406,0.25614778649129877
3.35,0.0061623516153965635,0.38788771105796244,0.32148505026139246,0.052845733105403664,-0.09232006643550505,0.34812248485744596,0.2577191649558821
3.4000000000000004,0.009748506200992137,0.395816712261691,0.32361926666679514,0.0546103101622985,-0.09186533017614501,0.3531923724706581,0.25895106945425206
3.45,0.013574815524829142,0.40375208402016083,0.32534069139427446,0.05636224685281896,-0.0912902718188024,0.3580805470449357,0.25985825985111066
3.5,0.017757566395201742,0.41165255836917797,0.32667988286629596,0.058170743637130484,-0.09043325944834418,0.36283369165812385,0.26036057950846514
3.5500000000000003,0.02226172992356129,0.41952302377315853,0.3275721057771901,0.0599952268252989,-0.0893593419987864,0.3673972621735331,0.26048298151093474
3.6,0.027138396678116274,0.42734840261059903,0.32801283690377414,0.06184321091165934,-0.08799244023481165,0.37178173672457604,0.26018269608196276
3.6500000000000004,0.03239028381143827,0.4351207624266911,0.32794620579144074,0.06370300256192087,-0.08635910990683979,0.3759648821667643,0.25946707904458144
3.7,0.03803210935186196,0.4428329755138993,0.3273409996572332,0.06556056157556854,-0.08444650277870214,0.37995357093907095,0.2583181722380906
3.75,0.04410295224882902,0.4504614239223142,0.3261618737844713,0.06744627964827477,-0.08221340079561845,0.38374349897519755,0.2567134505609895
3.8000000000000003,0.05063545444456261,0.4579879878561826,0.3243630773690626,0.06934410403324175,-0.07963252637229742,0.38733251982756384,0.2546367076624291
3.85,0.05766823849029572,0.46539077594472067,0.3219113228465098,0.0712806660631681,-0.07664751253407973,0.39072029909003586,0.25206076516259335
3.9000000000000004,0.06522224591331813,0.4726571914834869,0.3187457609563941,0.07322338550136126,-0.07323348289714003,0.39388020699047877,0.24897480230388613
3.95,0.0733429226725521,0.47975633074401436,0.3147973946936888,0.07517975554906077,-0.06936296418004163,0.39681387186406414,0.2453739233332816
4.0,0.08205867810160819,0.486671686195216,0.31000740676252414,0.07712923649426462,-0.06499327399539626,0.3995231175263666,0.2412399274200677
4.05,0.0914147934612195,0.493367596370107,0.3042997232219916,0.07909922053753832,-0.0600708876978447,0.40199239802883685,0.23656430640632936
4.1000000000000005,0.10145772844606024,0.4998143136521364,0.29760339973078265,0.08106372291666933,-0.054519454638666254,0.4042280361372803,0.2313255857412166
4.15,0.11223145450444659,0.5059761622385528,0.2898149586293923,0.08303037831610846,-0.04830279301391427,0.40623192919441076,0.22553369056057587
4.2,0.12377020806515467,0.5118138479516963,0.28083273703658856,0.08499614155531898,-0.04135579377540092,0.40799314818651494,0.21918747730848964
4.25,0.13612600651459594,0.5172791086192602,0.2705402437441405,0.0869591079864982,-0.03360562654254019,0.4095237791455915,0.21229599136311006
4.3,0.14934291601402416,0.5223286281718926,0.25881924033270365,0.08889777020018777,-0.02495389819365293,0.41083738357240146,0.20486229543750623
4.3500000000000005,0.16345269502935225,0.5269032825496294,0.24552121935387822,0.090834697848916,-0.015325963360251882,0.4119234858262407,0.19692230348412917
4.4,0.17849103767937743,0.5309423281106989,0.23049417023888902,0.09275148923967691,-0.004627181600876246,0.4128192655690152,0.18850951004501815
4.45,0.19448155903677788,0.5343841363601914,0.21356814945485145,0.0946386140192213,0.007250315617120973,0.4135388601524034,0.17967584273770856
4.5,0.2114298080589361,0.5371494997593459,0.19456121390336123,0.09650717261810765,0.02041339492271893,0.4141075070629833,0.17049325393858028
4.55,0.22933076645503214,0.5391611767612934,0.17328452634969102,0.09833735681790708,0.03499290119253612,0.41457101817179476,0.1610448388784103
4.6000000000000005,0.248151070348717,0.5403330161960177,0.1495373135658232,0.10013750694142436,0.05111489043221207,0.41497573850909963,0.15144581941976523
4.65,0.26782635162240415,0.5405806624674552,0.12311932592739447,0.10187363690352022,0.06891864166945938,0.41539116276752897,0.14182751499823787
4.7,0.2882615113003517,0.539814778153627,0.09383641664607867,0.1035656906387607,0.0885522364679675,0.4159001699358449,0.13235532328488198
4.75,0.30930844040699673,0.5379486941633433,0.061510338967810385,0.10519311785982777,0.11016731854579587,0.4166034634419034,0.12321353137803698
4.800000000000001,0.33075474667324495,0.5349005823140075,0.025985009770369716,0.10675749381282562,0.1338879472845229,0.41760787117884535,0.11462428374573974
4.8500000000000005,0.35233925901799573,0.5306013204809058,-0.012837830027190744,0.10825464477408603,0.15987152072470612,0.41905306909046897,0.1068117518283822
4.9,0.37372787379584504,0.5250089568694957,-0.05499396784463467,0.10966671762223584,0.18825014525320316,0.42110144557440643,0.10000892109505322
4.95,0.39451380177194506,0.51810596526949,-0.10043922634656333,0.11098063775807746,0.21911095914466683,0.4239307951067916,0.09445338548490811
5.0,0.4142362076001186,0.5099199607179102,-0.149012326233756,0.11220907143855707,0.25256848547378286,0.4277156727090885,0.09034046672206042
5.050000000000001,0.4323786162112312,0.5005299944671329,-0.20043788036203658,0.11333636266727745,0.28866909015551645,0.4326550000111777,0.08781542779839802
5.1000000000000005,0.44840191554642955,0.49007201320972804,-0.25431029560671625,0.11436475108392119,0.32743393048503133,0.438941000411463,0.0869416355250846
5.15,0.4617723897324333,0.47874887173694297,-0.31009504220536577,0.11528937524991492,0.36888310779565614,0.4467394652663928,0.08765593502612157
5.2,0.47199851604410764,0.4668306277042828,-0.36715670753968577,0.11609632458774494,0.4129932880448437,0.45621058520628105,0.08975460931855528
5.25,0.47866829904892816,0.45464127018335004,-0.424788932641554,0.11680169688762987,0.45976877847288633,0.46746185087892633,0.09286904635809701
5.300000000000001,0.48148068741140954,0.442553624281044,-0.482259764955979,0.11740258994654756,0.5092697524744709,0.48055990220078376,0.09643591369416882
5.3500000000000005,0.4802658063815899,0.4309708632230835,-0.5388703297500794,0.11789863721806695,0.5616379810799557,0.4955383601733401,0.09969755902850985
5.4,0.4749899786645674,0.4203016642844783,-0.594002612979537,0.11830690501342894,0.6172034924069565,0.5123746343797794,0.1016919494400077
5.45,0.4657391864489196,0.4109520668963665,-0.6471658838471902,0.11862862648668857,0.6765112106528162,0.5310210338218206,0.1012243795668617
5.5,0.45269769249812275,0.4033075698770866,-0.6980178609615465,0.1188619171495201,0.74048230320426,0.5513730880061238,0.09681031850366728
5.550000000000001,0.4361386019494581,0.3977092830010507,-0.746389289936062,0.11902927986746842,0.8105216272148221,0.5733249131539586,0.08658731842007827
5.6000000000000005,0.4164211379470961,0.39447213297824024,-0.7922769932744307,0.11913472370221673,0.8887653582457824,0.5967213559342676,0.06806787205540132
5.65,0.3940554337305179,0.3938557429831519,-0.8358682111471583,0.11918256600249316,0.9783659494882555,0.6213237858363516,0.03780101887942733
5.7,0.3699236774596316,0.39604069957471066,-0.8776007377607207,0.11918788898064941,1.0840350429226207,0.6467319049096026,-0.009303555087450288
5.75,0.3458294142539187,0.40104875863181094,-0.9183580459579898,0.11915405191239836,1.2129003673553793,0.6721312989030388,-0.0811766609969986
5.800000000000001,0.3259193358098658,0.4085175419636086,-0.9600508909086936,0.11909693125411647,1.3758453391602115,0.6958067857365988,-0.19071741538835463
5.8500000000000005,0.3202937782771778,0.4171227928067944,-1.0072217626853308,0.11901400124376138,1.5894401838118113,0.7138941544692563,-0.35962463089970065
5.9,0.35440911669597425,0.4230108488438117,-1.0715877386452326,0.11894751349036059,1.8771896597174242,0.7175457594052671,-0.6241987074746396
5.95,0.4923287061105069,0.41589926604955174,-1.184077068340181,0.11889525604373474,2.2625737571687368,0.6864228831621288,-1.0390068817183447
6.0,0.8776573633881586,0.37132478445546885,-1.4184064662968492,0.11882587599405137,2.720761863635072,0.5790477390398916,-1.645002774178257
6.050000000000001,1.6908522901556209,0.2508035749802384,-1.8744376300039032,0.11854716105504814,3.0302740779036603,0.3485941465116206,-2.296658030969324
6.1000000000000005,2.707742951366749,0.05485371305055198,-2.4255115111955137,0.11756090627187937,2.773001649978161,0.051715364569896005,-2.4837067290106893
6.15,3.234633648093627,-0.15134767857124143,-2.622253538418815,0.11591016041570462,1.998349217401913,-0.16269522359916166,-2.0256065764981943
6.2,3.1450724490484623,-0.33954803687212587,-2.3277661751185508,0.11482806568760184,1.1658696572339182,-0.28754789646094214,-1.3929347474680567
6.25,2.6919342064037153,-0.4904259158983762,-1.7409347040071546,0.11453334269143423,0.5500108262039932,-0.3629176431153498,-0.9099399726755126
6.300000000000001,2.1545629617595274,-0.5828390310704825,-1.1453901011493968,0.11434049425020604,0.22601629584964222,-0.4025472601769863,-0.6461016489840845
6.3500000000000005,1.7088036445814714,-0.6235580933209701,-0.7025473413239467,0.11371164856234006,0.1066797598045034,-0.4181902950922065,-0.5273002037096111
6.4,1.383514797291122,-0.6326388054506366,-0.4150946090569517,0.11243393166492444,0.08307020751571875,-0.4201061721866646,-0.4698420544737014
6.45,1.1490596610106905,-0.625520090230355,-0.23445815525765623,0.1106586483253516,0.09469167122763289,-0.4145449871883382,-0.4319316312492337
6.5,0.9746550579082911,-0.610814858978129,-0.11925815579653709,0.10866661616547257,0.11645447069144504,-0.40514059812843906,-0.39915914633083205
6.550000000000001,0.8397673878684033,-0.5928598899319215,-0.04339507351985705,0.10662133036917054,0.13910567046548397,-0.39408504105890796,-0.3678561073827403
6.6000000000000005,0.7318485295624042,-0.5737205646088753,0.008267487856802092,0.10460587828111129,0.15953324478684544,-0.38264880241878596,-0.33749919393587613
6.65,0.6432368203586444,-0.5543733088146539,0.04447557107022415,0.1026093398535386,0.1769194158407966,-0.3715235133112609,-0.30828991280585355
6.7,0.5690418267795387,-0.5352534022343562,0.07035740121705525,0.1006162495445615,0.19125595650512586,-0.3610016857806827,-0.2804252314697965
6.75,0.5059900637089698,-0.5165529540022855,0.08905025744425743,0.09861628360451913,0.20280620259759113,-0.3511534883454843,-0.25401153847593116
6.800000000000001,0.45180080782495974,-0.49836314769523254,0.10257754904431332,0.09658364123967061,0.21191303441729728,-0.34198415358966294,-0.22910646773367724
6.8500000000000005,0.40480465535842425,-0.4807097581530494,0.11228573157319888,0.09450866820538173,0.21890627434600404,-0.33343552925944053,-0.20571113565688792
6.9,0.3637293352050827,-0.4635994340458973,0.11909731965910425,0.0923955353401279,0.22407636458201124,-0.32539700537595106,-0.18378402468429927
6.95,0.32760994317234293,-0.44702518877573805,0.12369989107512125,0.09024315256318582,0.22768831595211814,-0.31779907065532126,-0.16330110642871212
7.0,0.29568171452198044,-0.4309754069285114,0.12659553167722792,0.08804734778392442,0.22997102316012077,-0.31057628242401547,-0.14421745634483507
7.050000000000001,0.2673226857782034,-0.4154296932085968,0.12815575766584145,0.08582457410772742,0.231114786616278,-0.3036432137544757,-0.1264659679485942
7.1000000000000005,0.24202732393113893,-0.4003607704903301,0.12866314304503979,0.08357604336436603,0.23127442861017405,-0.2969513294515671,-0.10999978378388603
7.15,0.21938418448820865,-0.38575077533352936,0.12834184394146375,0.08131133323454398,0.230590203572469,-0.29044480938779216,-0.09475620520498892
7.2,0.19905728319951715,-0.37157758874145147,0.1273776167701258,0.07903000033583307,0.22918511967120117,-0.2840844577117396,-0.08068170586707396
7.25,0.18075614010449917,-0.3578141217621088,0.125897138399524,0.076738904714448,0.22715184247057485,-0.27783735307138635,-0.06771424933485622
7.300000000000001,0.16424398286617942,-0.34444139493547105,0.12401293005284943,0.07443895777197623,0.22457777935745687,-0.271674255199702,-0.055797465941145305
7.3500000000000005,0.1493032291972087,-0.33143662116624106,0.12180903214737437,0.07213913845966224,0.22153300594618341,-0.2655559296501633,-0.04486356709834594
7.4,0.13576509070784057,-0.31877681715508355,0.11936003897068125,0.06984542239929653,0.21808104306706214,-0.2594670229066999,-0.03486414008681623
7.45,0.12346967542560298,-0.30644334451159505,0.11670960356240165,0.06756106517903476,0.21427068972058402,-0.2534086183921056,-0.025744398658622915
7.5,0.1122957703751413,-0.29442309782375053,0.11391632303639736,0.06528032742833395,0.21015413897933827,-0.24735152752287815,-0.017458076115819017
7.550000000000001,0.10212590512071949,-0.2826996159948863,0.11101493483673656,0.06301212882058455,0.2057753039021784,-0.24129662257843199,-0.00994928304916954
7.6000000000000005,0.09285739924654052,-0.27125486074018335,0.10802845891686359,0.06075811928667435,0.20116129177308528,-0.2352228706734325,-0.00317186069544996
7.65,0.08440730840459303,-0.26007334524518044,0.10498868560158633,0.05851734887335036,0.19634693148764729,-0.22912326555539012,0.00291537555841
7.7,0.07669002054543816,-0.2491488194342582,0.10190471324744715,0.05630074058555723,0.19135910716655213,-0.22300432256250818,0.00836344907543144
7.75,0.06964510766685764,-0.23846392911197034,0.09880253040161319,0.05410155597449601,0.18622220618833846,-0.21685216574475097,0.013202474298169946
7.800000000000001,0.06321474814481633,-0.2280119422354258,0.09569712592768699,0.05192749325877416,0.1809660647349387,-0.2106827179218101,0.017475426817961076
7.8500000000000005,0.057338078651525806,-0.2177812976263631,0.09258986187894133,0.04977433393412656,0.17559953666105363,-0.20447702236798998,0.02121969623778052
7.9,0.05196360141781263,-0.2077663055327275,0.08949356445205567,0.047644169776647316,0.1701448903150456,-0.19823930469879758,0.024471482270902366
7.95,0.047054305780142386,-0.1979547259383841,0.08641363473715054,0.04553926598142677,0.16461687067302944,-0.19198488975221095,0.027257326686466563
8.0,0.04256853906439957,-0.1883429849728095,0.08336039103491084,0.04346116576223416,0.15903349300933153,-0.18570241993682204,0.02961448694673896
8.05,0.03846564112503159,-0.17892817659251312,0.08033360802814593,0.041411760347836724,0.15340628943237564,-0.17939818398720908,0.03157434271733315
8.1,0.03472594615283359,-0.16970158651194667,0.07734453566516529,0.0393920634122808,0.14775267270738676,-0.17308652227214585,0.03315809211464865
8.15,0.031301771650744825,-0.16065546245215886,0.07438483996880543,0.0374036465765428,0.1420734721027633,-0.1667581877700962,0.034400602094762305
8.200000000000001,0.028184867776547926,-0.15179187157972832,0.07146944556571877,0.03544655891891629,0.13639048677514728,-0.16042390826014552,0.035321106468615776
8.25,0.025337979564169125,-0.14310123804897723,0.06859357594115303,0.033517265438417765,0.1307059988732928,-0.15408496686862413,0.03594721099257492
8.3,0.022750112134783798,-0.13458664078668747,0.06576474832257269,0.031623350612826645,0.12503885173487297,-0.14776214477740107,0.036301584072400896
8.35,0.02038764759394074,-0.12624732983120868,0.06297767508120322,0.029765859147984935,0.11939020291280102,-0.14143850549925294,0.03641331511549544
8.4,0.01824743790989522,-0.11807947428309545,0.06023963996650837,0.027940955589253025,0.1137731959656281,-0.13513856039768946,0.036292555983253025
8.450000000000001,0.016305729378213257,-0.11008568995812151,0.057554444625127904,0.026155399670360235,0.10820302288349101,-0.1288816980903486,0.035967470606523666
8.5,0.014536939715639643,-0.10225729499968397,0.054914835619309696,0.024403860189577048,0.10267422028853204,-0.12265447459169457,0.035456870744184646
8.55,0.012938093696050146,-0.09460166782715021,0.052327001719907465,0.022689659485166463,0.09720209164226203,-0.1164722800300236,0.03477725383208234
8.6,0.011490686712450612,-0.08711453918099216,0.04978891190636217,0.02101460117042961,0.09179019298154088,-0.11034265816835528,0.033947344510748746
8.65,0.01018457541905457,-0.07979807400330323,0.04730423999952378,0.019376091939306894,0.08644777315430589,-0.1042729668051337,0.03298327095827751
8.700000000000001,0.009004913622723001,-0.07265966788670712,0.044876695474129556,0.0177806778868749,0.08118741118434786,-0.09827381292871402,0.031906872267934726
8.75,0.007937884144748476,-0.06569727333394351,0.04250517566740165,0.016228553203557428,0.07601220155370675,-0.09235209120667048,0.030732116604698524
8.8,0.006988098403429427,-0.05891283177566188,0.04019116687645788,0.014722435090657238,0.07093111559428149,-0.08652892611752724,0.029468143427813585
8.85,0.006130356993125363,-0.052307865819620214,0.03793913427780262,0.013253867074340217,0.06595039622781765,-0.08079592257371529,0.028135966189358312
8.9,0.005361528887441534,-0.04588773246833068,0.035741337576715666,0.011834174552933993,0.06107334092300132,-0.07517577674600384,0.026747442728684234
8.950000000000001,0.004678607474997168,-0.03965725775778408,0.03360930084695249,0.010463174027938338,0.05631428256562728,-0.06967247397423953,0.02531585319055702
9.0,0.004072919566235157,-0.03361767899358096,0.03154103078609938,0.009139085360257135,0.05167746386647915,-0.0643033091214135,0.023852157636128746
9.05,0.0035280111742923143,-0.027776465437006424,0.029537259451791035,0.007866137379052146,0.04716848786172158,-0.05906192605715537,0.022375145876371193
9.1,0.0030505083438887443,-0.022132892316918257,0.027602917189014912,0.00664125074305158,0.042796603500691775,-0.053976349928462744,0.020886606972017968
9.15,0.0026175403842990594,-0.01669837670865438,0.025733813435150805,0.00547156855828404,0.038564604041968625,-0.049036012632690994,0.019409061812168487
9.200000000000001,0.002240712415351259,-0.011470447759140237,0.023935105456279873,0.00435657294576651,0.03448173282534205,-0.044275872389950365,0.017940008740710032
